;FLAVOR:RepRap
;TIME:5130
;Filament used: 5.66296m
;Layer height: 0.2
;Generated with Cura_SteamEngine 0.0.0-master
M104 S200
M109 S200
;Sliced at: Sat 17-02-2018 19:51:21 
 ;Basic settings: Layer height: 0.2 Walls: 1.2 Fill: {fill_density} 
 ;Print time: 01:25:30 
 ;Filament used: [5.66]m [16.8900654296875]g 
 ;Filament cost: [0] 
 ;M190 S60 ;Uncomment to add your own bed temperature line 
 ;M109 S200 ;Uncomment to add your own temperature line 
 G21        ;metric values 
 G90        ;absolute positioning 
 M82        ;set extruder to absolute mode 
 M107       ;start with the fan off 
 G28 X0 Y0  ;move X/Y to min endstops 
 G28 Z0     ;move Z to min endstops 
 G1 Z15.0 F3000 ;move the platform down 15mm 
 G92 E0                  ;zero the extruded length 
 G1 F3000 E3              ;extrude 3mm of feed stock 
 G92 E0                  ;zero the extruded length again 
 G1 F3000 
 ;Put printing message on LCD screen 
 M117 Printing...
;LAYER_COUNT:110
;LAYER:0
M107
G0 F3600 X-14.266 Y27.46 Z0.299
;TYPE:SKIRT
G1 F1800 X-19.44 Y25.549 E0.27518
G1 X-26.577 Y23.256 E0.64917
G1 X-27.074 Y23.055 E0.67591
G1 X-27.652 Y22.697 E0.70983
G1 X-28.681 Y21.916 E0.77428
G1 X-29.083 Y21.56 E0.80107
G1 X-29.35 Y21.254 E0.82133
G1 X-30.157 Y20.213 E0.88705
G1 X-30.453 Y19.766 E0.9138
G1 X-30.632 Y19.399 E0.93417
G1 X-31.129 Y18.214 E0.99828
G1 X-31.299 Y17.706 E1.025
G1 X-31.384 Y17.249 E1.04819
G1 X-31.574 Y15.659 E1.12808
G1 X-31.599 Y15.231 E1.14947
G1 X-31.587 Y-15.535 E2.68439
G1 X-31.556 Y-16.004 E2.70784
G1 X-31.394 Y-17.233 E2.76969
G1 X-31.285 Y-17.758 E2.79644
G1 X-31.157 Y-18.126 E2.81588
G1 X-30.661 Y-19.339 E2.88126
G1 X-30.422 Y-19.818 E2.90797
G1 X-30.197 Y-20.152 E2.92806
G1 X-29.416 Y-21.181 E2.99251
G1 X-29.06 Y-21.583 E3.0193
G1 X-28.753 Y-21.85 E3.03959
G1 X-27.713 Y-22.656 E3.10524
G1 X-27.266 Y-22.953 E3.13201
G1 X-26.82 Y-23.163 E3.15661
G1 X-25.323 Y-23.749 E3.23681
G1 X-25.054 Y-23.843 E3.25103
G1 X-19.728 Y-25.455 E3.52865
G1 X-14.64 Y-27.317 E3.79895
G1 X-8.933 Y-29.791 E4.10928
G1 X-8.426 Y-29.967 E4.13605
G1 X-7.899 Y-30.066 E4.1628
G1 X-7.501 Y-30.088 E4.18269
G1 X7.496 Y-30.09 E4.93089
G1 X8.03 Y-30.05 E4.95761
G1 X8.553 Y-29.931 E4.98437
G1 X8.937 Y-29.789 E5.0048
G1 X14.325 Y-27.436 E5.29812
G1 X16.844 Y-26.463 E5.43284
G1 X22.007 Y-24.722 E5.70468
G1 X25.214 Y-23.802 E5.87113
G1 X25.582 Y-23.675 E5.89055
G1 X26.836 Y-23.163 E5.95813
G1 X27.316 Y-22.924 E5.98488
G1 X27.651 Y-22.698 E6.00504
G1 X28.68 Y-21.917 E6.06949
G1 X29.082 Y-21.561 E6.09628
G1 X29.348 Y-21.256 E6.11647
G1 X30.147 Y-20.226 E6.1815
G1 X30.444 Y-19.779 E6.20828
G1 X30.619 Y-19.421 E6.22816
G1 X31.125 Y-18.224 E6.29299
G1 X31.296 Y-17.716 E6.31973
G1 X31.386 Y-17.225 E6.34464
G1 X31.577 Y-15.53 E6.42974
G1 X31.6 Y-15.123 E6.45008
G1 X31.567 Y15.742 E7.98994
G1 X31.533 Y16.232 E8.01444
G1 X31.391 Y17.257 E8.06607
G1 X31.278 Y17.781 E8.09281
G1 X31.157 Y18.126 E8.11105
G1 X30.661 Y19.339 E8.17643
G1 X30.422 Y19.818 E8.20314
G1 X30.197 Y20.152 E8.22323
G1 X29.416 Y21.181 E8.28768
G1 X29.06 Y21.583 E8.31447
G1 X28.753 Y21.85 E8.33477
G1 X27.713 Y22.656 E8.40041
G1 X27.266 Y22.953 E8.42719
G1 X26.82 Y23.163 E8.45178
G1 X25.323 Y23.749 E8.53199
G1 X25.054 Y23.843 E8.5462
G1 X19.728 Y25.455 E8.82382
G1 X14.64 Y27.317 E9.09413
G1 X8.933 Y29.791 E9.40445
G1 X8.426 Y29.967 E9.43123
G1 X7.899 Y30.066 E9.45798
G1 X7.501 Y30.088 E9.47787
G1 X-7.492 Y30.09 E10.22587
G1 X-8.026 Y30.05 E10.25259
G1 X-8.549 Y29.931 E10.27934
G1 X-8.933 Y29.789 E10.29977
G1 X-14.266 Y27.46 E10.5901
G0 F3600 X-14.118 Y27.088
G1 F1800 X-19.299 Y25.175 E10.86564
G1 X-26.455 Y22.876 E11.24062
G1 X-26.922 Y22.683 E11.26583
G1 X-27.411 Y22.378 E11.29459
G1 X-28.44 Y21.597 E11.35904
G1 X-28.817 Y21.26 E11.38426
G1 X-29.034 Y21.009 E11.40082
G1 X-29.841 Y19.968 E11.46653
G1 X-30.118 Y19.545 E11.49176
G1 X-30.263 Y19.245 E11.50838
G1 X-30.76 Y18.06 E11.57249
G1 X-30.918 Y17.579 E11.59775
G1 X-30.986 Y17.202 E11.61686
G1 X-31.176 Y15.612 E11.69675
G1 X-31.199 Y15.231 E11.71579
G1 X-31.187 Y-15.535 E13.25072
G1 X-31.16 Y-15.952 E13.27156
G1 X-30.998 Y-17.181 E13.33341
G1 X-30.892 Y-17.676 E13.35866
G1 X-30.787 Y-17.974 E13.37443
G1 X-30.291 Y-19.187 E13.43981
G1 X-30.063 Y-19.639 E13.46507
G1 X-29.878 Y-19.911 E13.48148
G1 X-29.097 Y-20.94 E13.54593
G1 X-28.76 Y-21.317 E13.57115
G1 X-28.508 Y-21.534 E13.58775
G1 X-27.468 Y-22.34 E13.65339
G1 X-27.045 Y-22.617 E13.67861
G1 X-26.674 Y-22.791 E13.69906
G1 X-25.177 Y-23.377 E13.77926
G1 X-24.938 Y-23.46 E13.79188
G1 X-19.595 Y-25.077 E14.07039
G1 X-14.501 Y-26.941 E14.34101
G1 X-8.774 Y-29.424 E14.65243
G1 X-8.295 Y-29.588 E14.67769
G1 X-7.797 Y-29.674 E14.7029
G1 X-7.501 Y-29.688 E14.71768
G1 X7.496 Y-29.69 E15.46589
G1 X8 Y-29.65 E15.49111
G1 X8.491 Y-29.531 E15.51632
G1 X8.777 Y-29.423 E15.53157
G1 X14.181 Y-27.063 E15.82576
G1 X16.712 Y-26.085 E15.96114
G1 X21.876 Y-24.345 E16.233
G1 X25.104 Y-23.418 E16.40055
G1 X25.431 Y-23.305 E16.41782
G1 X26.685 Y-22.793 E16.48539
G1 X27.136 Y-22.565 E16.5106
G1 X27.41 Y-22.379 E16.52713
G1 X28.439 Y-21.598 E16.59158
G1 X28.816 Y-21.261 E16.6168
G1 X29.032 Y-21.01 E16.63332
G1 X29.831 Y-19.98 E16.69836
G1 X30.109 Y-19.558 E16.72357
G1 X30.25 Y-19.265 E16.73979
G1 X30.756 Y-18.068 E16.80463
G1 X30.916 Y-17.588 E16.82987
G1 X30.989 Y-17.18 E16.85055
G1 X31.18 Y-15.485 E16.93565
G1 X31.2 Y-15.124 E16.95369
G1 X31.167 Y15.741 E18.49355
G1 X31.137 Y16.177 E18.51535
G1 X30.995 Y17.202 E18.56698
G1 X30.886 Y17.696 E18.59222
G1 X30.787 Y17.974 E18.60694
G1 X30.291 Y19.187 E18.67232
G1 X30.063 Y19.639 E18.69758
G1 X29.878 Y19.911 E18.71399
G1 X29.097 Y20.94 E18.77844
G1 X28.76 Y21.317 E18.80367
G1 X28.508 Y21.534 E18.82026
G1 X27.468 Y22.34 E18.8859
G1 X27.045 Y22.617 E18.91113
G1 X26.674 Y22.791 E18.93157
G1 X25.177 Y23.377 E19.01177
G1 X24.938 Y23.46 E19.0244
G1 X19.595 Y25.077 E19.3029
G1 X14.501 Y26.941 E19.57352
G1 X8.774 Y29.424 E19.88494
G1 X8.295 Y29.588 E19.9102
G1 X7.797 Y29.674 E19.93541
G1 X7.501 Y29.688 E19.9502
G1 X-7.492 Y29.69 E20.6982
G1 X-7.996 Y29.65 E20.72342
G1 X-8.487 Y29.531 E20.74863
G1 X-8.773 Y29.423 E20.76388
G1 X-14.118 Y27.088 E21.05488
G1 F3600 E13.05488
G0 F3600 X-15.545 Y21.163
G0 X-15.564 Y21.086
G0 X-19.992 Y2.718
G0 X-20.011 Y2.64
G0 X-20.069 Y2.404
;TYPE:SUPPORT
G1 F3600 E21.05488
G1 F1800 X-20.202 Y2.467 E21.06222
G1 X-20.833 Y2.588 E21.09428
G1 X-21.491 Y2.546 E21.12717
G1 X-22.097 Y2.349 E21.15896
G1 X-22.652 Y1.996 E21.19178
G1 X-22.858 Y1.778 E21.20674
G1 X-23.098 Y1.523 E21.22421
G1 X-23.41 Y0.956 E21.2565
G1 X-23.573 Y0.322 E21.28916
G1 X-23.573 Y-0.318 E21.32109
G1 X-23.408 Y-0.96 E21.35416
G1 X-23.377 Y-1.017 E21.35739
G1 X-23.101 Y-1.52 E21.38602
G1 X-22.859 Y-1.777 E21.40363
G1 X-22.653 Y-1.996 E21.41863
G1 X-22.347 Y-2.19 E21.43671
G1 X-22.105 Y-2.344 E21.45102
G1 X-21.482 Y-2.546 E21.48369
G1 X-21.032 Y-2.574 E21.50619
G1 X-20.944 Y-2.58 E21.51059
G1 X-20.929 Y-2.581 E21.51134
G1 X-20.86 Y-2.585 E21.51478
G1 X-20.837 Y-2.586 E21.51593
G1 X-20.195 Y-2.464 E21.54854
G1 X-19.613 Y-2.19 E21.58063
G1 X-19.391 Y-2.008 E21.59495
G1 X-19.113 Y-1.777 E21.61298
G1 X-18.726 Y-1.245 E21.6458
G1 X-18.487 Y-0.639 E21.6783
G1 X-18.404 Y-0.002 E21.71035
G1 X-18.487 Y0.639 E21.7426
G1 X-18.727 Y1.249 E21.7753
G1 X-18.925 Y1.523 E21.79217
G1 X-19.107 Y1.774 E21.80764
G1 X-19.612 Y2.186 E21.84015
G1 X-20.069 Y2.404 E21.86541
G0 F3600 X-21.328 Y2.397
G1 F1800 X-21.328 Y-2.397 E22.10459
G0 F3600 X-23.413 Y0.00
G1 F1800 X-18.568 Y0.00 E22.34631
G0 F3600 X-18.662 Y-0.645
G1 F1800 X-18.662 Y0.648 E22.41081
G1 F3600 E14.41081
G0 F3600 X-18.251 Y0.643
G0 X-18.171 Y0.642
G0 X18.113 Y0.323
G0 X18.193 Y0.323
G0 X18.427 Y0.322
G1 F3600 E22.41081
G1 F1800 X18.427 Y-0.318 E22.44274
G1 X18.592 Y-0.96 E22.47581
G1 X18.623 Y-1.017 E22.47905
G1 X18.899 Y-1.52 E22.50768
G1 X19.141 Y-1.777 E22.52529
G1 X19.347 Y-1.996 E22.54029
G1 X19.653 Y-2.19 E22.55836
G1 X19.895 Y-2.344 E22.57267
G1 X20.518 Y-2.546 E22.60535
G1 X20.968 Y-2.574 E22.62784
G1 X21.056 Y-2.58 E22.63224
G1 X21.071 Y-2.581 E22.63299
G1 X21.14 Y-2.585 E22.63644
G1 X21.163 Y-2.586 E22.63759
G1 X21.805 Y-2.464 E22.67019
G1 X22.387 Y-2.19 E22.70228
G1 X22.609 Y-2.008 E22.71661
G1 X22.887 Y-1.777 E22.73464
G1 X23.274 Y-1.245 E22.76746
G1 X23.513 Y-0.639 E22.79996
G1 X23.596 Y-0.002 E22.83201
G1 X23.513 Y0.639 E22.86426
G1 X23.273 Y1.249 E22.89696
G1 X23.075 Y1.523 E22.91383
G1 X22.893 Y1.774 E22.92929
G1 X22.388 Y2.186 E22.96181
G1 X21.931 Y2.404 E22.98707
G1 X21.798 Y2.467 E22.99441
G1 X21.167 Y2.588 E23.02647
G1 X20.509 Y2.546 E23.05936
G1 X19.903 Y2.349 E23.09115
G1 X19.348 Y1.996 E23.12397
G1 X19.142 Y1.778 E23.13893
G1 X18.902 Y1.523 E23.1564
G1 X18.59 Y0.956 E23.18869
G1 X18.427 Y0.322 E23.22135
G0 F3600 X18.662 Y0.594
G1 F1800 X18.662 Y-0.594 E23.28062
G0 F3600 X18.587 Y0.00
G1 F1800 X23.432 Y0.00 E23.52234
G0 F3600 X21.328 Y-2.391
G1 F1800 X21.328 Y2.394 E23.76106
G1 F3600 E15.76106
G0 F3600 X21.399 Y2.784
G0 X21.639 Y4.044
G0 X21.283 Y4.498
;TYPE:WALL-INNER
G1 F3600 E23.76106
G1 F1800 X22.394 Y4.287 E23.81748
G1 X23.415 Y3.805 E23.87381
G1 X24.286 Y3.086 E23.93015
G1 X24.95 Y2.171 E23.98656
G1 X25.365 Y1.12 E24.04293
G1 X25.508 Y0.00 E24.09926
G1 X25.365 Y-1.12 E24.15559
G1 X24.95 Y-2.171 E24.21197
G1 X24.286 Y-3.086 E24.26837
G1 X23.415 Y-3.805 E24.32472
G1 X22.394 Y-4.287 E24.38105
G1 X21.283 Y-4.498 E24.43747
G1 X20.155 Y-4.428 E24.49385
G1 X19.08 Y-4.079 E24.55024
G1 X18.127 Y-3.474 E24.60655
G1 X17.353 Y-2.649 E24.66299
G1 X16.809 Y-1.658 E24.71939
G1 X16.528 Y-0.566 E24.77565
G1 X16.528 Y0.566 E24.83212
G1 X16.809 Y1.658 E24.88838
G1 X17.353 Y2.649 E24.94478
G1 X18.127 Y3.474 E25.00122
G1 X19.08 Y4.079 E25.05753
G1 X20.155 Y4.428 E25.11392
G1 X21.283 Y4.498 E25.17031
G0 F3600 X27 Y15.431
G1 F1800 X26.855 Y16.534 E25.22581
G1 X26.455 Y17.5 E25.27797
G1 X25.823 Y18.323 E25.32974
G1 X25 Y18.955 E25.38151
G1 X24.034 Y19.355 E25.43367
G1 X22.931 Y19.5 E25.48917
G1 X6.5 Y19.5 E26.30892
G1 X6.5 Y25.5 E26.60826
G1 X1.803 Y25.5 E26.84259
G1 X1.756 Y25.5 E26.84494
G1 X1.329 Y25.5 E26.86624
G1 X1.756 Y25.148 E26.88095
G1 X1.783 Y25.11 E26.88315
G1 X2.112 Y24.659 E26.911
G1 X2.331 Y24.098 E26.94105
G1 X2.408 Y23.5 E26.97113
G1 X2.331 Y22.902 E27.00121
G1 X2.112 Y22.341 E27.03125
G1 X1.756 Y21.852 E27.06143
G1 X1.29 Y21.468 E27.09155
G1 X0.745 Y21.211 E27.12162
G1 X0.151 Y21.098 E27.15178
G1 X-0.45 Y21.135 E27.18182
G1 X-1.026 Y21.321 E27.21202
G1 X-1.534 Y21.644 E27.24205
G1 X-1.948 Y22.084 E27.27219
G1 X-2.239 Y22.615 E27.3024
G1 X-2.389 Y23.198 E27.33244
G1 X-2.389 Y23.802 E27.36257
G1 X-2.239 Y24.385 E27.3926
G1 X-1.948 Y24.916 E27.42281
G1 X-1.736 Y25.141 E27.43824
G1 X-1.534 Y25.356 E27.45295
G1 X-1.308 Y25.5 E27.46632
G1 X-1.534 Y25.5
G1 X-1.83 Y25.5 E27.47676
G1 X-6.5 Y25.5 E27.70975
G1 X-6.5 Y19.5 E28.00909
G1 X-22.931 Y19.5 E28.82884
G1 X-24.034 Y19.355 E28.88434
G1 X-25 Y18.955 E28.9365
G1 X-25.823 Y18.323 E28.98827
G1 X-26.455 Y17.5 E29.04004
G1 X-26.855 Y16.534 E29.0922
G1 X-27 Y15.431 E29.14771
G1 X-27 Y-15.431 E30.68742
G1 X-26.855 Y-16.534 E30.74292
G1 X-26.455 Y-17.5 E30.79508
G1 X-25.823 Y-18.323 E30.84685
G1 X-25 Y-18.955 E30.89862
G1 X-24.034 Y-19.355 E30.95078
G1 X-22.931 Y-19.5 E31.00629
G1 X-6.5 Y-19.5 E31.82603
G1 X-6.5 Y-25.5 E32.12537
G1 X-1.83 Y-25.5 E32.35836
G1 X-1.534 Y-25.5 E32.37313
G1 X-1.308 Y-25.5 E32.3844
G1 X-1.534 Y-25.356
G1 X-1.736 Y-25.141 E32.3948
G1 X-1.948 Y-24.916 E32.41022
G1 X-2.239 Y-24.385 E32.44043
G1 X-2.389 Y-23.802 E32.47046
G1 X-2.389 Y-23.198 E32.50059
G1 X-2.239 Y-22.615 E32.53063
G1 X-1.948 Y-22.084 E32.56084
G1 X-1.534 Y-21.644 E32.59098
G1 X-1.026 Y-21.321 E32.62101
G1 X-0.45 Y-21.135 E32.65121
G1 X0.151 Y-21.098 E32.68125
G1 X0.745 Y-21.211 E32.71142
G1 X1.29 Y-21.468 E32.74148
G1 X1.756 Y-21.852 E32.7716
G1 X2.112 Y-22.341 E32.80178
G1 X2.331 Y-22.902 E32.83182
G1 X2.408 Y-23.5 E32.86191
G1 X2.331 Y-24.098 E32.89199
G1 X2.112 Y-24.659 E32.92203
G1 X1.783 Y-25.11 E32.94988
G1 X1.756 Y-25.148 E32.95221
G1 X1.329 Y-25.5 E32.97982
G1 X1.756 Y-25.5 E32.98823
G1 X1.803 Y-25.5 E32.99045
G1 X6.5 Y-25.5 E33.22478
G1 X6.5 Y-19.5 E33.52412
G1 X22.931 Y-19.5 E34.34387
G1 X24.034 Y-19.355 E34.39937
G1 X25 Y-18.955 E34.45153
G1 X25.823 Y-18.323 E34.5033
G1 X26.455 Y-17.5 E34.55507
G1 X26.855 Y-16.534 E34.60723
G1 X27 Y-15.431 E34.66274
G1 X27 Y15.431 E36.20245
G0 F3600 X-16.635 Y1.12
G1 F1800 X-16.492 Y0.00 E36.25878
G1 X-16.635 Y-1.12 E36.31511
G1 X-17.05 Y-2.171 E36.37148
G1 X-17.714 Y-3.086 E36.42789
G1 X-18.585 Y-3.805 E36.48423
G1 X-19.606 Y-4.287 E36.54056
G1 X-20.717 Y-4.498 E36.59698
G1 X-21.845 Y-4.428 E36.65337
G1 X-22.92 Y-4.079 E36.70975
G1 X-23.873 Y-3.474 E36.76607
G1 X-24.647 Y-2.649 E36.82251
G1 X-25.191 Y-1.658 E36.87891
G1 X-25.472 Y-0.566 E36.93516
G1 X-25.472 Y0.566 E36.99164
G1 X-25.191 Y1.658 E37.04789
G1 X-24.647 Y2.649 E37.10429
G1 X-23.873 Y3.474 E37.16073
G1 X-22.92 Y4.079 E37.21705
G1 X-21.845 Y4.428 E37.27344
G1 X-20.717 Y4.498 E37.32982
G1 X-19.606 Y4.287 E37.38624
G1 X-18.585 Y3.805 E37.44257
G1 X-17.714 Y3.086 E37.49892
G1 X-17.05 Y2.171 E37.55532
G1 X-16.635 Y1.12 E37.61169
G0 F3600 X-17.025 Y1.02
G1 F1800 X-16.895 Y0.00 E37.66299
G1 X-17.025 Y-1.02 E37.71429
G1 X-17.403 Y-1.977 E37.76563
G1 X-18.008 Y-2.81 E37.81699
G1 X-18.801 Y-3.465 E37.8683
G1 X-19.731 Y-3.904 E37.91961
G1 X-20.742 Y-4.096 E37.97095
G1 X-21.77 Y-4.032 E38.02234
G1 X-22.748 Y-3.714 E38.07365
G1 X-23.616 Y-3.163 E38.12494
G1 X-24.321 Y-2.412 E38.17633
G1 X-24.816 Y-1.51 E38.22766
G1 X-25.072 Y-0.515 E38.27892
G1 X-25.072 Y0.515 E38.3303
G1 X-24.816 Y1.51 E38.38156
G1 X-24.321 Y2.412 E38.43289
G1 X-23.616 Y3.163 E38.48428
G1 X-22.748 Y3.714 E38.53558
G1 X-21.77 Y4.032 E38.58688
G1 X-20.742 Y4.096 E38.63827
G1 X-19.731 Y3.904 E38.68961
G1 X-18.801 Y3.465 E38.74092
G1 X-18.008 Y2.81 E38.79223
G1 X-17.403 Y1.977 E38.84359
G1 X-17.025 Y1.02 E38.89493
G0 F3600 X-16.929 Y1.044
G0 X-17.368 Y1.996
G0 X-27.301 Y15.454
G0 X-27.4 Y15.46
G1 F1800 X-27.4 Y-15.46 E40.43753
G1 X-27.245 Y-16.638 E40.49681
G1 X-26.806 Y-17.698 E40.55405
G1 X-26.108 Y-18.608 E40.61127
G1 X-25.198 Y-19.306 E40.66849
G1 X-24.138 Y-19.745 E40.72573
G1 X-22.96 Y-19.9 E40.785
G1 X-6.9 Y-19.9 E41.58624
G1 X-6.9 Y-25.9 E41.88558
G1 X0.126 Y-25.9 E42.23611
G1 X6.9 Y-25.9 E42.57407
G1 X6.9 Y-19.9 E42.87341
G1 X22.96 Y-19.9 E43.67464
G1 X24.138 Y-19.745 E43.73392
G1 X25.198 Y-19.306 E43.79116
G1 X26.108 Y-18.608 E43.84838
G1 X26.806 Y-17.698 E43.90559
G1 X27.245 Y-16.638 E43.96283
G1 X27.4 Y-15.46 E44.02211
G1 X27.4 Y15.46 E45.56472
G1 X27.245 Y16.638 E45.62399
G1 X26.806 Y17.698 E45.68123
G1 X26.108 Y18.608 E45.73845
G1 X25.198 Y19.306 E45.79567
G1 X24.138 Y19.745 E45.85291
G1 X22.96 Y19.9 E45.91218
G1 X6.9 Y19.9 E46.71342
G1 X6.9 Y25.9 E47.01276
G1 X0.126 Y25.9 E47.35072
G1 X-6.9 Y25.9 E47.70125
G1 X-6.9 Y19.9 E48.00059
G1 X-22.96 Y19.9 E48.80183
G1 X-24.138 Y19.745 E48.8611
G1 X-25.198 Y19.306 E48.91834
G1 X-26.108 Y18.608 E48.97556
G1 X-26.806 Y17.698 E49.03278
G1 X-27.245 Y16.638 E49.09002
G1 X-27.4 Y15.46 E49.14929
G0 F3600 X-27.301 Y15.454
G0 X-6.872 Y19.872
G0 X-1.957 Y22.727
G0 X-1.864 Y22.763
G1 F1800 X-1.989 Y23.249 E49.17433
G1 X-1.989 Y23.751 E49.19937
G1 X-1.864 Y24.237 E49.22441
G1 X-1.622 Y24.679 E49.24955
G1 X-1.277 Y25.045 E49.27464
G1 X-0.854 Y25.314 E49.29965
G1 X-0.375 Y25.469 E49.32477
G1 X0.126 Y25.5 E49.34981
G1 X0.62 Y25.406 E49.3749
G1 X1.074 Y25.192 E49.39994
G1 X1.462 Y24.872 E49.42503
G1 X1.758 Y24.465 E49.45014
G1 X1.941 Y23.998 E49.47516
G1 X2.005 Y23.5 E49.50021
G1 X1.941 Y23.002 E49.52526
G1 X1.758 Y22.535 E49.55029
G1 X1.462 Y22.128 E49.57539
G1 X1.074 Y21.808 E49.60049
G1 X0.62 Y21.594 E49.62553
G1 X0.126 Y21.5 E49.65061
G1 X-0.375 Y21.531 E49.67566
G1 X-0.854 Y21.686 E49.70077
G1 X-1.277 Y21.955 E49.72578
G1 X-1.622 Y22.321 E49.75088
G1 X-1.864 Y22.763 E49.77602
G0 F3600 X-1.957 Y22.727
G0 X-1.302 Y21.925
G0 X18.321 Y3.24
G0 X18.384 Y3.163
G1 F1800 X19.252 Y3.714 E49.82731
G1 X20.23 Y4.032 E49.87862
G1 X21.258 Y4.096 E49.93
G1 X22.269 Y3.904 E49.98135
G1 X23.199 Y3.465 E50.03265
G1 X23.992 Y2.81 E50.08397
G1 X24.597 Y1.977 E50.13533
G1 X24.975 Y1.02 E50.18666
