;FLAVOR:RepRap
;TIME:1528
;Filament used: 1.61918m
;Layer height: 0.2
;Generated with Cura_SteamEngine 0.0.0-master
M104 S200
M109 S200
;Sliced at: Sun 18-02-2018 07:19:34 
 ;Basic settings: Layer height: 0.2 Walls: 1.2 Fill: {fill_density} 
 ;Print time: 00:25:29 
 ;Filament used: [1.62]m [4.8292829296874995]g 
 ;Filament cost: [0] 
 ;M190 S60 ;Uncomment to add your own bed temperature line 
 ;M109 S200 ;Uncomment to add your own temperature line 
 G21        ;metric values 
 G90        ;absolute positioning 
 M82        ;set extruder to absolute mode 
 M107       ;start with the fan off 
 G28 X0 Y0  ;move X/Y to min endstops 
 G28 Z0     ;move Z to min endstops 
 G1 Z15.0 F3000 ;move the platform down 15mm 
 G92 E0                  ;zero the extruded length 
 G1 F3000 E3              ;extrude 3mm of feed stock 
 G92 E0                  ;zero the extruded length again 
 G1 F3000 
 ;Put printing message on LCD screen 
 M117 Printing...
;LAYER_COUNT:17
;LAYER:0
M107
G0 F3600 X26.811 Y-22.301 Z0.299
;TYPE:SKIRT
G1 F1800 X26.804 Y22.503 E2.23528
G1 X26.764 Y23.037 E2.262
G1 X26.602 Y23.692 E2.29566
G1 X26.485 Y24.026 E2.31332
G1 X26.27 Y24.518 E2.3401
G1 X25.985 Y24.972 E2.36685
G1 X25.635 Y25.379 E2.39363
G1 X25.229 Y25.729 E2.42037
G1 X24.876 Y25.96 E2.44142
G1 X24.235 Y26.327 E2.47827
G1 X23.751 Y26.558 E2.50502
G1 X23.238 Y26.715 E2.53179
G1 X22.446 Y26.803 E2.57154
G1 X-22.523 Y26.8 E4.81506
G1 X-23.058 Y26.76 E4.84182
G1 X-23.767 Y26.578 E4.87834
G1 X-24.082 Y26.462 E4.89509
G1 X-24.57 Y26.24 E4.92184
G1 X-25.02 Y25.948 E4.9486
G1 X-25.421 Y25.592 E4.97535
G1 X-25.88 Y25.009 E5.01237
G1 X-26.242 Y24.437 E5.04614
G1 X-26.494 Y23.964 E5.07288
G1 X-26.673 Y23.458 E5.09966
G1 X-26.775 Y22.932 E5.12639
G1 X-26.8 Y22.512 E5.14738
G1 X-26.805 Y-22.498 E7.39294
G1 X-26.765 Y-23.032 E7.41965
G1 X-26.681 Y-23.436 E7.44024
G1 X-26.599 Y-23.74 E7.45595
G1 X-26.421 Y-24.245 E7.48266
G1 X-26.17 Y-24.719 E7.50942
G1 X-25.851 Y-25.151 E7.53621
G1 X-25.472 Y-25.53 E7.56295
G1 X-25.088 Y-25.818 E7.5869
G1 X-24.477 Y-26.216 E7.62328
G1 X-24.007 Y-26.475 E7.65005
G1 X-23.504 Y-26.661 E7.67681
G1 X-22.979 Y-26.77 E7.70356
G1 X-22.512 Y-26.8 E7.72691
G1 X22.514 Y-26.8 E9.97326
G1 X23.049 Y-26.76 E10.00003
G1 X23.572 Y-26.641 E10.02679
G1 X24.071 Y-26.446 E10.05352
G1 X24.601 Y-26.133 E10.08423
G1 X25.062 Y-25.805 E10.11245
G1 X25.475 Y-25.463 E10.13921
G1 X25.832 Y-25.063 E10.16595
G1 X25.998 Y-24.827 E10.18035
G1 X26.15 Y-24.592 E10.19431
G1 X26.407 Y-24.121 E10.22108
G1 X26.619 Y-23.513 E10.2532
G1 X26.703 Y-23.178 E10.27044
G1 X26.794 Y-22.649 E10.29721
G1 X26.811 Y-22.301 E10.3146
G0 F3600 X26.411 Y-22.302
G1 F1800 X26.404 Y22.502 E12.54988
G1 X26.364 Y23.006 E12.5751
G1 X26.224 Y23.56 E12.60361
G1 X26.107 Y23.894 E12.62127
G1 X25.903 Y24.356 E12.64646
G1 X25.628 Y24.781 E12.67172
G1 X25.29 Y25.157 E12.69694
G1 X24.897 Y25.475 E12.72216
G1 X24.677 Y25.613 E12.73512
G1 X24.036 Y25.98 E12.77197
G1 X23.579 Y26.196 E12.79719
G1 X23.093 Y26.337 E12.82243
G1 X22.446 Y26.403 E12.85488
G1 X-22.523 Y26.4 E15.09839
G1 X-23.027 Y26.36 E15.12362
G1 X-23.629 Y26.203 E15.15466
G1 X-23.944 Y26.087 E15.1714
G1 X-24.403 Y25.875 E15.19663
G1 X-24.823 Y25.594 E15.22184
G1 X-25.194 Y25.25 E15.24708
G1 X-25.542 Y24.795 E15.27566
G1 X-25.904 Y24.223 E15.30943
G1 X-26.14 Y23.776 E15.33465
G1 X-26.302 Y23.297 E15.35988
G1 X-26.387 Y22.799 E15.38508
G1 X-26.4 Y22.512 E15.39941
G1 X-26.405 Y-22.498 E17.64497
G1 X-26.365 Y-23.002 E17.67019
G1 X-26.295 Y-23.331 E17.68698
G1 X-26.213 Y-23.635 E17.70268
G1 X-26.043 Y-24.112 E17.72795
G1 X-25.8 Y-24.555 E17.75316
G1 X-25.491 Y-24.955 E17.77837
G1 X-25.122 Y-25.301 E17.80361
G1 X-24.87 Y-25.483 E17.81912
G1 X-24.259 Y-25.881 E17.8555
G1 X-23.814 Y-26.123 E17.88077
G1 X-23.338 Y-26.292 E17.90597
G1 X-22.841 Y-26.383 E17.93118
G1 X-22.512 Y-26.4 E17.94761
G1 X22.514 Y-26.4 E20.19397
G1 X23.018 Y-26.36 E20.21919
G1 X23.509 Y-26.241 E20.2444
G1 X23.976 Y-26.047 E20.26963
G1 X24.369 Y-25.807 E20.2926
G1 X24.83 Y-25.479 E20.32083
G1 X25.218 Y-25.155 E20.34605
G1 X25.662 Y-24.61 E20.38112
G1 X25.814 Y-24.375 E20.39508
G1 X26.054 Y-23.93 E20.42031
G1 X26.231 Y-23.415 E20.44747
G1 X26.315 Y-23.08 E20.4647
G1 X26.399 Y-22.582 E20.4899
G1 X26.411 Y-22.302 E20.50388
G1 F3600 E12.50388
G0 F3600 X23.879 Y-22.304
G0 X22.594 Y-22.303
G0 X22.214 Y-22.015
;TYPE:WALL-INNER
G1 F3600 E20.50388
G1 F1800 X22.211 Y22.21 E22.71028
G1 X-22.01 Y22.215 E24.91647
G1 X-22.21 Y22.215 E24.92645
G1 X-22.21 Y22.015 E24.93291
G1 X-22.215 Y-22.21 E27.13931
G1 X22.014 Y-22.215 E29.3459
G1 X22.214 Y-22.215 E29.35588
G1 X22.214 Y-22.015 E29.36234
G0 F3600 X22.614 Y-22.328
G1 F1800 X22.611 Y22.441 E31.59587
G1 X22.343 Y22.61 E31.61168
G1 X-22.426 Y22.615 E33.84521
G1 X-22.441 Y22.611 E33.84599
G1 X-22.61 Y22.343 E33.8618
G1 X-22.615 Y-22.426 E36.09533
G1 X-22.611 Y-22.441 E36.0961
G1 X-22.343 Y-22.61 E36.11191
G1 X22.345 Y-22.615 E38.3414
G1 X22.358 Y-22.615 E38.34205
G1 X22.457 Y-22.558 E38.34775
G1 X22.509 Y-22.506 E38.35142
G1 X22.614 Y-22.341 E38.36118
G1 X22.614 Y-22.328 E38.36183
G0 F3600 X22.824 Y-22.757
;TYPE:WALL-OUTER
G1 F1800 X23.014 Y-22.458 E38.3795
G1 X23.015 Y22.481 E40.62152
G1 X22.956 Y22.696 E40.63264
G1 X22.459 Y23.01 E40.66197
G1 X-22.481 Y23.015 E42.90404
G1 X-22.696 Y22.956 E42.91516
G1 X-23.01 Y22.459 E42.94449
G1 X-23.015 Y-22.481 E45.18655
G1 X-22.956 Y-22.696 E45.19768
G1 X-22.459 Y-23.01 E45.22701
G1 X22.466 Y-23.015 E47.46832
G1 X22.702 Y-22.879 E47.48191
G1 X22.824 Y-22.757 E47.49052
G0 F3600 X22.931 Y-22.589
G0 X22.509 Y-22.321
G0 X22.014 Y-22.015
G0 X21.524 Y-22.033
;TYPE:SKIN
G1 F1800 X22.034 Y-21.523 E47.5265
G0 F3600 X22.034 Y-20.957
G1 F1800 X20.958 Y-22.033 E47.60242
G1 X20.888 Y-22.103
G0 F3600 X20.392 Y-22.033
G1 F1800 X22.034 Y-20.392 E47.71824
G1 X22.104 Y-20.322
G0 F3600 X22.034 Y-19.826
G1 F1800 X19.827 Y-22.033 E47.87395
G1 X19.757 Y-22.103
G0 F3600 X19.261 Y-22.033
G1 F1800 X22.034 Y-19.26 E48.0696
G1 X22.104 Y-19.19
G0 F3600 X22.034 Y-18.695
G1 F1800 X18.695 Y-22.033 E48.30515
G1 X18.625 Y-22.103
G0 F3600 X18.13 Y-22.033
G1 F1800 X22.034 Y-18.129 E48.5806
G1 X22.104 Y-18.059
G0 F3600 X22.034 Y-17.563
G1 F1800 X17.564 Y-22.033 E48.89598
G1 X17.494 Y-22.103
G0 F3600 X16.998 Y-22.033
G1 F1800 X22.034 Y-16.998 E49.25127
G1 X22.104 Y-16.928
G0 F3600 X22.034 Y-16.432
G1 F1800 X16.433 Y-22.033 E49.64645
G1 X16.363 Y-22.103
G0 F3600 X15.867 Y-22.033
G1 F1800 X22.034 Y-15.866 E50.08156
G1 X22.104 Y-15.796
G0 F3600 X22.034 Y-15.301
G1 F1800 X15.301 Y-22.033 E50.55658
G1 X15.231 Y-22.103
G0 F3600 X14.736 Y-22.033
G1 F1800 X22.034 Y-14.735 E51.07149
G1 X22.104 Y-14.665
G0 F3600 X22.033 Y-14.17
G1 F1800 X14.171 Y-22.032 E51.6262
G1 X14.101 Y-22.102
G0 F3600 X13.605 Y-22.032
G1 F1800 X22.033 Y-13.604 E52.22084
G1 X22.103 Y-13.534
G0 F3600 X22.033 Y-13.039
G1 F1800 X13.039 Y-22.032 E52.85538
G1 X12.969 Y-22.102
G0 F3600 X12.474 Y-22.032
G1 F1800 X22.033 Y-12.473 E53.52982
G1 X22.103 Y-12.403
G0 F3600 X22.033 Y-11.907
G1 F1800 X11.908 Y-22.032 E54.24419
G1 X11.838 Y-22.102
G0 F3600 X11.342 Y-22.032
G1 F1800 X22.033 Y-11.341 E54.9985
G1 X22.103 Y-11.271
G0 F3600 X22.033 Y-10.776
G1 F1800 X10.777 Y-22.032 E55.79267
G1 X10.707 Y-22.102
G0 F3600 X10.211 Y-22.032
G1 F1800 X22.033 Y-10.21 E56.62677
G1 X22.103 Y-10.14
G0 F3600 X22.033 Y-9.644
G1 F1800 X9.645 Y-22.032 E57.50081
G1 X9.575 Y-22.102
G0 F3600 X9.079 Y-22.032
G1 F1800 X22.033 Y-9.079 E58.41475
G1 X22.103 Y-9.009
G0 F3600 X22.033 Y-8.513
G1 F1800 X8.514 Y-22.032 E59.36859
G1 X8.444 Y-22.102
G0 F3600 X7.948 Y-22.032
G1 F1800 X22.033 Y-7.947 E60.36237
G1 X22.103 Y-7.877
G0 F3600 X22.033 Y-7.382
G1 F1800 X7.382 Y-22.032 E61.39604
G1 X7.312 Y-22.102
G0 F3600 X6.817 Y-22.032
G1 F1800 X22.032 Y-6.817 E62.46954
G1 X22.102 Y-6.747
G0 F3600 X22.032 Y-6.251
G1 F1800 X6.252 Y-22.032 E63.58294
G1 X6.182 Y-22.102
G0 F3600 X5.686 Y-22.032
G1 F1800 X22.032 Y-5.685 E64.73627
G1 X22.102 Y-5.615
G0 F3600 X22.032 Y-5.12
G1 F1800 X5.12 Y-22.032 E65.9295
G1 X5.05 Y-22.102
G0 F3600 X4.555 Y-22.032
G1 F1800 X22.032 Y-4.554 E67.16264
G1 X22.102 Y-4.484
G0 F3600 X22.032 Y-3.988
G1 F1800 X3.989 Y-22.032 E68.4357
G1 X3.919 Y-22.102
G0 F3600 X3.423 Y-22.032
G1 F1800 X22.032 Y-3.423 E69.74867
G1 X22.102 Y-3.353
G0 F3600 X22.032 Y-2.857
G1 F1800 X2.858 Y-22.032 E71.10153
G1 X2.788 Y-22.102
G0 F3600 X2.292 Y-22.032
G1 F1800 X22.032 Y-2.291 E72.49433
G1 X22.102 Y-2.221
G0 F3600 X22.032 Y-1.726
G1 F1800 X1.726 Y-22.032 E73.92703
G1 X1.656 Y-22.102
G0 F3600 X1.161 Y-22.032
G1 F1800 X22.032 Y-1.16 E75.39963
G1 X22.102 Y-1.09
G0 F3600 X22.032 Y-0.594
G1 F1800 X0.595 Y-22.032 E76.91216
G1 X0.525 Y-22.102
G0 F3600 X0.029 Y-22.032
G1 F1800 X22.032 Y-0.028 E78.46462
G1 X22.102 Y0.042
G0 F3600 X22.032 Y0.535
G1 F1800 X-0.535 Y-22.031 E80.05681
G1 X-0.605 Y-22.101
G0 F3600 X-1.1 Y-22.031
G1 F1800 X22.032 Y1.101 E81.6889
G1 X22.102 Y1.171
G0 F3600 X22.032 Y1.667
G1 F1800 X-1.666 Y-22.031 E83.36092
G1 X-1.736 Y-22.101
G0 F3600 X-2.232 Y-22.031
G1 F1800 X22.032 Y2.233 E85.07288
G1 X22.102 Y2.303
G0 F3600 X22.032 Y2.798
G1 F1800 X-2.798 Y-22.031 E86.82473
G1 X-2.868 Y-22.101
G0 F3600 X-3.363 Y-22.031
G1 F1800 X22.032 Y3.364 E88.61649
G1 X22.102 Y3.434
G0 F3600 X22.032 Y3.93
G1 F1800 X-3.929 Y-22.031 E90.44818
G1 X-3.999 Y-22.101
G0 F3600 X-4.495 Y-22.031
G1 F1800 X22.032 Y4.495 E92.31976
G1 X22.102 Y4.565
G0 F3600 X22.032 Y5.061
G1 F1800 X-5.06 Y-22.031 E94.23125
G1 X-5.13 Y-22.101
G0 F3600 X-5.626 Y-22.031
G1 F1800 X22.032 Y5.627 E96.18267
G1 X22.102 Y5.697
G0 F3600 X22.032 Y6.192
G1 F1800 X-6.192 Y-22.031 E98.17399
G1 X-6.262 Y-22.101
G0 F3600 X-6.757 Y-22.031
G1 F1800 X22.032 Y6.758 E100.20521
G1 X22.102 Y6.828
G0 F3600 X22.032 Y7.324
G1 F1800 X-7.323 Y-22.031 E102.27637
G1 X-7.393 Y-22.101
G0 F3600 X-7.888 Y-22.03
G1 F1800 X22.031 Y7.889 E104.38731
G1 X22.101 Y7.959
G0 F3600 X22.031 Y8.454
G1 F1800 X-8.454 Y-22.03 E106.53816
G1 X-8.524 Y-22.1
G0 F3600 X-9.019 Y-22.03
G1 F1800 X22.031 Y9.02 E108.7289
G1 X22.101 Y9.09
G0 F3600 X22.031 Y9.586
G1 F1800 X-9.585 Y-22.03 E110.95958
G1 X-9.655 Y-22.1
G0 F3600 X-10.151 Y-22.03
G1 F1800 X22.031 Y10.151 E113.23016
G1 X22.101 Y10.221
G0 F3600 X22.031 Y10.717
G1 F1800 X-10.716 Y-22.03 E115.54064
G1 X-10.786 Y-22.1
G0 F3600 X-11.282 Y-22.03
G1 F1800 X22.031 Y11.283 E117.89105
G1 X22.101 Y11.353
G0 F3600 X22.031 Y11.848
G1 F1800 X-11.848 Y-22.03 E120.28136
G1 X-11.918 Y-22.1
G0 F3600 X-12.413 Y-22.03
G1 F1800 X22.031 Y12.414 E122.71157
G1 X22.101 Y12.484
G0 F3600 X22.031 Y12.98
G1 F1800 X-12.979 Y-22.03 E125.18172
G1 X-13.049 Y-22.1
G0 F3600 X-13.545 Y-22.03
G1 F1800 X22.031 Y13.546 E127.6918
G1 X22.101 Y13.616
G0 F3600 X22.031 Y14.111
G1 F1800 X-14.111 Y-22.03 E130.24178
G1 X-14.181 Y-22.1
G0 F3600 X-14.676 Y-22.03
G1 F1800 X22.031 Y14.677 E132.83165
G1 X22.101 Y14.747
G0 F3600 X22.03 Y15.242
G1 F1800 X-15.241 Y-22.029 E135.46132
G1 X-15.311 Y-22.099
G0 F3600 X-15.807 Y-22.029
G1 F1800 X22.03 Y15.808 E138.13093
G1 X22.1 Y15.878
G0 F3600 X22.03 Y16.373
G1 F1800 X-16.373 Y-22.029 E140.84043
G1 X-16.443 Y-22.099
G0 F3600 X-16.938 Y-22.029
G1 F1800 X22.03 Y16.939 E143.58983
G1 X22.1 Y17.009
G0 F3600 X22.03 Y17.505
G1 F1800 X-17.504 Y-22.029 E146.37917
G1 X-17.574 Y-22.099
G0 F3600 X-18.07 Y-22.029
G1 F1800 X22.03 Y18.07 E149.20841
G1 X22.1 Y18.14
G0 F3600 X22.03 Y18.636
G1 F1800 X-18.635 Y-22.029 E152.07754
G1 X-18.705 Y-22.099
G0 F3600 X-19.201 Y-22.029
G1 F1800 X22.03 Y19.202 E154.98661
G1 X22.1 Y19.272
G0 F3600 X22.03 Y19.767
G1 F1800 X-19.767 Y-22.029 E157.93558
G1 X-19.837 Y-22.099
G0 F3600 X-20.332 Y-22.029
G1 F1800 X22.03 Y20.333 E160.92445
G1 X22.1 Y20.403
G0 F3600 X22.03 Y20.899
G1 F1800 X-20.898 Y-22.029 E163.95325
G1 X-20.968 Y-22.099
G0 F3600 X-21.464 Y-22.029
G1 F1800 X22.03 Y21.464 E167.02195
G1 X22.1 Y21.534
G0 F3600 X22.029 Y22.029
G1 F1800 X-22.029 Y-22.029 E170.13048
G1 X-22.099 Y-22.099
G0 F3600 X-22.034 Y-21.468
G1 F1800 X21.464 Y22.029 E173.19947
G1 X21.534 Y22.099
G0 F3600 X20.898 Y22.029
G1 F1800 X-22.034 Y-20.902 E176.22852
G1 X-22.104 Y-20.972
G0 F3600 X-22.034 Y-20.337
G1 F1800 X20.332 Y22.029 E179.21767
G1 X20.402 Y22.099
G0 F3600 X19.767 Y22.029
G1 F1800 X-22.034 Y-19.771 E182.16692
G1 X-22.104 Y-19.841
G0 F3600 X-22.034 Y-19.205
G1 F1800 X19.201 Y22.029 E185.07623
G1 X19.271 Y22.099
G0 F3600 X18.635 Y22.029
G1 F1800 X-22.034 Y-18.64 E187.94565
G1 X-22.104 Y-18.71
G0 F3600 X-22.034 Y-18.074
G1 F1800 X18.07 Y22.029 E190.77517
G1 X18.14 Y22.099
G0 F3600 X17.504 Y22.029
G1 F1800 X-22.034 Y-17.508 E193.56475
G1 X-22.104 Y-17.578
G0 F3600 X-22.034 Y-16.942
G1 F1800 X16.938 Y22.029 E196.3144
G1 X17.008 Y22.099
G0 F3600 X16.373 Y22.029
G1 F1800 X-22.034 Y-16.377 E199.02419
G1 X-22.104 Y-16.447
G0 F3600 X-22.034 Y-15.811
G1 F1800 X15.807 Y22.029 E201.69404
G1 X15.877 Y22.099
G0 F3600 X15.241 Y22.029
G1 F1800 X-22.034 Y-15.245 E204.32396
G1 X-22.104 Y-15.315
G0 F3600 X-22.033 Y-14.679
G1 F1800 X14.676 Y22.03 E206.91398
G1 X14.746 Y22.1
G0 F3600 X14.111 Y22.03
G1 F1800 X-22.033 Y-14.113 E209.4641
G1 X-22.103 Y-14.183
G0 F3600 X-22.033 Y-13.548
G1 F1800 X13.545 Y22.03 E211.97432
G1 X13.615 Y22.1
G0 F3600 X12.979 Y22.03
G1 F1800 X-22.033 Y-12.982 E214.4446
G1 X-22.103 Y-13.052
G0 F3600 X-22.033 Y-12.416
G1 F1800 X12.413 Y22.03 E216.87495
G1 X12.483 Y22.1
G0 F3600 X11.848 Y22.03
G1 F1800 X-22.033 Y-11.851 E219.26544
G1 X-22.103 Y-11.921
G0 F3600 X-22.033 Y-11.285
G1 F1800 X11.282 Y22.03 E221.61599
G1 X11.352 Y22.1
G0 F3600 X10.716 Y22.03
G1 F1800 X-22.033 Y-10.719 E223.92661
G1 X-22.103 Y-10.789
G0 F3600 X-22.033 Y-10.154
G1 F1800 X10.151 Y22.03 E226.19737
G1 X10.221 Y22.1
G0 F3600 X9.585 Y22.03
G1 F1800 X-22.033 Y-9.588 E228.42819
G1 X-22.103 Y-9.658
G0 F3600 X-22.033 Y-9.022
G1 F1800 X9.019 Y22.03 E230.61907
G1 X9.089 Y22.1
G0 F3600 X8.454 Y22.03
G1 F1800 X-22.033 Y-8.456 E232.77006
G1 X-22.103 Y-8.526
G0 F3600 X-22.033 Y-7.891
G1 F1800 X7.888 Y22.03 E234.88115
G1 X7.958 Y22.1
G0 F3600 X7.323 Y22.031
G1 F1800 X-22.032 Y-7.324 E236.9523
G1 X-22.102 Y-7.394
G0 F3600 X-22.032 Y-6.759
G1 F1800 X6.757 Y22.031 E238.98356
G1 X6.827 Y22.101
G0 F3600 X6.192 Y22.031
G1 F1800 X-22.032 Y-6.193 E240.97491
G1 X-22.102 Y-6.263
G0 F3600 X-22.032 Y-5.627
G1 F1800 X5.626 Y22.031 E242.92634
G1 X5.696 Y22.101
G0 F3600 X5.06 Y22.031
G1 F1800 X-22.032 Y-5.062 E244.83786
G1 X-22.102 Y-5.132
G0 F3600 X-22.032 Y-4.496
G1 F1800 X4.495 Y22.031 E246.70948
G1 X4.565 Y22.101
G0 F3600 X3.929 Y22.031
G1 F1800 X-22.032 Y-3.93 E248.54117
G1 X-22.102 Y-4
G0 F3600 X-22.032 Y-3.365
G1 F1800 X3.363 Y22.031 E250.33296
G1 X3.433 Y22.101
G0 F3600 X2.798 Y22.031
G1 F1800 X-22.032 Y-2.799 E252.08485
G1 X-22.102 Y-2.869
G0 F3600 X-22.032 Y-2.233
G1 F1800 X2.232 Y22.031 E253.79681
G1 X2.302 Y22.101
G0 F3600 X1.666 Y22.031
G1 F1800 X-22.032 Y-1.668 E255.46886
G1 X-22.102 Y-1.738
G0 F3600 X-22.032 Y-1.102
G1 F1800 X1.1 Y22.031 E257.10099
G1 X1.17 Y22.101
G0 F3600 X0.535 Y22.031
G1 F1800 X-22.032 Y-0.536 E258.69321
G1 X-22.102 Y-0.606
G0 F3600 X-22.032 Y0.029
G1 F1800 X-0.029 Y22.032 E260.24564
G1 X0.041 Y22.102
G0 F3600 X-0.595 Y22.032
G1 F1800 X-22.032 Y0.595 E261.75814
G1 X-22.102 Y0.525
G0 F3600 X-22.032 Y1.161
G1 F1800 X-1.161 Y22.032 E263.2307
G1 X-1.091 Y22.102
G0 F3600 X-1.726 Y22.032
G1 F1800 X-22.032 Y1.726 E264.6634
G1 X-22.102 Y1.656
G0 F3600 X-22.032 Y2.292
G1 F1800 X-2.292 Y22.032 E266.05616
G1 X-2.222 Y22.102
G0 F3600 X-2.858 Y22.032
G1 F1800 X-22.032 Y2.858 E267.40899
G1 X-22.102 Y2.788
G0 F3600 X-22.032 Y3.423
G1 F1800 X-3.423 Y22.032 E268.72195
G1 X-3.353 Y22.102
G0 F3600 X-3.989 Y22.032
G1 F1800 X-22.032 Y3.989 E269.99499
G1 X-22.102 Y3.919
G0 F3600 X-22.032 Y4.555
G1 F1800 X-4.555 Y22.032 E271.22808
G1 X-4.485 Y22.102
G0 F3600 X-5.12 Y22.032
G1 F1800 X-22.032 Y5.12 E272.42132
G1 X-22.102 Y5.05
G0 F3600 X-22.032 Y5.686
G1 F1800 X-5.686 Y22.032 E273.57461
G1 X-5.616 Y22.102
G0 F3600 X-6.252 Y22.032
G1 F1800 X-22.032 Y6.252 E274.68798
G1 X-22.102 Y6.182
G0 F3600 X-22.032 Y6.817
G1 F1800 X-6.817 Y22.032 E275.76148
G1 X-6.747 Y22.102
G0 F3600 X-7.382 Y22.032
G1 F1800 X-22.031 Y7.384 E276.79501
G1 X-22.101 Y7.314
G0 F3600 X-22.031 Y7.95
