;FLAVOR:RepRap
;TIME:2269
;Filament used: 2.39826m
;Layer height: 0.2
;Generated with Cura_SteamEngine 0.0.0-master
M104 S200
M109 S200
;Sliced at: Sun 18-02-2018 09:07:09 
 ;Basic settings: Layer height: 0.2 Walls: 1.2 Fill: {fill_density} 
 ;Print time: 00:37:49 
 ;Filament used: [2.4]m [7.1529200195312495]g 
 ;Filament cost: [0] 
 ;M190 S60 ;Uncomment to add your own bed temperature line 
 ;M109 S200 ;Uncomment to add your own temperature line 
 G21        ;metric values 
 G90        ;absolute positioning 
 M82        ;set extruder to absolute mode 
 M107       ;start with the fan off 
 G28 X0 Y0  ;move X/Y to min endstops 
 G28 Z0     ;move Z to min endstops 
 G1 Z15.0 F3000 ;move the platform down 15mm 
 G92 E0                  ;zero the extruded length 
 G1 F3000 E3              ;extrude 3mm of feed stock 
 G92 E0                  ;zero the extruded length again 
 G1 F3000 
 ;Put printing message on LCD screen 
 M117 Printing...
;LAYER_COUNT:18
;LAYER:0
M107
G0 F3600 X21.787 Y-26.815 Z0.299
;TYPE:SKIRT
G1 F1800 X22.108 Y-26.801 E0.01603
G1 X22.96 Y-26.725 E0.05871
G1 X23.489 Y-26.637 E0.08546
G1 X23.999 Y-26.473 E0.11219
G1 X24.479 Y-26.234 E0.13894
G1 X24.884 Y-25.954 E0.1635
G1 X25.219 Y-25.687 E0.18488
G1 X25.612 Y-25.323 E0.2116
G1 X25.998 Y-24.827 E0.24296
G1 X26.15 Y-24.592 E0.25692
G1 X26.407 Y-24.121 E0.28369
G1 X26.619 Y-23.513 E0.31581
G1 X26.703 Y-23.178 E0.33304
G1 X26.794 Y-22.649 E0.35982
G1 X26.811 Y-22.301 E0.3772
G1 X26.804 Y22.503 E2.61249
G1 X26.764 Y23.037 E2.6392
G1 X26.59 Y23.724 E2.67456
G1 X26.468 Y24.062 E2.69249
G1 X26.249 Y24.552 E2.71926
G1 X25.96 Y25.003 E2.74599
G1 X25.606 Y25.407 E2.77278
G1 X25.197 Y25.753 E2.79951
G1 X24.867 Y25.967 E2.81913
G1 X24.231 Y26.33 E2.85567
G1 X23.746 Y26.56 E2.88245
G1 X23.233 Y26.716 E2.9092
G1 X22.444 Y26.803 E2.9488
G1 X-22.586 Y26.781 E5.19536
G1 X-23.121 Y26.741 E5.22212
G1 X-23.894 Y26.534 E5.26205
G1 X-24.15 Y26.434 E5.27576
G1 X-24.633 Y26.202 E5.30249
G1 X-25.077 Y25.901 E5.32925
G1 X-25.471 Y25.538 E5.35598
G1 X-25.807 Y25.12 E5.38274
G1 X-25.982 Y24.838 E5.3993
G1 X-26.345 Y24.189 E5.43639
G1 X-26.571 Y23.703 E5.46313
G1 X-26.723 Y23.189 E5.48988
G1 X-26.803 Y22.432 E5.52785
G1 X-26.8 Y-22.524 E7.77072
G1 X-26.76 Y-23.059 E7.79748
G1 X-26.643 Y-23.576 E7.82393
G1 X-26.555 Y-23.864 E7.83895
G1 X-26.36 Y-24.364 E7.86573
G1 X-26.094 Y-24.829 E7.89245
G1 X-25.761 Y-25.25 E7.91923
G1 X-25.37 Y-25.616 E7.94595
G1 X-25.074 Y-25.831 E7.96421
G1 X-24.477 Y-26.219 E7.99973
G1 X-24.007 Y-26.476 E8.02645
G1 X-23.503 Y-26.662 E8.05326
G1 X-22.978 Y-26.77 E8.08
G1 X-22.516 Y-26.8 E8.10309
G1 X21.787 Y-26.815 E10.31338
G0 F3600 X21.787 Y-26.415
G1 F1800 X22.072 Y-26.402 E10.32761
G1 X22.924 Y-26.326 E10.37029
G1 X23.423 Y-26.242 E10.39553
G1 X23.902 Y-26.08 E10.42076
G1 X24.349 Y-25.844 E10.44598
G1 X24.634 Y-25.641 E10.46344
G1 X24.969 Y-25.374 E10.48481
G1 X25.339 Y-25.029 E10.51005
G1 X25.662 Y-24.61 E10.53644
G1 X25.814 Y-24.375 E10.5504
G1 X26.054 Y-23.93 E10.57563
G1 X26.231 Y-23.415 E10.6028
G1 X26.315 Y-23.08 E10.62003
G1 X26.399 Y-22.582 E10.64522
G1 X26.411 Y-22.302 E10.65921
G1 X26.404 Y22.502 E12.89449
G1 X26.364 Y23.006 E12.91971
G1 X26.214 Y23.588 E12.9497
G1 X26.092 Y23.926 E12.96762
G1 X25.883 Y24.387 E12.99288
G1 X25.605 Y24.809 E13.01809
G1 X25.263 Y25.182 E13.04333
G1 X24.668 Y25.619 E13.08017
G1 X24.032 Y25.982 E13.1167
G1 X23.575 Y26.197 E13.1419
G1 X23.089 Y26.338 E13.16714
G1 X22.444 Y26.403 E13.19949
G1 X-22.586 Y26.381 E15.44604
G1 X-23.09 Y26.341 E15.47127
G1 X-23.748 Y26.162 E15.50529
G1 X-24.004 Y26.062 E15.519
G1 X-24.459 Y25.841 E15.54423
G1 X-24.874 Y25.552 E15.56946
G1 X-25.237 Y25.2 E15.59469
G1 X-25.633 Y24.643 E15.62879
G1 X-25.996 Y23.994 E15.66589
G1 X-26.207 Y23.535 E15.69109
G1 X-26.343 Y23.048 E15.71632
G1 X-26.403 Y22.432 E15.74719
G1 X-26.4 Y-22.524 E17.99006
G1 X-26.36 Y-23.028 E18.01528
G1 X-26.26 Y-23.459 E18.03736
G1 X-26.172 Y-23.747 E18.05238
G1 X-25.987 Y-24.217 E18.07758
G1 X-25.73 Y-24.653 E18.10283
G1 X-25.407 Y-25.042 E18.12805
G1 X-24.856 Y-25.495 E18.16364
G1 X-24.259 Y-25.883 E18.19916
G1 X-23.814 Y-26.124 E18.22441
G1 X-23.338 Y-26.292 E18.24959
G1 X-22.84 Y-26.383 E18.27485
G1 X-22.516 Y-26.4 E18.29104
G1 X21.787 Y-26.415 E20.50132
G1 F3600 E12.50132
G0 F3600 X21.786 Y-23.879
G0 X21.787 Y-22.614
G0 X22.014 Y-22.215
;TYPE:WALL-INNER
G1 F3600 E20.50132
G1 F1800 X22.214 Y-22.215 E20.5113
G1 X22.214 Y-22.015 E20.51776
G1 X22.211 Y22.21 E22.72416
G1 X-22.21 Y22.214 E24.94033
G1 X-22.215 Y-22.01 E27.14667
G1 X-22.215 Y-22.21 E27.15665
G1 X-22.015 Y-22.21 E27.16311
G1 X22.014 Y-22.215 E29.35973
G0 F3600 X22.345 Y-22.615
G1 F1800 X22.358 Y-22.615 E29.36038
G1 X22.457 Y-22.558 E29.36608
G1 X22.509 Y-22.506 E29.36975
G1 X22.614 Y-22.341 E29.3795
G1 X22.614 Y-22.328 E29.38015
G1 X22.611 Y22.441 E31.61369
G1 X22.343 Y22.61 E31.62949
G1 X-22.439 Y22.614 E33.86368
G1 X-22.61 Y22.343 E33.87966
G1 X-22.615 Y-22.426 E36.1132
G1 X-22.611 Y-22.441 E36.11397
G1 X-22.343 Y-22.61 E36.12978
G1 X22.345 Y-22.615 E38.35927
G0 F3600 X22.824 Y-22.757
;TYPE:WALL-OUTER
G1 F1800 X23.014 Y-22.458 E38.37695
G1 X23.015 Y22.481 E40.61896
G1 X22.956 Y22.696 E40.63008
G1 X22.459 Y23.01 E40.65941
G1 X-22.478 Y23.014 E42.90133
G1 X-22.573 Y22.994 E42.90617
G1 X-22.696 Y22.956 E42.9126
G1 X-23.01 Y22.459 E42.94193
G1 X-23.015 Y-22.481 E45.18399
G1 X-22.956 Y-22.696 E45.19511
G1 X-22.459 Y-23.01 E45.22444
G1 X22.466 Y-23.015 E47.46576
G1 X22.702 Y-22.879 E47.47935
G1 X22.824 Y-22.757 E47.48796
G0 F3600 X22.931 Y-22.589
G0 X22.509 Y-22.321
G0 X22.014 Y-22.015
G0 X21.524 Y-22.033
;TYPE:SKIN
G1 F1800 X22.034 Y-21.523 E47.52394
G0 F3600 X22.034 Y-20.957
G1 F1800 X20.958 Y-22.033 E47.59986
G1 X20.888 Y-22.103
G0 F3600 X20.392 Y-22.033
G1 F1800 X22.034 Y-20.392 E47.71568
G1 X22.104 Y-20.322
G0 F3600 X22.034 Y-19.826
G1 F1800 X19.827 Y-22.033 E47.87139
G1 X19.757 Y-22.103
G0 F3600 X19.261 Y-22.033
G1 F1800 X22.034 Y-19.26 E48.06704
G1 X22.104 Y-19.19
G0 F3600 X22.034 Y-18.695
G1 F1800 X18.695 Y-22.033 E48.30259
G1 X18.625 Y-22.103
G0 F3600 X18.13 Y-22.033
G1 F1800 X22.034 Y-18.129 E48.57804
G1 X22.104 Y-18.059
G0 F3600 X22.034 Y-17.563
G1 F1800 X17.564 Y-22.033 E48.89342
G1 X17.494 Y-22.103
G0 F3600 X16.998 Y-22.033
G1 F1800 X22.034 Y-16.998 E49.2487
G1 X22.104 Y-16.928
G0 F3600 X22.034 Y-16.432
G1 F1800 X16.433 Y-22.033 E49.64388
G1 X16.363 Y-22.103
G0 F3600 X15.867 Y-22.033
G1 F1800 X22.034 Y-15.866 E50.079
G1 X22.104 Y-15.796
G0 F3600 X22.034 Y-15.301
G1 F1800 X15.301 Y-22.033 E50.55401
G1 X15.231 Y-22.103
G0 F3600 X14.736 Y-22.033
G1 F1800 X22.034 Y-14.735 E51.06893
G1 X22.104 Y-14.665
G0 F3600 X22.033 Y-14.17
G1 F1800 X14.171 Y-22.032 E51.62363
G1 X14.101 Y-22.102
G0 F3600 X13.605 Y-22.032
G1 F1800 X22.033 Y-13.604 E52.21827
G1 X22.103 Y-13.534
G0 F3600 X22.033 Y-13.039
G1 F1800 X13.039 Y-22.032 E52.85281
G1 X12.969 Y-22.102
G0 F3600 X12.474 Y-22.032
G1 F1800 X22.033 Y-12.473 E53.52725
G1 X22.103 Y-12.403
G0 F3600 X22.033 Y-11.907
G1 F1800 X11.908 Y-22.032 E54.24163
G1 X11.838 Y-22.102
G0 F3600 X11.342 Y-22.032
G1 F1800 X22.033 Y-11.341 E54.99594
G1 X22.103 Y-11.271
G0 F3600 X22.033 Y-10.776
G1 F1800 X10.777 Y-22.032 E55.79011
G1 X10.707 Y-22.102
G0 F3600 X10.211 Y-22.032
G1 F1800 X22.033 Y-10.21 E56.62421
G1 X22.103 Y-10.14
G0 F3600 X22.033 Y-9.644
G1 F1800 X9.645 Y-22.032 E57.49825
G1 X9.575 Y-22.102
G0 F3600 X9.079 Y-22.032
G1 F1800 X22.033 Y-9.079 E58.41219
G1 X22.103 Y-9.009
G0 F3600 X22.033 Y-8.513
G1 F1800 X8.514 Y-22.032 E59.36603
G1 X8.444 Y-22.102
G0 F3600 X7.948 Y-22.032
G1 F1800 X22.033 Y-7.947 E60.3598
G1 X22.103 Y-7.877
G0 F3600 X22.033 Y-7.382
G1 F1800 X7.382 Y-22.032 E61.39348
G1 X7.312 Y-22.102
G0 F3600 X6.817 Y-22.032
G1 F1800 X22.032 Y-6.817 E62.46698
G1 X22.102 Y-6.747
G0 F3600 X22.032 Y-6.251
G1 F1800 X6.252 Y-22.032 E63.58038
G1 X6.182 Y-22.102
G0 F3600 X5.686 Y-22.032
G1 F1800 X22.032 Y-5.685 E64.73371
G1 X22.102 Y-5.615
G0 F3600 X22.032 Y-5.12
G1 F1800 X5.12 Y-22.032 E65.92694
G1 X5.05 Y-22.102
G0 F3600 X4.555 Y-22.032
G1 F1800 X22.032 Y-4.554 E67.16007
G1 X22.102 Y-4.484
G0 F3600 X22.032 Y-3.988
G1 F1800 X3.989 Y-22.032 E68.43314
G1 X3.919 Y-22.102
G0 F3600 X3.423 Y-22.032
G1 F1800 X22.032 Y-3.423 E69.74611
G1 X22.102 Y-3.353
G0 F3600 X22.032 Y-2.857
G1 F1800 X2.858 Y-22.032 E71.09897
G1 X2.788 Y-22.102
G0 F3600 X2.292 Y-22.032
G1 F1800 X22.032 Y-2.291 E72.49177
G1 X22.102 Y-2.221
G0 F3600 X22.032 Y-1.726
G1 F1800 X1.726 Y-22.032 E73.92447
G1 X1.656 Y-22.102
G0 F3600 X1.161 Y-22.032
G1 F1800 X22.032 Y-1.16 E75.39706
G1 X22.102 Y-1.09
G0 F3600 X22.032 Y-0.594
G1 F1800 X0.595 Y-22.032 E76.9096
G1 X0.525 Y-22.102
G0 F3600 X0.029 Y-22.032
G1 F1800 X22.032 Y-0.028 E78.46206
G1 X22.102 Y0.042
G0 F3600 X22.032 Y0.535
G1 F1800 X-0.535 Y-22.031 E80.05425
G1 X-0.605 Y-22.101
G0 F3600 X-1.1 Y-22.031
G1 F1800 X22.032 Y1.101 E81.68634
G1 X22.102 Y1.171
G0 F3600 X22.032 Y1.667
G1 F1800 X-1.666 Y-22.031 E83.35836
G1 X-1.736 Y-22.101
G0 F3600 X-2.232 Y-22.031
G1 F1800 X22.032 Y2.233 E85.07032
G1 X22.102 Y2.303
G0 F3600 X22.032 Y2.798
G1 F1800 X-2.798 Y-22.031 E86.82217
G1 X-2.868 Y-22.101
G0 F3600 X-3.363 Y-22.031
G1 F1800 X22.032 Y3.364 E88.61393
G1 X22.102 Y3.434
G0 F3600 X22.032 Y3.93
G1 F1800 X-3.929 Y-22.031 E90.44561
G1 X-3.999 Y-22.101
G0 F3600 X-4.495 Y-22.031
G1 F1800 X22.032 Y4.495 E92.3172
G1 X22.102 Y4.565
G0 F3600 X22.032 Y5.061
G1 F1800 X-5.06 Y-22.031 E94.22869
G1 X-5.13 Y-22.101
G0 F3600 X-5.626 Y-22.031
G1 F1800 X22.032 Y5.627 E96.18011
G1 X22.102 Y5.697
G0 F3600 X22.032 Y6.192
G1 F1800 X-6.192 Y-22.031 E98.17143
G1 X-6.262 Y-22.101
G0 F3600 X-6.757 Y-22.031
G1 F1800 X22.032 Y6.758 E100.20265
G1 X22.102 Y6.828
G0 F3600 X22.032 Y7.324
G1 F1800 X-7.323 Y-22.031 E102.2738
G1 X-7.393 Y-22.101
G0 F3600 X-7.888 Y-22.03
G1 F1800 X22.031 Y7.889 E104.38475
G1 X22.101 Y7.959
G0 F3600 X22.031 Y8.454
G1 F1800 X-8.454 Y-22.03 E106.5356
G1 X-8.524 Y-22.1
G0 F3600 X-9.019 Y-22.03
G1 F1800 X22.031 Y9.02 E108.72634
G1 X22.101 Y9.09
G0 F3600 X22.031 Y9.586
G1 F1800 X-9.585 Y-22.03 E110.95702
G1 X-9.655 Y-22.1
G0 F3600 X-10.151 Y-22.03
G1 F1800 X22.031 Y10.151 E113.2276
G1 X22.101 Y10.221
G0 F3600 X22.031 Y10.717
G1 F1800 X-10.716 Y-22.03 E115.53808
G1 X-10.786 Y-22.1
G0 F3600 X-11.282 Y-22.03
G1 F1800 X22.031 Y11.283 E117.88849
G1 X22.101 Y11.353
G0 F3600 X22.031 Y11.848
G1 F1800 X-11.848 Y-22.03 E120.2788
G1 X-11.918 Y-22.1
G0 F3600 X-12.413 Y-22.03
G1 F1800 X22.031 Y12.414 E122.70901
G1 X22.101 Y12.484
G0 F3600 X22.031 Y12.98
G1 F1800 X-12.979 Y-22.03 E125.17916
G1 X-13.049 Y-22.1
G0 F3600 X-13.545 Y-22.03
G1 F1800 X22.031 Y13.546 E127.68924
G1 X22.101 Y13.616
G0 F3600 X22.031 Y14.111
G1 F1800 X-14.111 Y-22.03 E130.23921
G1 X-14.181 Y-22.1
G0 F3600 X-14.676 Y-22.03
G1 F1800 X22.031 Y14.677 E132.82909
G1 X22.101 Y14.747
G0 F3600 X22.03 Y15.242
G1 F1800 X-15.241 Y-22.029 E135.45876
G1 X-15.311 Y-22.099
G0 F3600 X-15.807 Y-22.029
G1 F1800 X22.03 Y15.808 E138.12837
G1 X22.1 Y15.878
G0 F3600 X22.03 Y16.373
G1 F1800 X-16.373 Y-22.029 E140.83787
G1 X-16.443 Y-22.099
G0 F3600 X-16.938 Y-22.029
G1 F1800 X22.03 Y16.939 E143.58727
G1 X22.1 Y17.009
G0 F3600 X22.03 Y17.505
G1 F1800 X-17.504 Y-22.029 E146.37661
G1 X-17.574 Y-22.099
G0 F3600 X-18.07 Y-22.029
G1 F1800 X22.03 Y18.07 E149.20585
G1 X22.1 Y18.14
G0 F3600 X22.03 Y18.636
G1 F1800 X-18.635 Y-22.029 E152.07498
G1 X-18.705 Y-22.099
G0 F3600 X-19.201 Y-22.029
G1 F1800 X22.03 Y19.202 E154.98405
G1 X22.1 Y19.272
G0 F3600 X22.03 Y19.767
G1 F1800 X-19.767 Y-22.029 E157.93302
G1 X-19.837 Y-22.099
G0 F3600 X-20.332 Y-22.029
G1 F1800 X22.03 Y20.333 E160.92189
G1 X22.1 Y20.403
G0 F3600 X22.03 Y20.899
G1 F1800 X-20.898 Y-22.029 E163.95069
G1 X-20.968 Y-22.099
G0 F3600 X-21.464 Y-22.029
G1 F1800 X22.03 Y21.464 E167.01939
G1 X22.1 Y21.534
G0 F3600 X22.029 Y22.029
G1 F1800 X-22.029 Y-22.029 E170.12792
G1 X-22.099 Y-22.099
G0 F3600 X-22.034 Y-21.468
G1 F1800 X21.464 Y22.029 E173.1969
G1 X21.534 Y22.099
G0 F3600 X20.898 Y22.029
G1 F1800 X-22.034 Y-20.902 E176.22595
G1 X-22.104 Y-20.972
G0 F3600 X-22.034 Y-20.337
G1 F1800 X20.332 Y22.029 E179.2151
G1 X20.402 Y22.099
G0 F3600 X19.767 Y22.029
G1 F1800 X-22.034 Y-19.771 E182.16435
G1 X-22.104 Y-19.841
G0 F3600 X-22.034 Y-19.205
G1 F1800 X19.201 Y22.029 E185.07367
G1 X19.271 Y22.099
G0 F3600 X18.635 Y22.029
G1 F1800 X-22.034 Y-18.64 E187.94309
G1 X-22.104 Y-18.71
G0 F3600 X-22.034 Y-18.074
G1 F1800 X18.07 Y22.029 E190.77261
G1 X18.14 Y22.099
G0 F3600 X17.504 Y22.029
G1 F1800 X-22.034 Y-17.508 E193.56219
G1 X-22.104 Y-17.578
G0 F3600 X-22.034 Y-16.942
G1 F1800 X16.938 Y22.029 E196.31184
G1 X17.008 Y22.099
G0 F3600 X16.373 Y22.029
G1 F1800 X-22.034 Y-16.377 E199.02163
G1 X-22.104 Y-16.447
G0 F3600 X-22.034 Y-15.811
G1 F1800 X15.807 Y22.029 E201.69148
G1 X15.877 Y22.099
G0 F3600 X15.241 Y22.029
G1 F1800 X-22.034 Y-15.245 E204.3214
G1 X-22.104 Y-15.315
G0 F3600 X-22.033 Y-14.679
G1 F1800 X14.676 Y22.029 E206.91138
G1 X14.746 Y22.099
G0 F3600 X14.11 Y22.029
G1 F1800 X-22.033 Y-14.113 E209.46143
G1 X-22.103 Y-14.183
G0 F3600 X-22.033 Y-13.548
G1 F1800 X13.544 Y22.029 E211.97158
G1 X13.614 Y22.099
G0 F3600 X12.978 Y22.029
G1 F1800 X-22.033 Y-12.982 E214.44179
G1 X-22.103 Y-13.052
G0 F3600 X-22.033 Y-12.416
G1 F1800 X12.413 Y22.029 E216.87211
G1 X12.483 Y22.099
G0 F3600 X11.847 Y22.029
G1 F1800 X-22.033 Y-11.851 E219.26253
G1 X-22.103 Y-11.921
G0 F3600 X-22.033 Y-11.285
G1 F1800 X11.281 Y22.029 E221.61301
G1 X11.351 Y22.099
G0 F3600 X10.716 Y22.03
G1 F1800 X-22.033 Y-10.719 E223.92363
G1 X-22.103 Y-10.789
G0 F3600 X-22.033 Y-10.154
G1 F1800 X10.151 Y22.03 E226.19438
G1 X10.221 Y22.1
G0 F3600 X9.585 Y22.03
G1 F1800 X-22.033 Y-9.588 E228.4252
G1 X-22.103 Y-9.658
G0 F3600 X-22.033 Y-9.022
G1 F1800 X9.019 Y22.03 E230.61609
G1 X9.089 Y22.1
G0 F3600 X8.454 Y22.03
G1 F1800 X-22.033 Y-8.456 E232.76708
G1 X-22.103 Y-8.526
G0 F3600 X-22.033 Y-7.891
G1 F1800 X7.888 Y22.03 E234.87816
G1 X7.958 Y22.1
G0 F3600 X7.322 Y22.03
G1 F1800 X-22.032 Y-7.324 E236.94925
G1 X-22.102 Y-7.394
G0 F3600 X-22.032 Y-6.759
G1 F1800 X6.757 Y22.03 E238.98047
G1 X6.827 Y22.1
G0 F3600 X6.191 Y22.03
G1 F1800 X-22.032 Y-6.193 E240.97175
G1 X-22.102 Y-6.263
G0 F3600 X-22.032 Y-5.627
G1 F1800 X5.625 Y22.03 E242.9231
G1 X5.695 Y22.1
G0 F3600 X5.06 Y22.03
G1 F1800 X-22.032 Y-5.062 E244.83459
G1 X-22.102 Y-5.132
G0 F3600 X-22.032 Y-4.496
G1 F1800 X4.494 Y22.03 E246.70614
G1 X4.564 Y22.1
G0 F3600 X3.928 Y22.03
G1 F1800 X-22.032 Y-3.93 E248.53776
G1 X-22.102 Y-4
G0 F3600 X-22.032 Y-3.365
G1 F1800 X3.362 Y22.03 E250.32948
G1 X3.432 Y22.1
G0 F3600 X2.797 Y22.03
G1 F1800 X-22.032 Y-2.799 E252.0813
G1 X-22.102 Y-2.869
G0 F3600 X-22.032 Y-2.233
G1 F1800 X2.231 Y22.03 E253.79319
G1 X2.301 Y22.1
G0 F3600 X1.665 Y22.03
G1 F1800 X-22.032 Y-1.668 E255.46517
G1 X-22.102 Y-1.738
G0 F3600 X-22.032 Y-1.102
G1 F1800 X1.1 Y22.03 E257.09726
G1 X1.17 Y22.1
G0 F3600 X0.534 Y22.03
G1 F1800 X-22.032 Y-0.536 E258.68941
G1 X-22.102 Y-0.606
G0 F3600 X-22.032 Y0.029
G1 F1800 X-0.03 Y22.031 E260.24177
G1 X0.04 Y22.101
G0 F3600 X-0.596 Y22.031
G1 F1800 X-22.032 Y0.595 E261.7542
G1 X-22.102 Y0.525
G0 F3600 X-22.032 Y1.161
G1 F1800 X-1.161 Y22.031 E263.22673
G1 X-1.091 Y22.101
G0 F3600 X-1.727 Y22.031
G1 F1800 X-22.032 Y1.726 E264.65935
G1 X-22.102 Y1.656
G0 F3600 X-22.032 Y2.292
G1 F1800 X-2.293 Y22.031 E266.05205
G1 X-2.223 Y22.101
G0 F3600 X-2.858 Y22.031
G1 F1800 X-22.032 Y2.858 E267.40484
G1 X-22.102 Y2.788
G0 F3600 X-22.032 Y3.423
G1 F1800 X-3.424 Y22.031 E268.71773
G1 X-3.354 Y22.101
G0 F3600 X-3.99 Y22.031
G1 F1800 X-22.032 Y3.989 E269.9907
G1 X-22.102 Y3.919
G0 F3600 X-22.032 Y4.555
G1 F1800 X-4.555 Y22.031 E271.22376
G1 X-4.485 Y22.101
G0 F3600 X-5.121 Y22.031
G1 F1800 X-22.032 Y5.12 E272.41692
G1 X-22.102 Y5.05
G0 F3600 X-22.032 Y5.686
G1 F1800 X-5.687 Y22.031 E273.57015
G1 X-5.617 Y22.101
G0 F3600 X-6.252 Y22.031
G1 F1800 X-22.032 Y6.252 E274.68348
G1 X-22.102 Y6.182
G0 F3600 X-22.032 Y6.817
G1 F1800 X-6.818 Y22.031 E275.75691
G1 X-6.748 Y22.101
G0 F3600 X-7.384 Y22.031
G1 F1800 X-22.031 Y7.384 E276.79033
G1 X-22.101 Y7.314
G0 F3600 X-22.031 Y7.95
G1 F1800 X-7.95 Y22.031 E277.78382
G1 X-7.88 Y22.101
