;FLAVOR:RepRap
;TIME:4624
;Filament used: 5.12093m
;Layer height: 0.2
;Generated with Cura_SteamEngine 0.0.0-master
M104 S200
M109 S200
;Sliced at: Mon 12-02-2018 21:01:35 
 ;Basic settings: Layer height: 0.2 Walls: 1.2 Fill: {fill_density} 
 ;Print time: 01:17:05 
 ;Filament used: [5.12]m [15.273431171875]g 
 ;Filament cost: [0] 
 ;M190 S60 ;Uncomment to add your own bed temperature line 
 ;M109 S200 ;Uncomment to add your own temperature line 
 G21        ;metric values 
 G90        ;absolute positioning 
 M82        ;set extruder to absolute mode 
 M107       ;start with the fan off 
 G28 X0 Y0  ;move X/Y to min endstops 
 G28 Z0     ;move Z to min endstops 
 G1 Z15.0 F3000 ;move the platform down 15mm 
 G92 E0                  ;zero the extruded length 
 G1 F3000 E3              ;extrude 3mm of feed stock 
 G92 E0                  ;zero the extruded length again 
 G1 F3000 
 ;Put printing message on LCD screen 
 M117 Printing...
;LAYER_COUNT:110
;LAYER:0
M107
G0 F3600 X-14.266 Y27.46 Z0.299
;TYPE:SKIRT
G1 F1800 X-19.44 Y25.549 E0.27518
G1 X-26.577 Y23.256 E0.64917
G1 X-27.074 Y23.055 E0.67591
G1 X-27.652 Y22.697 E0.70983
G1 X-28.681 Y21.916 E0.77428
G1 X-29.083 Y21.56 E0.80107
G1 X-29.35 Y21.254 E0.82133
G1 X-30.157 Y20.213 E0.88705
G1 X-30.453 Y19.766 E0.9138
G1 X-30.632 Y19.399 E0.93417
G1 X-31.129 Y18.214 E0.99828
G1 X-31.299 Y17.706 E1.025
G1 X-31.384 Y17.249 E1.04819
G1 X-31.574 Y15.659 E1.12808
G1 X-31.599 Y15.231 E1.14947
G1 X-31.587 Y-15.535 E2.68439
G1 X-31.556 Y-16.004 E2.70784
G1 X-31.394 Y-17.233 E2.76969
G1 X-31.285 Y-17.758 E2.79644
G1 X-31.157 Y-18.126 E2.81588
G1 X-30.661 Y-19.339 E2.88126
G1 X-30.422 Y-19.818 E2.90797
G1 X-30.197 Y-20.152 E2.92806
G1 X-29.416 Y-21.181 E2.99251
G1 X-29.06 Y-21.583 E3.0193
G1 X-28.753 Y-21.85 E3.03959
G1 X-27.713 Y-22.656 E3.10524
G1 X-27.266 Y-22.953 E3.13201
G1 X-26.82 Y-23.163 E3.15661
G1 X-25.323 Y-23.749 E3.23681
G1 X-25.054 Y-23.843 E3.25103
G1 X-19.728 Y-25.455 E3.52865
G1 X-14.64 Y-27.317 E3.79895
G1 X-8.933 Y-29.791 E4.10928
G1 X-8.426 Y-29.967 E4.13605
G1 X-7.899 Y-30.066 E4.1628
G1 X-7.501 Y-30.088 E4.18269
G1 X7.496 Y-30.09 E4.93089
G1 X8.03 Y-30.05 E4.95761
G1 X8.553 Y-29.931 E4.98437
G1 X8.937 Y-29.789 E5.0048
G1 X14.325 Y-27.436 E5.29812
G1 X16.844 Y-26.463 E5.43284
G1 X22.007 Y-24.722 E5.70468
G1 X25.214 Y-23.802 E5.87113
G1 X25.582 Y-23.675 E5.89055
G1 X26.836 Y-23.163 E5.95813
G1 X27.316 Y-22.924 E5.98488
G1 X27.651 Y-22.698 E6.00504
G1 X28.68 Y-21.917 E6.06949
G1 X29.082 Y-21.561 E6.09628
G1 X29.348 Y-21.256 E6.11647
G1 X30.147 Y-20.226 E6.1815
G1 X30.444 Y-19.779 E6.20828
G1 X30.619 Y-19.421 E6.22816
G1 X31.125 Y-18.224 E6.29299
G1 X31.296 Y-17.716 E6.31973
G1 X31.386 Y-17.225 E6.34464
G1 X31.577 Y-15.53 E6.42974
G1 X31.6 Y-15.123 E6.45008
G1 X31.567 Y15.742 E7.98994
G1 X31.533 Y16.232 E8.01444
G1 X31.391 Y17.257 E8.06607
G1 X31.278 Y17.781 E8.09281
G1 X31.157 Y18.126 E8.11105
G1 X30.661 Y19.339 E8.17643
G1 X30.422 Y19.818 E8.20314
G1 X30.197 Y20.152 E8.22323
G1 X29.416 Y21.181 E8.28768
G1 X29.06 Y21.583 E8.31447
G1 X28.753 Y21.85 E8.33477
G1 X27.713 Y22.656 E8.40041
G1 X27.266 Y22.953 E8.42719
G1 X26.82 Y23.163 E8.45178
G1 X25.323 Y23.749 E8.53199
G1 X25.054 Y23.843 E8.5462
G1 X19.728 Y25.455 E8.82382
G1 X14.64 Y27.317 E9.09413
G1 X8.933 Y29.791 E9.40445
G1 X8.426 Y29.967 E9.43123
G1 X7.899 Y30.066 E9.45798
G1 X7.501 Y30.088 E9.47787
G1 X-7.492 Y30.09 E10.22587
G1 X-8.026 Y30.05 E10.25259
G1 X-8.549 Y29.931 E10.27934
G1 X-8.933 Y29.789 E10.29977
G1 X-14.266 Y27.46 E10.5901
G0 F3600 X-14.118 Y27.088
G1 F1800 X-19.299 Y25.175 E10.86564
G1 X-26.455 Y22.876 E11.24062
G1 X-26.922 Y22.683 E11.26583
G1 X-27.411 Y22.378 E11.29459
G1 X-28.44 Y21.597 E11.35904
G1 X-28.817 Y21.26 E11.38426
G1 X-29.034 Y21.009 E11.40082
G1 X-29.841 Y19.968 E11.46653
G1 X-30.118 Y19.545 E11.49176
G1 X-30.263 Y19.245 E11.50838
G1 X-30.76 Y18.06 E11.57249
G1 X-30.918 Y17.579 E11.59775
G1 X-30.986 Y17.202 E11.61686
G1 X-31.176 Y15.612 E11.69675
G1 X-31.199 Y15.231 E11.71579
G1 X-31.187 Y-15.535 E13.25072
G1 X-31.16 Y-15.952 E13.27156
G1 X-30.998 Y-17.181 E13.33341
G1 X-30.892 Y-17.676 E13.35866
G1 X-30.787 Y-17.974 E13.37443
G1 X-30.291 Y-19.187 E13.43981
G1 X-30.063 Y-19.639 E13.46507
G1 X-29.878 Y-19.911 E13.48148
G1 X-29.097 Y-20.94 E13.54593
G1 X-28.76 Y-21.317 E13.57115
G1 X-28.508 Y-21.534 E13.58775
G1 X-27.468 Y-22.34 E13.65339
G1 X-27.045 Y-22.617 E13.67861
G1 X-26.674 Y-22.791 E13.69906
G1 X-25.177 Y-23.377 E13.77926
G1 X-24.938 Y-23.46 E13.79188
G1 X-19.595 Y-25.077 E14.07039
G1 X-14.501 Y-26.941 E14.34101
G1 X-8.774 Y-29.424 E14.65243
G1 X-8.295 Y-29.588 E14.67769
G1 X-7.797 Y-29.674 E14.7029
G1 X-7.501 Y-29.688 E14.71768
G1 X7.496 Y-29.69 E15.46589
G1 X8 Y-29.65 E15.49111
G1 X8.491 Y-29.531 E15.51632
G1 X8.777 Y-29.423 E15.53157
G1 X14.181 Y-27.063 E15.82576
G1 X16.712 Y-26.085 E15.96114
G1 X21.876 Y-24.345 E16.233
G1 X25.104 Y-23.418 E16.40055
G1 X25.431 Y-23.305 E16.41782
G1 X26.685 Y-22.793 E16.48539
G1 X27.136 Y-22.565 E16.5106
G1 X27.41 Y-22.379 E16.52713
G1 X28.439 Y-21.598 E16.59158
G1 X28.816 Y-21.261 E16.6168
G1 X29.032 Y-21.01 E16.63332
G1 X29.831 Y-19.98 E16.69836
G1 X30.109 Y-19.558 E16.72357
G1 X30.25 Y-19.265 E16.73979
G1 X30.756 Y-18.068 E16.80463
G1 X30.916 Y-17.588 E16.82987
G1 X30.989 Y-17.18 E16.85055
G1 X31.18 Y-15.485 E16.93565
G1 X31.2 Y-15.124 E16.95369
G1 X31.167 Y15.741 E18.49355
G1 X31.137 Y16.177 E18.51535
G1 X30.995 Y17.202 E18.56698
G1 X30.886 Y17.696 E18.59222
G1 X30.787 Y17.974 E18.60694
G1 X30.291 Y19.187 E18.67232
G1 X30.063 Y19.639 E18.69758
G1 X29.878 Y19.911 E18.71399
G1 X29.097 Y20.94 E18.77844
G1 X28.76 Y21.317 E18.80367
G1 X28.508 Y21.534 E18.82026
G1 X27.468 Y22.34 E18.8859
G1 X27.045 Y22.617 E18.91113
G1 X26.674 Y22.791 E18.93157
G1 X25.177 Y23.377 E19.01177
G1 X24.938 Y23.46 E19.0244
G1 X19.595 Y25.077 E19.3029
G1 X14.501 Y26.941 E19.57352
G1 X8.774 Y29.424 E19.88494
G1 X8.295 Y29.588 E19.9102
G1 X7.797 Y29.674 E19.93541
G1 X7.501 Y29.688 E19.9502
G1 X-7.492 Y29.69 E20.6982
G1 X-7.996 Y29.65 E20.72342
G1 X-8.487 Y29.531 E20.74863
G1 X-8.773 Y29.423 E20.76388
G1 X-14.118 Y27.088 E21.05488
G1 F3600 E13.05488
G0 F3600 X-8.165 Y25.886
G0 X-6.886 Y25.886
G0 X-6.5 Y25.5
;TYPE:WALL-INNER
G1 F3600 E21.05488
G1 F1800 X-6.5 Y19.5 E21.35422
G1 X-22.931 Y19.5 E22.17397
G1 X-24.034 Y19.355 E22.22947
G1 X-25 Y18.955 E22.28163
G1 X-25.823 Y18.323 E22.3334
G1 X-26.455 Y17.5 E22.38517
G1 X-26.855 Y16.534 E22.43733
G1 X-27 Y15.431 E22.49283
G1 X-27 Y-15.431 E24.03255
G1 X-26.855 Y-16.534 E24.08805
G1 X-26.455 Y-17.5 E24.14021
G1 X-25.823 Y-18.323 E24.19198
G1 X-25 Y-18.955 E24.24375
G1 X-24.034 Y-19.355 E24.29591
G1 X-22.931 Y-19.5 E24.35141
G1 X-6.5 Y-19.5 E25.17116
G1 X-6.5 Y-25.5 E25.4705
G1 X-1.83 Y-25.5 E25.70349
G1 X-1.534 Y-25.5 E25.71826
G1 X-1.308 Y-25.5 E25.72953
G1 X-1.534 Y-25.356
G1 X-1.736 Y-25.141 E25.73992
G1 X-1.948 Y-24.916 E25.75535
G1 X-2.239 Y-24.385 E25.78555
G1 X-2.389 Y-23.802 E25.81559
G1 X-2.389 Y-23.198 E25.84572
G1 X-2.239 Y-22.615 E25.87575
G1 X-1.948 Y-22.084 E25.90596
G1 X-1.534 Y-21.644 E25.9361
G1 X-1.026 Y-21.321 E25.96614
G1 X-0.45 Y-21.135 E25.99634
G1 X0.151 Y-21.098 E26.02638
G1 X0.745 Y-21.211 E26.05654
G1 X1.29 Y-21.468 E26.0866
G1 X1.756 Y-21.852 E26.11673
G1 X2.112 Y-22.341 E26.14691
G1 X2.331 Y-22.902 E26.17695
G1 X2.408 Y-23.5 E26.20703
G1 X2.331 Y-24.098 E26.23711
G1 X2.112 Y-24.659 E26.26716
G1 X1.783 Y-25.11 E26.29501
G1 X1.756 Y-25.148 E26.29734
G1 X1.329 Y-25.5 E26.32494
G1 X1.756 Y-25.5 E26.33335
G1 X1.803 Y-25.5 E26.33557
G1 X6.5 Y-25.5 E26.56991
G1 X6.5 Y-19.5 E26.86925
G1 X22.931 Y-19.5 E27.689
G1 X24.034 Y-19.355 E27.7445
G1 X25 Y-18.955 E27.79666
G1 X25.823 Y-18.323 E27.84843
G1 X26.455 Y-17.5 E27.9002
G1 X26.855 Y-16.534 E27.95236
G1 X27 Y-15.431 E28.00786
G1 X27 Y15.431 E29.54758
G1 X26.855 Y16.534 E29.60308
G1 X26.455 Y17.5 E29.65524
G1 X25.823 Y18.323 E29.70701
G1 X25 Y18.955 E29.75878
G1 X24.034 Y19.355 E29.81094
G1 X22.931 Y19.5 E29.86644
G1 X6.5 Y19.5 E30.68619
G1 X6.5 Y25.5 E30.98553
G1 X1.803 Y25.5 E31.21986
G1 X1.756 Y25.5 E31.22221
G1 X1.329 Y25.5 E31.24351
G1 X1.756 Y25.148 E31.25822
G1 X1.783 Y25.11 E31.26042
G1 X2.112 Y24.659 E31.28827
G1 X2.331 Y24.098 E31.31831
G1 X2.408 Y23.5 E31.3484
G1 X2.331 Y22.902 E31.37848
G1 X2.112 Y22.341 E31.40852
G1 X1.756 Y21.852 E31.4387
G1 X1.29 Y21.468 E31.46882
G1 X0.745 Y21.211 E31.49889
G1 X0.151 Y21.098 E31.52905
G1 X-0.45 Y21.135 E31.55909
G1 X-1.026 Y21.321 E31.58929
G1 X-1.534 Y21.644 E31.61932
G1 X-1.948 Y22.084 E31.64946
G1 X-2.239 Y22.615 E31.67967
G1 X-2.389 Y23.198 E31.70971
G1 X-2.389 Y23.802 E31.73984
G1 X-2.239 Y24.385 E31.76987
G1 X-1.948 Y24.916 E31.80008
G1 X-1.736 Y25.141 E31.81551
G1 X-1.534 Y25.356 E31.83022
G1 X-1.308 Y25.5 E31.84359
G1 X-1.534 Y25.5
G1 X-1.83 Y25.5 E31.85403
G1 X-6.5 Y25.5 E32.08702
G0 F3600 X-6.872 Y19.872
G0 X-19.603 Y1.44
G1 F1800 X-19.099 Y1.025 E32.11959
G1 X-18.715 Y0.495 E32.15225
G1 X-18.475 Y-0.113 E32.18486
G1 X-18.392 Y-0.761 E32.21745
G1 X-18.475 Y-1.409 E32.25004
G1 X-18.715 Y-2.016 E32.28261
G1 X-19.099 Y-2.546 E32.31526
G1 X-19.603 Y-2.964 E32.34793
G1 X-20.196 Y-3.242 E32.3806
G1 X-20.837 Y-3.362 E32.41314
G1 X-21.489 Y-3.322 E32.44573
G1 X-22.111 Y-3.12 E32.47835
G1 X-22.663 Y-2.77 E32.51096
G1 X-23.109 Y-2.294 E32.54351
G1 X-23.425 Y-1.72 E32.5762
G1 X-23.587 Y-1.086 E32.60884
G1 X-23.587 Y-0.435 E32.64132
G1 X-23.425 Y0.198 E32.67392
G1 X-23.109 Y0.773 E32.70665
G1 X-22.663 Y1.249 E32.7392
G1 X-22.111 Y1.599 E32.7718
G1 X-21.489 Y1.801 E32.80443
G1 X-20.837 Y1.841 E32.83702
G1 X-20.194 Y1.721 E32.86965
G1 X-19.603 Y1.44 E32.9023
G0 F3600 X18.413 Y-0.86
G1 F1800 X18.575 Y-0.224 E32.93505
G1 X18.891 Y0.347 E32.9676
G1 X19.337 Y0.823 E33.00015
G1 X19.889 Y1.175 E33.03281
G1 X20.511 Y1.377 E33.06544
G1 X21.163 Y1.417 E33.09803
G1 X21.806 Y1.297 E33.13066
G1 X22.397 Y1.016 E33.16331
G1 X22.901 Y0.6 E33.19591
G1 X23.285 Y0.071 E33.22852
G1 X23.525 Y-0.537 E33.26114
G1 X23.608 Y-1.185 E33.29373
G1 X23.525 Y-1.833 E33.32632
G1 X23.285 Y-2.441 E33.35893
G1 X22.901 Y-2.97 E33.39154
G1 X22.397 Y-3.386 E33.42415
G1 X21.806 Y-3.667 E33.4568
G1 X21.163 Y-3.787 E33.48943
G1 X20.511 Y-3.747 E33.52202
G1 X19.889 Y-3.545 E33.55465
G1 X19.337 Y-3.193 E33.58731
G1 X18.891 Y-2.717 E33.61985
G1 X18.575 Y-2.146 E33.65241
G1 X18.413 Y-1.511 E33.68511
G1 X18.413 Y-0.86 E33.71758
G0 F3600 X18.813 Y-0.91
G1 F1800 X18.95 Y-0.373 E33.74523
G1 X19.217 Y0.11 E33.77277
G1 X19.594 Y0.513 E33.8003
G1 X20.061 Y0.81 E33.82791
G1 X20.586 Y0.981 E33.85546
G1 X21.138 Y1.015 E33.88305
G1 X21.681 Y0.913 E33.91061
G1 X22.181 Y0.676 E33.93822
G1 X22.607 Y0.324 E33.96579
G1 X22.932 Y-0.123 E33.99336
G1 X23.135 Y-0.637 E34.02093
G1 X23.205 Y-1.185 E34.04849
G1 X23.135 Y-1.733 E34.07606
G1 X22.932 Y-2.247 E34.10363
G1 X22.607 Y-2.694 E34.1312
G1 X22.181 Y-3.046 E34.15877
G1 X21.681 Y-3.283 E34.18637
G1 X21.138 Y-3.385 E34.21394
G1 X20.586 Y-3.351 E34.24153
G1 X20.061 Y-3.18 E34.26908
G1 X19.594 Y-2.883 E34.29669
G1 X19.217 Y-2.48 E34.32422
G1 X18.95 Y-1.997 E34.35175
G1 X18.813 Y-1.461 E34.37935
G1 X18.813 Y-0.91 E34.40684
G0 F3600 X18.714 Y-0.898
G0 X18.774 Y-1.465
G0 X18.913 Y-2.011
G0 X27.301 Y-15.454
G0 X27.4 Y-15.46
G1 F1800 X27.4 Y15.46 E35.94945
G1 X27.245 Y16.638 E36.00873
G1 X26.806 Y17.698 E36.06597
G1 X26.108 Y18.608 E36.12318
G1 X25.198 Y19.306 E36.1804
G1 X24.138 Y19.745 E36.23764
G1 X22.96 Y19.9 E36.29692
G1 X6.9 Y19.9 E37.09815
G1 X6.9 Y25.9 E37.3975
G1 X0.126 Y25.9 E37.73545
G1 X-6.9 Y25.9 E38.08598
G1 X-6.9 Y19.9 E38.38532
G1 X-22.96 Y19.9 E39.18656
G1 X-24.138 Y19.745 E39.24583
G1 X-25.198 Y19.306 E39.30307
G1 X-26.108 Y18.608 E39.36029
G1 X-26.806 Y17.698 E39.41751
G1 X-27.245 Y16.638 E39.47475
G1 X-27.4 Y15.46 E39.53403
G1 X-27.4 Y-15.46 E41.07663
G1 X-27.245 Y-16.638 E41.13591
G1 X-26.806 Y-17.698 E41.19315
G1 X-26.108 Y-18.608 E41.25037
G1 X-25.198 Y-19.306 E41.30758
G1 X-24.138 Y-19.745 E41.36482
G1 X-22.96 Y-19.9 E41.4241
G1 X-6.9 Y-19.9 E42.22534
G1 X-6.9 Y-25.9 E42.52468
G1 X0.126 Y-25.9 E42.87521
G1 X6.9 Y-25.9 E43.21316
G1 X6.9 Y-19.9 E43.5125
G1 X22.96 Y-19.9 E44.31374
G1 X24.138 Y-19.745 E44.37302
G1 X25.198 Y-19.306 E44.43026
G1 X26.108 Y-18.608 E44.48747
G1 X26.806 Y-17.698 E44.54469
G1 X27.245 Y-16.638 E44.60193
G1 X27.4 Y-15.46 E44.66121
G0 F3600 X27.301 Y-15.454
G0 X6.872 Y-19.872
G0 X2.037 Y-22.978
G0 X1.941 Y-23.002
G1 F1800 X2.005 Y-23.5 E44.68626
G1 X1.941 Y-23.998 E44.71131
G1 X1.758 Y-24.465 E44.73633
G1 X1.462 Y-24.872 E44.76144
G1 X1.074 Y-25.192 E44.78653
G1 X0.62 Y-25.406 E44.81157
G1 X0.126 Y-25.5 E44.83666
G1 X-0.375 Y-25.469 E44.8617
G1 X-0.854 Y-25.314 E44.88682
G1 X-1.277 Y-25.045 E44.91183
G1 X-1.622 Y-24.679 E44.93692
G1 X-1.864 Y-24.237 E44.96206
G1 X-1.989 Y-23.751 E44.9871
G1 X-1.989 Y-23.249 E45.01214
G1 X-1.864 Y-22.763 E45.03718
G1 X-1.622 Y-22.321 E45.06232
G1 X-1.277 Y-21.955 E45.08741
G1 X-0.854 Y-21.686 E45.11242
G1 X-0.375 Y-21.531 E45.13754
G1 X0.126 Y-21.5 E45.16258
G1 X0.62 Y-21.594 E45.18767
G1 X1.074 Y-21.808 E45.21271
G1 X1.462 Y-22.128 E45.2378
G1 X1.758 Y-22.535 E45.26291
G1 X1.941 Y-23.002 E45.28793
G0 F3600 X2.037 Y-22.978
G0 X1.491 Y-22.101
G0 X-19.321 Y-2.338
G0 X-19.393 Y-2.27
G1 F1800 X-19.819 Y-2.623 E45.31553
G1 X-20.32 Y-2.858 E45.34314
G1 X-20.862 Y-2.96 E45.37066
G1 X-21.414 Y-2.926 E45.39825
G1 X-21.939 Y-2.755 E45.4258
G1 X-22.406 Y-2.459 E45.45338
G1 X-22.783 Y-2.057 E45.48088
G1 X-23.05 Y-1.572 E45.5085
G1 X-23.187 Y-1.036 E45.5361
G1 X-23.187 Y-0.485 E45.56359
G1 X-23.05 Y0.05 E45.59114
G1 X-22.783 Y0.536 E45.6188
G1 X-22.406 Y0.938 E45.6463
G1 X-21.939 Y1.234 E45.67388
G1 X-21.414 Y1.405 E45.70143
G1 X-20.862 Y1.439 E45.72902
G1 X-20.319 Y1.337 E45.75659
G1 X-19.819 Y1.1 E45.78419
G1 X-19.393 Y0.749 E45.81173
G1 X-19.068 Y0.301 E45.83934
G1 X-18.865 Y-0.213 E45.86691
G1 X-18.795 Y-0.761 E45.89448
G1 X-18.865 Y-1.309 E45.92204
G1 X-19.068 Y-1.822 E45.94956
G1 X-19.393 Y-2.27 E45.97718
G0 F3600 X-19.321 Y-2.338
G0 X-1.34 Y21.878
G0 X-1.277 Y21.955
G1 F1800 X-1.622 Y22.321 E46.00227
G1 X-1.864 Y22.763 E46.02741
G1 X-1.989 Y23.249 E46.05245
G1 X-1.989 Y23.751 E46.07749
G1 X-1.864 Y24.237 E46.10253
G1 X-1.622 Y24.679 E46.12767
G1 X-1.277 Y25.045 E46.15276
G1 X-0.854 Y25.314 E46.17777
G1 X-0.375 Y25.469 E46.20289
G1 X0.126 Y25.5 E46.22793
G1 X0.62 Y25.406 E46.25302
G1 X1.074 Y25.192 E46.27806
G1 X1.462 Y24.872 E46.30315
G1 X1.758 Y24.465 E46.32826
G1 X1.941 Y23.998 E46.35328
G1 X2.005 Y23.5 E46.37833
G1 X1.941 Y23.002 E46.40338
G1 X1.758 Y22.535 E46.4284
G1 X1.462 Y22.128 E46.45351
G1 X1.074 Y21.808 E46.4786
G1 X0.62 Y21.594 E46.50364
G1 X0.126 Y21.5 E46.52873
G1 X-0.375 Y21.531 E46.55377
G1 X-0.854 Y21.686 E46.57889
G1 X-1.277 Y21.955 E46.6039
G0 F3600 X-1.02 Y22.266
;TYPE:WALL-OUTER
G1 F1800 X-1.296 Y22.558 E46.62395
G1 X-1.489 Y22.911 E46.64402
G1 X-1.589 Y23.3 E46.66406
G1 X-1.589 Y23.7 E46.68401
G1 X-1.489 Y24.089 E46.70405
G1 X-1.296 Y24.442 E46.72412
G1 X-1.02 Y24.734 E46.74417
G1 X-0.682 Y24.949 E46.76415
G1 X-0.3 Y25.073 E46.78419
G1 X0.101 Y25.098 E46.80423
G1 X0.495 Y25.023 E46.82424
G1 X0.858 Y24.852 E46.84426
G1 X1.168 Y24.596 E46.86432
G1 X1.404 Y24.271 E46.88436
G1 X1.551 Y23.898 E46.90436
G1 X1.602 Y23.5 E46.92438
G1 X1.551 Y23.102 E46.9444
G1 X1.404 Y22.729 E46.9644
G1 X1.168 Y22.404 E46.98444
G1 X0.858 Y22.148 E47.0045
G1 X0.495 Y21.977 E47.02452
G1 X0.101 Y21.902 E47.04453
G1 X-0.3 Y21.927 E47.06457
G1 X-0.682 Y22.051 E47.08461
G1 X-1.02 Y22.266 E47.10459
G0 F3600 X-1.157 Y22.411
G0 X-1.52 Y22.068
G0 X-6.872 Y19.872
G0 X-7.3 Y19.8
G0 X-7.3 Y20.3
G1 F1800 X-22.989 Y20.3 E47.88732
G1 X-24.239 Y20.136 E47.95022
G1 X-25.399 Y19.655 E48.01287
G1 X-26.393 Y18.893 E48.07535
G1 X-27.155 Y17.899 E48.13784
G1 X-27.636 Y16.739 E48.20049
G1 X-27.8 Y15.489 E48.26339
G1 X-27.8 Y-15.489 E49.80889
G1 X-27.636 Y-16.739 E49.87178
G1 X-27.155 Y-17.899 E49.93443
G1 X-26.393 Y-18.893 E49.99692
G1 X-25.399 Y-19.655 E50.05941
G1 X-24.239 Y-20.136 E50.12206
G1 X-22.989 Y-20.3 E50.18495
G1 X-7.3 Y-20.3 E50.96768
G1 X-7.3 Y-26.3 E51.26702
G1 X7.3 Y-26.3 E51.99542
G1 X7.3 Y-20.3 E52.29476
G1 X22.989 Y-20.3 E53.07749
