;FLAVOR:RepRap
;TIME:261
;Filament used: 0.212385m
;Layer height: 0.15
;Generated with Cura_SteamEngine 0.0.0-master
M104 S200
M109 S200
;Sliced at: Mon 12-02-2018 21:00:10 
 ;Basic settings: Layer height: 0.15 Walls: 1.2 Fill: {fill_density} 
 ;Print time: 00:04:22 
 ;Filament used: [0.21]m [0.633448974609375]g 
 ;Filament cost: [0] 
 ;M190 S60 ;Uncomment to add your own bed temperature line 
 ;M109 S200 ;Uncomment to add your own temperature line 
 G21        ;metric values 
 G90        ;absolute positioning 
 M82        ;set extruder to absolute mode 
 M107       ;start with the fan off 
 G28 X0 Y0  ;move X/Y to min endstops 
 G28 Z0     ;move Z to min endstops 
 G1 Z15.0 F3000 ;move the platform down 15mm 
 G92 E0                  ;zero the extruded length 
 G1 F3000 E3              ;extrude 3mm of feed stock 
 G92 E0                  ;zero the extruded length again 
 G1 F3000 
 ;Put printing message on LCD screen 
 M117 Printing...
;LAYER_COUNT:19
;LAYER:0
M107
G0 F3600 X7.49 Y-10.305 Z0.299
;TYPE:SKIRT
G1 F1800 X8.082 Y-10.265 E0.0296
G1 X8.662 Y-10.146 E0.05914
G1 X9.222 Y-9.95 E0.08874
G1 X9.75 Y-9.68 E0.11833
G1 X10.237 Y-9.342 E0.1479
G1 X10.674 Y-8.941 E0.17749
G1 X11.054 Y-8.486 E0.20707
G1 X11.368 Y-7.983 E0.23665
G1 X11.613 Y-7.443 E0.26624
G1 X11.782 Y-6.874 E0.29585
G1 X11.873 Y-6.289 E0.32539
G1 X11.89 Y-5.905 E0.34456
G1 X11.891 Y5.906 E0.93382
G1 X11.851 Y6.497 E0.96337
G1 X11.732 Y7.078 E0.99296
G1 X11.536 Y7.638 E1.02256
G1 X11.266 Y8.166 E1.05214
G1 X10.928 Y8.653 E1.08172
G1 X10.528 Y9.09 E1.11127
G1 X10.072 Y9.47 E1.14089
G1 X9.569 Y9.784 E1.17047
G1 X9.029 Y10.028 E1.20003
G1 X8.461 Y10.198 E1.22961
G1 X7.875 Y10.289 E1.2592
G1 X7.491 Y10.306 E1.27838
G1 X-7.491 Y10.306 E2.02583
G1 X-8.083 Y10.266 E2.05543
G1 X-8.663 Y10.147 E2.08497
G1 X-9.223 Y9.951 E2.11457
G1 X-9.751 Y9.681 E2.14416
G1 X-10.238 Y9.343 E2.17373
G1 X-10.675 Y8.942 E2.20332
G1 X-11.055 Y8.487 E2.2329
G1 X-11.369 Y7.984 E2.26248
G1 X-11.614 Y7.444 E2.29207
G1 X-11.783 Y6.875 E2.32168
G1 X-11.874 Y6.29 E2.35122
G1 X-11.891 Y5.906 E2.37039
G1 X-11.891 Y-5.905 E2.95965
G1 X-11.851 Y-6.497 E2.98925
G1 X-11.732 Y-7.077 E3.01879
G1 X-11.536 Y-7.637 E3.04839
G1 X-11.266 Y-8.165 E3.07797
G1 X-10.928 Y-8.652 E3.10755
G1 X-10.527 Y-9.089 E3.13714
G1 X-10.072 Y-9.469 E3.16671
G1 X-9.569 Y-9.783 E3.1963
G1 X-9.029 Y-10.028 E3.22588
G1 X-8.46 Y-10.197 E3.25549
G1 X-7.875 Y-10.288 E3.28503
G1 X-7.491 Y-10.305 E3.30421
G1 X7.49 Y-10.305 E4.05161
G0 F3600 X7.49 Y-9.905
G1 F1800 X8.054 Y-9.865 E4.07982
G1 X8.607 Y-9.746 E4.10804
G1 X9.137 Y-9.55 E4.13623
G1 X9.634 Y-9.282 E4.16441
G1 X10.089 Y-8.946 E4.19262
G1 X10.492 Y-8.549 E4.22085
G1 X10.834 Y-8.099 E4.24905
G1 X11.11 Y-7.606 E4.27723
G1 X11.314 Y-7.078 E4.30547
G1 X11.441 Y-6.528 E4.33364
G1 X11.49 Y-5.905 E4.36481
G1 X11.491 Y5.906 E4.95407
G1 X11.451 Y6.47 E4.98227
G1 X11.332 Y7.022 E5.01045
G1 X11.136 Y7.553 E5.03869
G1 X10.868 Y8.05 E5.06686
G1 X10.532 Y8.505 E5.09507
G1 X10.135 Y8.907 E5.12326
G1 X9.686 Y9.25 E5.15145
G1 X9.192 Y9.526 E5.17968
G1 X8.665 Y9.73 E5.20788
G1 X8.114 Y9.857 E5.23609
G1 X7.491 Y9.906 E5.26726
G1 X-7.491 Y9.906 E6.01472
G1 X-8.055 Y9.866 E6.04293
G1 X-8.608 Y9.747 E6.07115
G1 X-9.138 Y9.551 E6.09934
G1 X-9.635 Y9.283 E6.12751
G1 X-10.09 Y8.947 E6.15573
G1 X-10.493 Y8.55 E6.18395
G1 X-10.835 Y8.1 E6.21215
G1 X-11.111 Y7.607 E6.24034
G1 X-11.315 Y7.079 E6.26858
G1 X-11.442 Y6.529 E6.29674
G1 X-11.491 Y5.906 E6.32792
G1 X-11.491 Y-5.905 E6.91717
G1 X-11.451 Y-6.469 E6.94538
G1 X-11.332 Y-7.022 E6.9736
G1 X-11.136 Y-7.552 E7.00179
G1 X-10.868 Y-8.049 E7.02996
G1 X-10.532 Y-8.504 E7.05818
G1 X-10.135 Y-8.907 E7.08641
G1 X-9.685 Y-9.249 E7.1146
G1 X-9.192 Y-9.525 E7.14279
G1 X-8.664 Y-9.729 E7.17103
G1 X-8.114 Y-9.856 E7.19919
G1 X-7.491 Y-9.905 E7.23037
G1 X7.49 Y-9.905 E7.97778
G0 F3600 X7.49 Y-9.505
G1 F1800 X8.025 Y-9.465 E8.00454
G1 X8.548 Y-9.346 E8.0313
G1 X9.047 Y-9.151 E8.05803
G1 X9.512 Y-8.883 E8.08481
G1 X9.932 Y-8.55 E8.11155
G1 X10.298 Y-8.158 E8.1383
G1 X10.601 Y-7.716 E8.16504
G1 X10.836 Y-7.233 E8.19184
G1 X10.996 Y-6.722 E8.21855
G1 X11.079 Y-6.192 E8.24531
G1 X11.09 Y-5.905 E8.25964
G1 X11.091 Y5.906 E8.8489
G1 X11.051 Y6.44 E8.87561
G1 X10.932 Y6.963 E8.90237
G1 X10.737 Y7.463 E8.92915
G1 X10.47 Y7.928 E8.9559
G1 X10.136 Y8.348 E8.98267
G1 X9.744 Y8.714 E9.00943
G1 X9.302 Y9.017 E9.03616
G1 X8.82 Y9.252 E9.06292
G1 X8.308 Y9.412 E9.08968
G1 X7.778 Y9.495 E9.11644
G1 X7.491 Y9.506 E9.13077
G1 X-7.491 Y9.506 E9.87823
G1 X-8.026 Y9.466 E9.90499
G1 X-8.549 Y9.347 E9.93175
G1 X-9.048 Y9.152 E9.95848
G1 X-9.513 Y8.884 E9.98526
G1 X-9.933 Y8.551 E10.012
G1 X-10.299 Y8.159 E10.03875
G1 X-10.602 Y7.717 E10.06549
G1 X-10.837 Y7.234 E10.09229
G1 X-10.997 Y6.723 E10.119
G1 X-11.08 Y6.193 E10.14576
G1 X-11.091 Y5.906 E10.16009
G1 X-11.091 Y-5.905 E10.74935
G1 X-11.051 Y-6.44 E10.77611
G1 X-10.932 Y-6.963 E10.80287
G1 X-10.737 Y-7.462 E10.8296
G1 X-10.469 Y-7.927 E10.85638
G1 X-10.136 Y-8.347 E10.88312
G1 X-9.744 Y-8.713 E10.90987
G1 X-9.302 Y-9.016 E10.93661
G1 X-8.819 Y-9.251 E10.96341
G1 X-8.308 Y-9.411 E10.99012
G1 X-7.778 Y-9.494 E11.01688
G1 X-7.491 Y-9.505 E11.03121
G1 X7.49 Y-9.505 E11.77862
G0 F3600 X7.49 Y-9.105
G1 F1800 X7.994 Y-9.065 E11.80384
G1 X8.485 Y-8.946 E11.82905
G1 X8.952 Y-8.752 E11.85428
G1 X9.382 Y-8.486 E11.8795
G1 X9.765 Y-8.156 E11.90473
G1 X10.091 Y-7.769 E11.92997
G1 X10.352 Y-7.336 E11.95519
G1 X10.542 Y-6.868 E11.98039
G1 X10.655 Y-6.375 E12.00563
G1 X10.69 Y-5.905 E12.02914
G1 X10.691 Y5.906 E12.61839
G1 X10.651 Y6.41 E12.64362
G1 X10.532 Y6.901 E12.66882
G1 X10.338 Y7.368 E12.69405
G1 X10.072 Y7.798 E12.71928
G1 X9.742 Y8.181 E12.7445
G1 X9.355 Y8.507 E12.76974
G1 X8.923 Y8.768 E12.79492
G1 X8.454 Y8.958 E12.82017
G1 X7.961 Y9.071 E12.8454
G1 X7.491 Y9.106 E12.86892
G1 X-7.491 Y9.106 E13.61637
G1 X-7.995 Y9.066 E13.6416
G1 X-8.486 Y8.947 E13.6668
G1 X-8.953 Y8.753 E13.69203
G1 X-9.383 Y8.487 E13.71726
G1 X-9.766 Y8.157 E13.74248
G1 X-10.092 Y7.77 E13.76772
G1 X-10.353 Y7.337 E13.79295
G1 X-10.543 Y6.869 E13.81815
G1 X-10.656 Y6.376 E13.84338
G1 X-10.691 Y5.906 E13.86689
G1 X-10.691 Y-5.905 E14.45615
G1 X-10.651 Y-6.409 E14.48137
G1 X-10.532 Y-6.9 E14.50658
G1 X-10.338 Y-7.367 E14.5318
G1 X-10.072 Y-7.797 E14.55703
G1 X-9.742 Y-8.18 E14.58225
G1 X-9.355 Y-8.506 E14.6075
G1 X-8.922 Y-8.767 E14.63272
G1 X-8.454 Y-8.957 E14.65792
G1 X-7.961 Y-9.07 E14.68315
G1 X-7.491 Y-9.105 E14.70667
G1 X7.49 Y-9.105 E15.45407
G1 F3600 E7.45407
G0 F3600 X6.885 Y-6.579
G0 X6.886 Y-5.301
G0 X6.3 Y-4.915
;TYPE:WALL-INNER
G1 F3600 E15.45407
G1 F1800 X6.5 Y-4.915 E15.46405
G1 X6.5 Y-4.715 E15.47051
G1 X6.5 Y4.915 E15.95095
G1 X1.317 Y4.915 E16.20954
G1 X1.117 Y4.915 E16.21951
G1 X0.849 Y4.915 E16.23288
G1 X0.575 Y4.915 E16.24655
G1 X0.291 Y4.915 E16.26072
G1 X0.00 Y4.915 E16.27524
G1 X-0.291 Y4.915 E16.28976
G1 X-0.575 Y4.915 E16.30393
G1 X-0.849 Y4.915 E16.3176
G1 X-1.117 Y4.915 E16.33097
G1 X-1.317 Y4.915 E16.34095
G1 X-6.5 Y4.915 E16.59953
G1 X-6.5 Y-4.914 E17.0899
G1 X6.3 Y-4.915 E17.72849
G0 F3600 X1.798 Y-1.093
G1 F1800 X1.593 Y-1.298 E17.74296
G1 X1.365 Y-1.477 E17.75742
G1 X1.117 Y-1.627 E17.77188
G1 X0.849 Y-1.747 E17.78653
G1 X0.575 Y-1.831 E17.80083
G1 X0.291 Y-1.885 E17.81525
G1 X0.00 Y-1.902 E17.82979
G1 X-0.291 Y-1.885 E17.84433
G1 X-0.575 Y-1.831 E17.85876
G1 X-0.849 Y-1.747 E17.87305
G1 X-1.117 Y-1.627 E17.8877
G1 X-1.365 Y-1.477 E17.90216
G1 X-1.593 Y-1.298 E17.91663
G1 X-1.798 Y-1.093 E17.93109
G1 X-1.977 Y-0.865 E17.94555
G1 X-2.127 Y-0.617 E17.96001
G1 X-2.247 Y-0.349 E17.97466
G1 X-2.331 Y-0.075 E17.98896
G1 X-2.385 Y0.209 E18.00338
G1 X-2.4 Y0.47 E18.01642
G1 X-2.4 Y2.53 E18.1192
G1 X-2.385 Y2.791 E18.13224
G1 X-2.331 Y3.075 E18.14666
G1 X-2.247 Y3.349 E18.16096
G1 X-2.127 Y3.617 E18.17561
G1 X-1.977 Y3.865 E18.19007
G1 X-1.798 Y4.093 E18.20453
G1 X-1.593 Y4.298 E18.219
G1 X-1.365 Y4.477 E18.23346
G1 X-1.288 Y4.524 E18.23796
G1 X-1.117 Y4.627 E18.24557
G1 X-0.849 Y4.747 E18.24572
G1 X-0.575 Y4.831
G1 X-0.291 Y4.885
G1 X0.00 Y4.902
G1 X0.291 Y4.885
G1 X0.575 Y4.831
G1 X0.849 Y4.747
G1 X1.117 Y4.627 E18.25019
G1 X1.288 Y4.524 E18.2588
G1 X1.365 Y4.477 E18.2633
G1 X1.593 Y4.298 E18.27776
G1 X1.798 Y4.093 E18.29223
G1 X1.977 Y3.865 E18.30669
G1 X2.127 Y3.617 E18.32115
G1 X2.247 Y3.349 E18.3358
G1 X2.331 Y3.075 E18.3501
G1 X2.385 Y2.791 E18.36452
G1 X2.4 Y2.53 E18.37756
G1 X2.4 Y0.47 E18.48034
G1 X2.385 Y0.209 E18.49338
G1 X2.331 Y-0.075 E18.5078
G1 X2.247 Y-0.349 E18.5221
G1 X2.127 Y-0.617 E18.53675
G1 X1.977 Y-0.865 E18.55121
G1 X1.798 Y-1.093 E18.56567
G0 F3600 X1.498 Y-0.827
G1 F1800 X1.327 Y-0.998 E18.57773
G1 X1.137 Y-1.147 E18.58978
G1 X0.931 Y-1.272 E18.6018
G1 X0.708 Y-1.372 E18.614
G1 X0.479 Y-1.442 E18.62594
G1 X0.242 Y-1.487 E18.63798
G1 X0.00 Y-1.501 E18.65007
G1 X-0.242 Y-1.487 E18.66216
G1 X-0.479 Y-1.442 E18.6742
G1 X-0.708 Y-1.372 E18.68615
G1 X-0.931 Y-1.272 E18.69834
G1 X-1.137 Y-1.147 E18.71036
G1 X-1.327 Y-0.998 E18.72241
G1 X-1.498 Y-0.827 E18.73447
G1 X-1.647 Y-0.637 E18.74652
G1 X-1.772 Y-0.431 E18.75854
G1 X-1.872 Y-0.208 E18.77073
G1 X-1.942 Y0.021 E18.78268
G1 X-1.987 Y0.258 E18.79471
G1 X-2 Y0.482 E18.80591
G1 X-2 Y2.518 E18.90749
G1 X-1.987 Y2.742 E18.91868
G1 X-1.942 Y2.979 E18.93071
G1 X-1.872 Y3.208 E18.94266
G1 X-1.772 Y3.431 E18.95485
G1 X-1.647 Y3.637 E18.96688
G1 X-1.498 Y3.827 E18.97892
G1 X-1.327 Y3.998 E18.99099
G1 X-1.137 Y4.147 E19.00303
G1 X-0.931 Y4.272 E19.01506
G1 X-0.708 Y4.372 E19.02725
G1 X-0.479 Y4.442 E19.03919
G1 X-0.242 Y4.487 E19.05123
G1 X0.00 Y4.501 E19.06332
G1 X0.242 Y4.487 E19.07542
G1 X0.479 Y4.442 E19.08745
G1 X0.708 Y4.372 E19.0994
G1 X0.931 Y4.272 E19.11159
G1 X1.137 Y4.147 E19.12361
G1 X1.327 Y3.998 E19.13566
G1 X1.498 Y3.827 E19.14772
G1 X1.647 Y3.637 E19.15977
G1 X1.772 Y3.431 E19.17179
G1 X1.872 Y3.208 E19.18399
G1 X1.942 Y2.979 E19.19593
G1 X1.987 Y2.742 E19.20797
G1 X2 Y2.518 E19.21916
G1 X2 Y0.482 E19.32074
G1 X1.987 Y0.258 E19.33193
G1 X1.942 Y0.021 E19.34397
G1 X1.872 Y-0.208 E19.35591
G1 X1.772 Y-0.431 E19.36811
G1 X1.647 Y-0.637 E19.38013
G1 X1.498 Y-0.827 E19.39217
G0 F3600 X1.572 Y-0.893
G0 X6.7 Y-5.214
G0 X6.7 Y-5.315
G1 F1800 X6.9 Y-5.315 E19.40215
G1 X6.9 Y-5.115 E19.40861
G1 X6.9 Y5.315 E19.92897
G1 X-6.9 Y5.315 E20.61745
G1 X-6.9 Y-5.314 E21.14774
G1 X6.7 Y-5.315 E21.82624
G0 F3600 X7.1 Y-5.715
;TYPE:WALL-OUTER
G1 F1800 X7.3 Y-5.715 E21.83622
G1 X7.3 Y-5.515 E21.84268
G1 X7.3 Y5.715 E22.40295
G1 X-7.3 Y5.715 E23.13135
G1 X-7.3 Y-5.714 E23.70154
G1 X7.1 Y-5.715 E24.41996
G0 F3600 X7.3 Y-5.715
G0 X6.83 Y-5.245
G0 X1.551 Y-0.914
G0 X1.198 Y-0.561
G1 F1800 X1.061 Y-0.698 E24.42963
G1 X0.909 Y-0.817 E24.43926
G1 X0.744 Y-0.917 E24.44888
G1 X0.567 Y-0.997 E24.45857
G1 X0.383 Y-1.053 E24.46817
G1 X0.193 Y-1.089 E24.47782
G1 X0.00 Y-1.1 E24.48746
G1 X-0.193 Y-1.089 E24.49711
G1 X-0.383 Y-1.053 E24.50675
G1 X-0.567 Y-0.997 E24.51635
G1 X-0.744 Y-0.917 E24.52604
G1 X-0.909 Y-0.817 E24.53567
G1 X-1.061 Y-0.698 E24.5453
G1 X-1.198 Y-0.561 E24.55496
G1 X-1.317 Y-0.409 E24.56459
G1 X-1.417 Y-0.244 E24.57422
G1 X-1.497 Y-0.067 E24.58391
G1 X-1.553 Y0.117 E24.5935
G1 X-1.589 Y0.307 E24.60315
G1 X-1.6 Y0.494 E24.6125
G1 X-1.6 Y2.506 E24.71288
G1 X-1.589 Y2.693 E24.72222
G1 X-1.553 Y2.883 E24.73187
G1 X-1.497 Y3.067 E24.74147
G1 X-1.417 Y3.244 E24.75116
G1 X-1.317 Y3.409 E24.76078
G1 X-1.198 Y3.561 E24.77041
G1 X-1.061 Y3.698 E24.78008
G1 X-0.909 Y3.817 E24.78971
G1 X-0.744 Y3.917 E24.79934
G1 X-0.567 Y3.997 E24.80903
G1 X-0.383 Y4.053 E24.81862
G1 X-0.193 Y4.089 E24.82827
G1 X0.00 Y4.1 E24.83791
G1 X0.193 Y4.089 E24.84756
G1 X0.383 Y4.053 E24.85721
G1 X0.567 Y3.997 E24.8668
G1 X0.744 Y3.917 E24.87649
G1 X0.909 Y3.817 E24.88612
G1 X1.061 Y3.698 E24.89575
G1 X1.198 Y3.561 E24.90542
G1 X1.317 Y3.409 E24.91505
G1 X1.417 Y3.244 E24.92467
G1 X1.497 Y3.067 E24.93436
G1 X1.553 Y2.883 E24.94396
G1 X1.589 Y2.693 E24.95361
G1 X1.6 Y2.506 E24.96295
G1 X1.6 Y0.494 E25.06333
G1 X1.589 Y0.307 E25.07268
G1 X1.553 Y0.117 E25.08232
G1 X1.497 Y-0.067 E25.09192
G1 X1.417 Y-0.244 E25.10161
G1 X1.317 Y-0.409 E25.11124
G1 X1.198 Y-0.561 E25.12087
G0 F3600 X1.061 Y-0.698
G0 X1.056 Y-0.702
G0 X1.365 Y-1.094
G0 X6.3 Y-4.715
G0 X6.013 Y-4.734
;TYPE:SKIN
G1 F1800 X6.319 Y-4.428 E25.14246
G0 F3600 X6.319 Y-3.862
G1 F1800 X5.447 Y-4.734 E25.20398
G1 X5.377 Y-4.804
G0 F3600 X4.881 Y-4.734
G1 F1800 X6.319 Y-3.297 E25.3054
G1 X6.389 Y-3.227
G0 F3600 X6.319 Y-2.731
G1 F1800 X4.316 Y-4.734 E25.44673
G1 X4.246 Y-4.804
G0 F3600 X3.75 Y-4.734
G1 F1800 X6.319 Y-2.165 E25.62798
G1 X6.389 Y-2.095
G0 F3600 X6.319 Y-1.6
G1 F1800 X3.184 Y-4.734 E25.84914
G1 X3.114 Y-4.804
G0 F3600 X2.619 Y-4.734
G1 F1800 X6.319 Y-1.034 E26.11019
G1 X6.389 Y-0.964
G0 F3600 X6.319 Y-0.468
G1 F1800 X2.053 Y-4.734 E26.41118
G1 X1.983 Y-4.804
G0 F3600 X1.487 Y-4.734
G1 F1800 X6.319 Y0.096 E26.75204
G1 X6.389 Y0.166
G0 F3600 X6.319 Y0.662
G1 F1800 X0.922 Y-4.734 E27.13279
G1 X0.852 Y-4.804
G0 F3600 X0.356 Y-4.734
G1 F1800 X6.319 Y1.228 E27.55348
G1 X6.389 Y1.298
G0 F3600 X6.319 Y1.793
G1 F1800 X-0.208 Y-4.734 E28.01399
G1 X-0.278 Y-4.804
G0 F3600 X-0.774 Y-4.734
G1 F1800 X6.319 Y2.359 E28.51444
G1 X6.389 Y2.429
G0 F3600 X6.319 Y2.925
G1 F1800 X-1.339 Y-4.734 E29.05479
G1 X-1.409 Y-4.804
G0 F3600 X-1.905 Y-4.734
G1 F1800 X0.912 Y-1.915 E29.25361
G1 X0.982 Y-1.845
G0 F3600 X0.192 Y-2.07
G1 F1800 X-2.471 Y-4.734 E29.44154
G1 X-2.541 Y-4.804
G0 F3600 X-3.037 Y-4.734
G1 F1800 X-0.357 Y-2.054 E29.63063
G1 X-0.287 Y-1.984
G0 F3600 X-0.814 Y-1.945
G1 F1800 X-3.602 Y-4.734 E29.82737
G1 X-3.672 Y-4.804
G0 F3600 X-4.168 Y-4.734
G1 F1800 X-1.214 Y-1.779 E30.03583
G1 X-1.144 Y-1.709
G0 F3600 X-1.556 Y-1.556
G1 F1800 X-4.734 Y-4.734 E30.26005
G1 X-4.804 Y-4.804
G0 F3600 X-5.299 Y-4.734
G1 F1800 X-1.855 Y-1.289 E30.50308
G1 X-1.785 Y-1.219
G0 F3600 X-2.113 Y-0.982
G1 F1800 X-5.865 Y-4.734 E30.7678
G1 X-5.935 Y-4.804
G0 F3600 X-6.319 Y-4.622
G1 F1800 X-2.32 Y-0.623 E31.04995
G1 X-2.25 Y-0.553
G0 F3600 X-2.475 Y-0.212
G1 F1800 X-6.319 Y-4.056 E31.32117
G1 X-6.389 Y-4.126
G0 F3600 X-6.319 Y-3.49
G1 F1800 X-2.567 Y0.26 E31.58582
G1 X-2.497 Y0.33
G0 F3600 X-2.579 Y0.814
G1 F1800 X-6.319 Y-2.925 E31.84967
G1 X-6.389 Y-2.995
G0 F3600 X-6.319 Y-2.359
G1 F1800 X-2.579 Y1.38 E32.11351
G1 X-2.509 Y1.45
G0 F3600 X-2.579 Y1.945
G1 F1800 X-6.319 Y-1.793 E32.37731
G1 X-6.389 Y-1.863
G0 F3600 X-6.319 Y-1.228
G1 F1800 X-2.579 Y2.511 E32.64116
G1 X-2.509 Y2.581
G0 F3600 X-2.489 Y3.167
G1 F1800 X-6.319 Y-0.662 E32.91135
G1 X-6.389 Y-0.732
G0 F3600 X-6.319 Y-0.096
G1 F1800 X-1.488 Y4.734 E33.25217
G1 X-1.418 Y4.804
G0 F3600 X-2.054 Y4.734
G1 F1800 X-6.319 Y0.468 E33.55312
G1 X-6.389 Y0.398
G0 F3600 X-6.319 Y1.034
G1 F1800 X-2.619 Y4.734 E33.81417
G1 X-2.549 Y4.804
G0 F3600 X-3.185 Y4.734
G1 F1800 X-6.319 Y1.6 E34.03529
G1 X-6.389 Y1.53
G0 F3600 X-6.319 Y2.165
G1 F1800 X-3.751 Y4.734 E34.21652
G1 X-3.681 Y4.804
G0 F3600 X-4.316 Y4.734
G1 F1800 X-6.319 Y2.731 E34.35784
G1 X-6.389 Y2.661
G0 F3600 X-6.319 Y3.297
G1 F1800 X-4.881 Y4.734 E34.45926
G1 X-4.811 Y4.804
G0 F3600 X-5.447 Y4.734
G1 F1800 X-6.319 Y3.862 E34.52079
G1 X-6.389 Y3.792
G0 F3600 X-6.319 Y4.428
G1 F1800 X-6.013 Y4.734 E34.54238
G0 F3600 X1.651 Y4.48
G0 X1.778 Y4.607
G1 F1800 X2.205 Y4.468 E34.5701
G0 F3600 X3.037 Y4.734
G1 F1800 X2.18 Y3.877 E34.63057
G1 X2.11 Y3.807
G0 F3600 X2.374 Y3.505
G1 F1800 X3.602 Y4.734 E34.71724
G1 X3.672 Y4.804
G0 F3600 X4.169 Y4.734
G1 F1800 X2.512 Y3.078 E34.83412
G1 X2.442 Y3.008
G0 F3600 X2.575 Y2.575
G1 F1800 X4.734 Y4.734 E34.98645
G1 X4.804 Y4.804
G0 F3600 X5.3 Y4.734
G1 F1800 X2.578 Y2.013 E35.17846
G1 X2.508 Y1.943
G0 F3600 X2.578 Y1.447
G1 F1800 X5.866 Y4.734 E35.41042
G1 X5.936 Y4.804
G0 F3600 X6.319 Y4.622
G1 F1800 X2.578 Y0.881 E35.67436
G1 X2.508 Y0.811
G0 F3600 X2.57 Y0.307
G1 F1800 X6.319 Y4.056 E35.93888
G1 X6.389 Y4.126
G0 F3600 X6.319 Y3.49
G1 F1800 X2.415 Y-0.412 E36.21425
G1 X2.345 Y-0.482
G0 F3600 X0.722 Y-1.409
G0 X-0.291 Y-1.885
;TIME_ELAPSED:26.744699
;LAYER:1
M106 S255
G0 F5400 X-0.291 Y-1.885 Z0.448
;TYPE:WALL-INNER
G1 F2700 X-0.575 Y-1.831 E36.22146
G1 X-0.849 Y-1.747 E36.22861
G1 X-1.117 Y-1.627 E36.23594
