;FLAVOR:RepRap
;TIME:264
;Filament used: 0.214109m
;Layer height: 0.15
;Generated with Cura_SteamEngine 0.0.0-master
M104 S200
M109 S200
;Sliced at: Mon 12-02-2018 23:10:49 
 ;Basic settings: Layer height: 0.15 Walls: 1.2 Fill: {fill_density} 
 ;Print time: 00:04:24 
 ;Filament used: [0.21]m [0.6385914477539062]g 
 ;Filament cost: [0] 
 ;M190 S60 ;Uncomment to add your own bed temperature line 
 ;M109 S200 ;Uncomment to add your own temperature line 
 G21        ;metric values 
 G90        ;absolute positioning 
 M82        ;set extruder to absolute mode 
 M107       ;start with the fan off 
 G28 X0 Y0  ;move X/Y to min endstops 
 G28 Z0     ;move Z to min endstops 
 G1 Z15.0 F3000 ;move the platform down 15mm 
 G92 E0                  ;zero the extruded length 
 G1 F3000 E3              ;extrude 3mm of feed stock 
 G92 E0                  ;zero the extruded length again 
 G1 F3000 
 ;Put printing message on LCD screen 
 M117 Printing...
;LAYER_COUNT:19
;LAYER:0
M107
G0 F3600 X-7.497 Y10.284 Z0.299
;TYPE:SKIRT
G1 F1800 X-8.089 Y10.243 E0.02961
G1 X-8.67 Y10.123 E0.0592
G1 X-9.229 Y9.926 E0.08877
G1 X-9.757 Y9.656 E0.11836
G1 X-10.243 Y9.317 E0.14792
G1 X-10.68 Y8.916 E0.17751
G1 X-11.059 Y8.459 E0.20713
G1 X-11.372 Y7.956 E0.23669
G1 X-11.616 Y7.416 E0.26625
G1 X-11.784 Y6.847 E0.29585
G1 X-11.875 Y6.261 E0.32544
G1 X-11.891 Y5.884 E0.34426
G1 X-11.89 Y-5.905 E0.93242
G1 X-11.85 Y-6.497 E0.96202
G1 X-11.731 Y-7.078 E0.99161
G1 X-11.535 Y-7.637 E1.02116
G1 X-11.265 Y-8.165 E1.05075
G1 X-10.927 Y-8.653 E1.08036
G1 X-10.526 Y-9.09 E1.10995
G1 X-10.07 Y-9.469 E1.13954
G1 X-9.568 Y-9.784 E1.1691
G1 X-9.027 Y-10.028 E1.19871
G1 X-8.459 Y-10.197 E1.22828
G1 X-7.873 Y-10.288 E1.25786
G1 X-7.49 Y-10.305 E1.27699
G1 X7.491 Y-10.304 E2.0244
G1 X8.083 Y-10.264 E2.054
G1 X8.664 Y-10.145 E2.08359
G1 X9.223 Y-9.949 E2.11314
G1 X9.751 Y-9.679 E2.14273
G1 X10.238 Y-9.341 E2.1723
G1 X10.676 Y-8.94 E2.20193
G1 X11.055 Y-8.484 E2.23151
G1 X11.37 Y-7.982 E2.26108
G1 X11.614 Y-7.441 E2.29069
G1 X11.783 Y-6.873 E2.32025
G1 X11.874 Y-6.287 E2.34984
G1 X11.891 Y-5.904 E2.36896
G1 X11.891 Y5.906 E2.95817
G1 X11.851 Y6.498 E2.98777
G1 X11.732 Y7.078 E3.01731
G1 X11.536 Y7.638 E3.04691
G1 X11.266 Y8.166 E3.07649
G1 X10.928 Y8.653 E3.10607
G1 X10.527 Y9.09 E3.13566
G1 X10.072 Y9.47 E3.16524
G1 X9.569 Y9.784 E3.19482
G1 X9.029 Y10.029 E3.2244
G1 X8.46 Y10.198 E3.25402
G1 X7.875 Y10.289 E3.28355
G1 X7.485 Y10.306 E3.30303
G1 X-7.497 Y10.284 E4.05048
G0 F3600 X-7.497 Y9.884
G1 F1800 X-8.061 Y9.843 E4.0787
G1 X-8.613 Y9.723 E4.10688
G1 X-9.143 Y9.527 E4.13507
G1 X-9.64 Y9.257 E4.16329
G1 X-10.094 Y8.921 E4.19147
G1 X-10.497 Y8.523 E4.21973
G1 X-10.839 Y8.073 E4.24792
G1 X-11.114 Y7.58 E4.27609
G1 X-11.317 Y7.052 E4.30431
G1 X-11.443 Y6.501 E4.33251
G1 X-11.491 Y5.884 E4.36338
G1 X-11.49 Y-5.905 E4.95154
G1 X-11.45 Y-6.469 E4.97975
G1 X-11.331 Y-7.022 E5.00797
G1 X-11.135 Y-7.552 E5.03616
G1 X-10.866 Y-8.05 E5.0644
G1 X-10.53 Y-8.504 E5.09258
G1 X-10.134 Y-8.907 E5.12077
G1 X-9.684 Y-9.25 E5.14899
G1 X-9.191 Y-9.526 E5.17718
G1 X-8.663 Y-9.729 E5.2054
G1 X-8.112 Y-9.856 E5.23361
G1 X-7.49 Y-9.905 E5.26474
G1 X7.491 Y-9.904 E6.01215
G1 X8.055 Y-9.864 E6.04036
G1 X8.608 Y-9.745 E6.06858
G1 X9.138 Y-9.549 E6.09677
G1 X9.636 Y-9.28 E6.12501
G1 X10.09 Y-8.944 E6.15319
G1 X10.493 Y-8.548 E6.18137
G1 X10.836 Y-8.098 E6.2096
G1 X11.111 Y-7.605 E6.23777
G1 X11.315 Y-7.077 E6.26601
G1 X11.442 Y-6.526 E6.29422
G1 X11.491 Y-5.904 E6.32534
G1 X11.491 Y5.906 E6.91455
G1 X11.451 Y6.47 E6.94276
G1 X11.332 Y7.023 E6.97098
G1 X11.136 Y7.553 E6.99917
G1 X10.868 Y8.05 E7.02734
G1 X10.532 Y8.505 E7.05556
G1 X10.135 Y8.908 E7.08378
G1 X9.685 Y9.25 E7.11198
G1 X9.192 Y9.526 E7.14017
G1 X8.664 Y9.73 E7.16841
G1 X8.114 Y9.857 E7.19657
G1 X7.485 Y9.906 E7.22805
G1 X-7.497 Y9.884 E7.9755
G0 F3600 X-7.496 Y9.484
G1 F1800 X-8.031 Y9.443 E8.00227
G1 X-8.554 Y9.324 E8.02903
G1 X-9.053 Y9.128 E8.05578
G1 X-9.517 Y8.859 E8.08253
G1 X-9.937 Y8.525 E8.10931
G1 X-10.302 Y8.133 E8.13603
G1 X-10.605 Y7.69 E8.16281
G1 X-10.839 Y7.208 E8.18954
G1 X-10.998 Y6.696 E8.21628
G1 X-11.08 Y6.165 E8.24309
G1 X-11.091 Y5.884 E8.25712
G1 X-11.09 Y-5.905 E8.84527
G1 X-11.05 Y-6.44 E8.87204
G1 X-10.931 Y-6.963 E8.8988
G1 X-10.736 Y-7.462 E8.92553
G1 X-10.468 Y-7.927 E8.9523
G1 X-10.135 Y-8.347 E8.97905
G1 X-9.743 Y-8.713 E9.0058
G1 X-9.301 Y-9.017 E9.03257
G1 X-8.818 Y-9.251 E9.05934
G1 X-8.306 Y-9.411 E9.0861
G1 X-7.776 Y-9.494 E9.11287
G1 X-7.49 Y-9.505 E9.12715
G1 X7.491 Y-9.504 E9.87455
G1 X8.026 Y-9.464 E9.90132
G1 X8.549 Y-9.345 E9.92808
G1 X9.048 Y-9.15 E9.95481
G1 X9.513 Y-8.882 E9.98158
G1 X9.933 Y-8.549 E10.00832
G1 X10.299 Y-8.157 E10.03508
G1 X10.603 Y-7.715 E10.06184
G1 X10.837 Y-7.232 E10.08862
G1 X10.997 Y-6.72 E10.11538
G1 X11.08 Y-6.191 E10.1421
G1 X11.091 Y-5.904 E10.15642
G1 X11.091 Y5.906 E10.74563
G1 X11.051 Y6.441 E10.77239
G1 X10.932 Y6.964 E10.79915
G1 X10.737 Y7.463 E10.82588
G1 X10.469 Y7.928 E10.85266
G1 X10.136 Y8.348 E10.8794
G1 X9.744 Y8.714 E10.90615
G1 X9.302 Y9.017 E10.93289
G1 X8.819 Y9.252 E10.95969
G1 X8.308 Y9.412 E10.9864
G1 X7.778 Y9.495 E11.01317
G1 X7.486 Y9.506 E11.02774
G1 X-7.496 Y9.484 E11.7752
G0 F3600 X-7.496 Y9.084
G1 F1800 X-8 Y9.043 E11.80043
G1 X-8.491 Y8.924 E11.82563
G1 X-8.957 Y8.728 E11.85085
G1 X-9.387 Y8.462 E11.87608
G1 X-9.769 Y8.131 E11.9013
G1 X-10.095 Y7.744 E11.92654
G1 X-10.355 Y7.311 E11.95174
G1 X-10.544 Y6.842 E11.97697
G1 X-10.657 Y6.349 E12.0022
G1 X-10.691 Y5.884 E12.02546
G1 X-10.69 Y-5.905 E12.61362
G1 X-10.65 Y-6.409 E12.63884
G1 X-10.531 Y-6.901 E12.66409
G1 X-10.336 Y-7.367 E12.6893
G1 X-10.071 Y-7.797 E12.7145
G1 X-9.74 Y-8.18 E12.73975
G1 X-9.354 Y-8.506 E12.76496
G1 X-8.921 Y-8.767 E12.79018
G1 X-8.452 Y-8.957 E12.81543
G1 X-7.96 Y-9.07 E12.84061
G1 X-7.49 Y-9.105 E12.86413
G1 X7.491 Y-9.104 E13.61153
G1 X7.995 Y-9.064 E13.63675
G1 X8.487 Y-8.945 E13.66201
G1 X8.953 Y-8.75 E13.68721
G1 X9.383 Y-8.485 E13.71241
G1 X9.766 Y-8.154 E13.73767
G1 X10.092 Y-7.768 E13.76287
G1 X10.353 Y-7.335 E13.7881
G1 X10.543 Y-6.866 E13.81334
G1 X10.656 Y-6.374 E13.83853
G1 X10.691 Y-5.904 E13.86204
G1 X10.691 Y5.906 E14.45124
G1 X10.651 Y6.41 E14.47647
G1 X10.532 Y6.901 E14.50167
G1 X10.338 Y7.368 E14.5269
G1 X10.072 Y7.798 E14.55213
G1 X9.742 Y8.181 E14.57735
G1 X9.355 Y8.507 E14.60259
G1 X8.922 Y8.768 E14.62782
G1 X8.454 Y8.958 E14.65302
G1 X7.961 Y9.071 E14.67825
G1 X7.486 Y9.106 E14.70201
G1 X-7.496 Y9.084 E15.44947
G1 F3600 E7.44947
G0 F3600 X-6.886 Y6.58
G0 X-6.886 Y5.3
G0 X-6.5 Y4.914
;TYPE:WALL-INNER
G1 F3600 E15.44947
G1 F1800 X-6.5 Y-4.914 E15.93979
G1 X6.5 Y-4.914 E16.58836
G1 X6.5 Y4.915 E17.07873
G1 X1.313 Y4.915 E17.33751
G1 X1.137 Y4.915 E17.34629
G1 X0.87 Y4.915 E17.35961
G1 X0.58 Y4.915 E17.37408
G1 X0.291 Y4.915 E17.3885
G1 X0.00 Y4.915 E17.40302
G1 X-0.291 Y4.915 E17.41754
G1 X-0.575 Y4.915 E17.43171
G1 X-0.849 Y4.915 E17.44538
G1 X-1.117 Y4.915 E17.45875
G1 X-1.317 Y4.915 E17.46872
G1 X-6.5 Y4.914 E17.72731
G0 F3600 X-2.247 Y3.349
G1 F1800 X-2.127 Y3.617 E17.74196
G1 X-1.977 Y3.865 E17.75642
G1 X-1.798 Y4.093 E17.77088
G1 X-1.593 Y4.298 E17.78534
G1 X-1.365 Y4.477 E17.7998
G1 X-1.288 Y4.524 E17.8043
G1 X-1.117 Y4.627 E17.81192
G1 X-0.849 Y4.747 E17.81207
G1 X-0.575 Y4.831
G1 X-0.291 Y4.885
G1 X0.00 Y4.902
G1 X0.291 Y4.885
G1 X0.58 Y4.831
G1 X0.87 Y4.739
G1 X1.137 Y4.615 E17.81955
G1 X1.287 Y4.523 E17.82727
G1 X1.382 Y4.464 E17.83285
G1 X1.607 Y4.284 E17.84722
G1 X1.811 Y4.076 E17.86176
G1 X1.989 Y3.846 E17.87627
G1 X2.136 Y3.597 E17.8907
G1 X2.253 Y3.33 E17.90524
G1 X2.336 Y3.055 E17.91957
G1 X2.386 Y2.774 E17.93381
G1 X2.4 Y2.528 E17.9461
G1 X2.4 Y0.47 E18.04878
G1 X2.385 Y0.209 E18.06182
G1 X2.331 Y-0.075 E18.07624
G1 X2.247 Y-0.349 E18.09054
G1 X2.127 Y-0.617 E18.10519
G1 X1.977 Y-0.865 E18.11965
G1 X1.798 Y-1.093 E18.13411
G1 X1.593 Y-1.298 E18.14857
G1 X1.365 Y-1.477 E18.16304
G1 X1.117 Y-1.627 E18.1775
G1 X0.849 Y-1.747 E18.19215
G1 X0.575 Y-1.831 E18.20644
G1 X0.291 Y-1.885 E18.22087
G1 X0.00 Y-1.902 E18.23541
G1 X-0.291 Y-1.885 E18.24995
G1 X-0.575 Y-1.831 E18.26437
G1 X-0.849 Y-1.747 E18.27867
G1 X-1.117 Y-1.627 E18.29332
G1 X-1.365 Y-1.477 E18.30778
G1 X-1.593 Y-1.298 E18.32224
G1 X-1.798 Y-1.093 E18.33671
G1 X-1.977 Y-0.865 E18.35117
G1 X-2.127 Y-0.617 E18.36563
G1 X-2.247 Y-0.349 E18.38028
G1 X-2.331 Y-0.075 E18.39458
G1 X-2.385 Y0.209 E18.409
G1 X-2.4 Y0.47 E18.42204
G1 X-2.4 Y2.53 E18.52482
G1 X-2.385 Y2.791 E18.53786
G1 X-2.331 Y3.075 E18.55228
G1 X-2.247 Y3.349 E18.56658
G0 F3600 X-1.872 Y3.208
G1 F1800 X-1.772 Y3.431 E18.57877
G1 X-1.647 Y3.637 E18.59079
G1 X-1.498 Y3.827 E18.60284
G1 X-1.327 Y3.998 E18.61491
G1 X-1.137 Y4.147 E18.62695
G1 X-0.931 Y4.272 E18.63897
G1 X-0.708 Y4.372 E18.65117
G1 X-0.479 Y4.442 E18.66311
G1 X-0.242 Y4.487 E18.67515
G1 X0.00 Y4.501 E18.68724
G1 X0.242 Y4.487 E18.69934
G1 X0.482 Y4.442 E18.71152
G1 X0.725 Y4.365 E18.72424
G1 X0.947 Y4.262 E18.73644
G1 X1.151 Y4.136 E18.74841
G1 X1.339 Y3.986 E18.76041
G1 X1.509 Y3.813 E18.77251
G1 X1.657 Y3.621 E18.7846
G1 X1.779 Y3.414 E18.79659
G1 X1.877 Y3.191 E18.80874
G1 X1.946 Y2.962 E18.82067
G1 X1.988 Y2.727 E18.83258
G1 X2 Y2.517 E18.84308
G1 X2 Y0.482 E18.9446
G1 X1.987 Y0.258 E18.9558
G1 X1.942 Y0.021 E18.96783
G1 X1.872 Y-0.208 E18.97978
G1 X1.772 Y-0.431 E18.99197
G1 X1.647 Y-0.637 E19.00399
G1 X1.498 Y-0.827 E19.01604
G1 X1.327 Y-0.998 E19.02811
G1 X1.137 Y-1.147 E19.04015
G1 X0.931 Y-1.272 E19.05217
G1 X0.708 Y-1.372 E19.06437
G1 X0.479 Y-1.442 E19.07631
G1 X0.242 Y-1.487 E19.08835
G1 X0.00 Y-1.501 E19.10044
G1 X-0.242 Y-1.487 E19.11254
G1 X-0.479 Y-1.442 E19.12457
G1 X-0.708 Y-1.372 E19.13652
G1 X-0.931 Y-1.272 E19.14871
G1 X-1.137 Y-1.147 E19.16073
G1 X-1.327 Y-0.998 E19.17278
G1 X-1.498 Y-0.827 E19.18484
G1 X-1.647 Y-0.637 E19.19689
G1 X-1.772 Y-0.431 E19.20891
G1 X-1.872 Y-0.208 E19.2211
G1 X-1.942 Y0.021 E19.23305
G1 X-1.987 Y0.258 E19.24509
G1 X-2 Y0.482 E19.25628
G1 X-2 Y2.518 E19.35786
G1 X-1.987 Y2.742 E19.36905
G1 X-1.942 Y2.979 E19.38109
G1 X-1.872 Y3.208 E19.39303
G0 F3600 X-1.965 Y3.243
G0 X-6.83 Y5.244
G0 X-6.9 Y5.314
G1 F1800 X-6.9 Y-5.314 E19.92327
G1 X6.9 Y-5.314 E20.61175
G1 X6.9 Y5.115 E21.13206
G1 X6.9 Y5.315 E21.14203
G1 X6.7 Y5.315 E21.14849
G1 X-6.9 Y5.314 E21.827
G0 F3600 X-7.3 Y5.714
;TYPE:WALL-OUTER
G1 F1800 X-7.3 Y-5.714 E22.39715
G1 X7.3 Y-5.714 E23.12554
G1 X7.3 Y5.515 E23.68576
G1 X7.3 Y5.715 E23.69574
G1 X7.1 Y5.715 E23.7022
G1 X-7.3 Y5.714 E24.42062
G0 F3600 X-7.3 Y5.514
G0 X-6.83 Y5.244
G0 X-1.954 Y3.269
G0 X-1.497 Y3.067
G1 F1800 X-1.417 Y3.244 E24.43031
G1 X-1.317 Y3.409 E24.43993
G1 X-1.198 Y3.561 E24.44957
G1 X-1.061 Y3.698 E24.45923
G1 X-0.909 Y3.817 E24.46886
G1 X-0.744 Y3.917 E24.47849
G1 X-0.567 Y3.997 E24.48818
G1 X-0.383 Y4.053 E24.49777
G1 X-0.193 Y4.089 E24.50742
G1 X0.00 Y4.1 E24.51707
G1 X0.193 Y4.089 E24.52671
G1 X0.384 Y4.053 E24.53641
G1 X0.58 Y3.991 E24.54666
G1 X0.757 Y3.909 E24.5564
G1 X0.92 Y3.808 E24.56596
G1 X1.071 Y3.688 E24.57559
G1 X1.207 Y3.55 E24.58525
G1 X1.325 Y3.396 E24.59493
G1 X1.423 Y3.231 E24.6045
G1 X1.501 Y3.053 E24.6142
G1 X1.556 Y2.869 E24.62378
G1 X1.59 Y2.68 E24.63336
G1 X1.6 Y2.506 E24.64206
G1 X1.6 Y0.494 E24.74244
G1 X1.589 Y0.307 E24.75178
G1 X1.553 Y0.117 E24.76143
G1 X1.497 Y-0.067 E24.77103
G1 X1.417 Y-0.244 E24.78072
G1 X1.317 Y-0.409 E24.79034
G1 X1.198 Y-0.561 E24.79997
G1 X1.061 Y-0.698 E24.80964
G1 X0.909 Y-0.817 E24.81927
G1 X0.744 Y-0.917 E24.8289
G1 X0.567 Y-0.997 E24.83859
G1 X0.383 Y-1.053 E24.84818
G1 X0.193 Y-1.089 E24.85783
G1 X0.00 Y-1.1 E24.86747
G1 X-0.193 Y-1.089 E24.87712
G1 X-0.383 Y-1.053 E24.88677
G1 X-0.567 Y-0.997 E24.89636
G1 X-0.744 Y-0.917 E24.90605
G1 X-0.909 Y-0.817 E24.91568
G1 X-1.061 Y-0.698 E24.92531
G1 X-1.198 Y-0.561 E24.93497
G1 X-1.317 Y-0.409 E24.94461
G1 X-1.417 Y-0.244 E24.95423
G1 X-1.497 Y-0.067 E24.96392
G1 X-1.553 Y0.117 E24.97352
G1 X-1.589 Y0.307 E24.98317
G1 X-1.6 Y0.494 E24.99251
G1 X-1.6 Y2.506 E25.09289
G1 X-1.589 Y2.693 E25.10224
G1 X-1.553 Y2.883 E25.11188
G1 X-1.497 Y3.067 E25.12148
G0 F3600 X-1.417 Y3.244
G0 X-1.414 Y3.249
G0 X-1.842 Y3.508
G0 X-6.3 Y4.714
G0 X-6.319 Y4.428
;TYPE:SKIN
G1 F1800 X-6.014 Y4.733 E25.143
G0 F3600 X-5.448 Y4.733
G1 F1800 X-6.319 Y3.862 E25.20445
G1 X-6.389 Y3.792
G0 F3600 X-6.319 Y3.297
G1 F1800 X-4.883 Y4.733 E25.30577
G1 X-4.813 Y4.803
G0 F3600 X-4.317 Y4.733
G1 F1800 X-6.319 Y2.731 E25.44702
G1 X-6.389 Y2.661
G0 F3600 X-6.319 Y2.165
G1 F1800 X-3.751 Y4.733 E25.62821
G1 X-3.681 Y4.803
G0 F3600 X-3.186 Y4.733
G1 F1800 X-6.319 Y1.6 E25.84926
G1 X-6.389 Y1.53
G0 F3600 X-6.319 Y1.034
G1 F1800 X-2.62 Y4.733 E26.11024
G1 X-2.55 Y4.803
G0 F3600 X-2.054 Y4.733
G1 F1800 X-6.319 Y0.468 E26.41116
G1 X-6.389 Y0.398
G0 F3600 X-6.319 Y-0.096
G1 F1800 X-1.489 Y4.733 E26.75191
G1 X-1.419 Y4.803
G0 F3600 X-2.489 Y3.167
G1 F1800 X-6.319 Y-0.662 E27.0221
G1 X-6.389 Y-0.732
G0 F3600 X-6.319 Y-1.228
G1 F1800 X-2.579 Y2.511 E27.28594
G1 X-2.509 Y2.581
G0 F3600 X-2.579 Y1.945
G1 F1800 X-6.319 Y-1.793 E27.54975
G1 X-6.389 Y-1.863
G0 F3600 X-6.319 Y-2.359
G1 F1800 X-2.579 Y1.38 E27.81359
G1 X-2.509 Y1.45
G0 F3600 X-2.579 Y0.814
G1 F1800 X-6.319 Y-2.925 E28.07743
G1 X-6.389 Y-2.995
G0 F3600 X-6.319 Y-3.49
G1 F1800 X-2.567 Y0.26 E28.34209
G1 X-2.497 Y0.33
G0 F3600 X-2.475 Y-0.212
G1 F1800 X-6.319 Y-4.056 E28.6133
G1 X-6.389 Y-4.126
G0 F3600 X-6.319 Y-4.622
G1 F1800 X-2.32 Y-0.623 E28.89545
G1 X-2.25 Y-0.553
G0 F3600 X-2.113 Y-0.982
G1 F1800 X-5.865 Y-4.734 E29.16018
G1 X-5.935 Y-4.804
G0 F3600 X-5.299 Y-4.734
G1 F1800 X-1.855 Y-1.289 E29.4032
G1 X-1.785 Y-1.219
G0 F3600 X-1.556 Y-1.556
G1 F1800 X-4.734 Y-4.734 E29.62743
G1 X-4.804 Y-4.804
G0 F3600 X-4.168 Y-4.734
G1 F1800 X-1.214 Y-1.779 E29.83589
G1 X-1.144 Y-1.709
G0 F3600 X-0.814 Y-1.945
G1 F1800 X-3.602 Y-4.734 E30.03263
G1 X-3.672 Y-4.804
G0 F3600 X-3.037 Y-4.734
G1 F1800 X-0.357 Y-2.054 E30.22172
G1 X-0.287 Y-1.984
G0 F3600 X0.192 Y-2.07
G1 F1800 X-2.471 Y-4.734 E30.40964
G1 X-2.541 Y-4.804
G0 F3600 X-1.905 Y-4.734
G1 F1800 X0.912 Y-1.915 E30.60847
G1 X0.982 Y-1.845
G0 F3600 X2.415 Y-0.412
G1 F1800 X6.319 Y3.49 E30.88384
G1 X6.389 Y3.56
G0 F3600 X6.319 Y2.925
G1 F1800 X-1.339 Y-4.734 E31.42419
G1 X-1.409 Y-4.804
G0 F3600 X-0.774 Y-4.734
G1 F1800 X6.319 Y2.359 E31.92464
G1 X6.389 Y2.429
G0 F3600 X6.319 Y1.793
G1 F1800 X-0.208 Y-4.734 E32.38516
G1 X-0.278 Y-4.804
G0 F3600 X0.357 Y-4.734
G1 F1800 X6.319 Y1.228 E32.80581
G1 X6.389 Y1.298
G0 F3600 X6.319 Y0.662
G1 F1800 X0.922 Y-4.734 E33.18656
G1 X0.852 Y-4.804
G0 F3600 X1.488 Y-4.734
G1 F1800 X6.319 Y0.096 E33.52738
G1 X6.389 Y0.166
G0 F3600 X6.319 Y-0.468
G1 F1800 X2.054 Y-4.734 E33.82833
G1 X1.984 Y-4.804
G0 F3600 X2.619 Y-4.734
G1 F1800 X6.319 Y-1.034 E34.08939
G1 X6.389 Y-0.964
G0 F3600 X6.319 Y-1.6
G1 F1800 X3.185 Y-4.734 E34.31051
G1 X3.115 Y-4.804
G0 F3600 X3.751 Y-4.734
G1 F1800 X6.319 Y-2.165 E34.49173
G1 X6.389 Y-2.095
G0 F3600 X6.319 Y-2.731
G1 F1800 X4.316 Y-4.734 E34.63305
G1 X4.246 Y-4.804
G0 F3600 X4.882 Y-4.734
G1 F1800 X6.319 Y-3.297 E34.73444
G1 X6.389 Y-3.227
G0 F3600 X6.319 Y-3.862
G1 F1800 X5.448 Y-4.734 E34.79593
G1 X5.378 Y-4.804
G0 F3600 X6.013 Y-4.734
G1 F1800 X6.319 Y-4.428 E34.81752
G0 F3600 X2.57 Y0.307
G1 F1800 X6.319 Y4.056 E35.08203
G1 X6.389 Y4.126
G0 F3600 X6.319 Y4.622
G1 F1800 X2.579 Y0.882 E35.34591
G1 X2.509 Y0.812
G0 F3600 X2.579 Y1.448
G1 F1800 X5.866 Y4.734 E35.57779
G1 X5.936 Y4.804
G0 F3600 X5.3 Y4.734
G1 F1800 X2.579 Y2.013 E35.76977
G1 X2.509 Y1.943
G0 F3600 X2.576 Y2.576
G1 F1800 X4.734 Y4.734 E35.92203
G1 X4.804 Y4.804
G0 F3600 X4.169 Y4.734
G1 F1800 X2.514 Y3.08 E36.03876
G1 X2.444 Y3.01
G0 F3600 X2.372 Y3.503
G1 F1800 X3.602 Y4.734 E36.12558
G1 X3.672 Y4.804
G0 F3600 X3.037 Y4.734
G1 F1800 X2.179 Y3.876 E36.18612
G1 X2.109 Y3.806
G0 F3600 X2.205 Y4.468
G1 F1800 X1.777 Y4.606 E36.21394
G0 F3600 X1.65 Y4.478
G0 X2.039 Y2.518
G0 X2.026 Y0.254
G0 X1.807 Y-0.449
G0 X1.353 Y-1.027
G0 X0.722 Y-1.409
G0 X-0.291 Y-1.885
;TIME_ELAPSED:26.759507
;LAYER:1
M106 S255
G0 F5400 X-0.291 Y-1.885 Z0.448
;TYPE:WALL-INNER
G1 F2700 X-0.575 Y-1.831 E36.22115
G1 X-0.849 Y-1.747 E36.2283
G1 X-1.117 Y-1.627 E36.23562
G1 X-1.365 Y-1.477 E36.24285
