;FLAVOR:RepRap
;TIME:1816
;Filament used: 2.04064m
;Layer height: 0.2
;Generated with Cura_SteamEngine 0.0.0-master
M104 S200
M109 S200
;Sliced at: Wed 14-02-2018 20:46:41 
 ;Basic settings: Layer height: 0.2 Walls: 1.2 Fill: {fill_density} 
 ;Print time: 00:30:16 
 ;Filament used: [2.04]m [6.086295390625]g 
 ;Filament cost: [0] 
 ;M190 S60 ;Uncomment to add your own bed temperature line 
 ;M109 S200 ;Uncomment to add your own temperature line 
 G21        ;metric values 
 G90        ;absolute positioning 
 M82        ;set extruder to absolute mode 
 M107       ;start with the fan off 
 G28 X0 Y0  ;move X/Y to min endstops 
 G28 Z0     ;move Z to min endstops 
 G1 Z15.0 F3000 ;move the platform down 15mm 
 G92 E0                  ;zero the extruded length 
 G1 F3000 E3              ;extrude 3mm of feed stock 
 G92 E0                  ;zero the extruded length again 
 G1 F3000 
 ;Put printing message on LCD screen 
 M117 Printing...
;LAYER_COUNT:97
;LAYER:0
M107
G0 F3600 X-31.73 Y-13.599 Z0.299
;TYPE:SKIRT
G1 F1800 X32.178 Y-13.573 E3.18838
G1 X32.702 Y-13.535 E3.21459
G1 X33.143 Y-13.47 E3.23683
G1 X33.666 Y-13.352 E3.26358
G1 X33.956 Y-13.25 E3.27892
G1 X34.563 Y-13.007 E3.31154
G1 X35.045 Y-12.771 E3.33831
G1 X35.389 Y-12.542 E3.35893
G1 X35.901 Y-12.157 E3.39089
G1 X36.304 Y-11.804 E3.41762
G1 X36.57 Y-11.501 E3.43773
G1 X36.98 Y-10.978 E3.47089
G1 X37.279 Y-10.533 E3.49764
G1 X37.461 Y-10.163 E3.51821
G1 X37.708 Y-9.581 E3.54975
G1 X37.88 Y-9.074 E3.57646
G1 X37.974 Y-8.55 E3.60302
G1 X38.08 Y-7.537 E3.65384
G1 X38.1 Y-7.16 E3.67267
G1 X38.091 Y9.993 E4.52844
G1 X38.051 Y10.528 E4.5552
G1 X37.932 Y11.051 E4.58196
G1 X37.736 Y11.55 E4.60871
G1 X37.468 Y12.015 E4.63549
G1 X37.135 Y12.434 E4.66219
G1 X36.742 Y12.8 E4.68898
G1 X36.3 Y13.103 E4.71572
G1 X35.818 Y13.338 E4.74247
G1 X35.306 Y13.498 E4.76923
G1 X34.776 Y13.58 E4.79599
G1 X34.491 Y13.591 E4.81022
G1 X-34.491 Y13.591 E8.25174
G1 X-35.026 Y13.551 E8.27851
G1 X-35.549 Y13.432 E8.30527
G1 X-36.048 Y13.237 E8.332
G1 X-36.513 Y12.969 E8.35877
G1 X-36.933 Y12.636 E8.38551
G1 X-37.299 Y12.244 E8.41227
G1 X-37.602 Y11.802 E8.439
G1 X-37.837 Y11.319 E8.4658
G1 X-37.997 Y10.808 E8.49252
G1 X-38.08 Y10.278 E8.51928
G1 X-38.091 Y9.99 E8.53366
G1 X-38.086 Y-7.548 E9.40863
G1 X-38.053 Y-8.03 E9.43274
G1 X-37.976 Y-8.599 E9.46138
G1 X-37.865 Y-9.123 E9.48811
G1 X-37.75 Y-9.458 E9.50578
G1 X-37.505 Y-10.068 E9.53857
G1 X-37.268 Y-10.549 E9.56532
G1 X-37.042 Y-10.889 E9.58569
G1 X-36.658 Y-11.4 E9.61758
G1 X-36.305 Y-11.803 E9.64431
G1 X-36 Y-12.071 E9.66457
G1 X-35.478 Y-12.48 E9.69765
G1 X-35.033 Y-12.778 E9.72437
G1 X-34.667 Y-12.959 E9.74474
G1 X-34.084 Y-13.207 E9.77635
G1 X-33.576 Y-13.379 E9.80311
G1 X-33.073 Y-13.472 E9.82863
G1 X-32.129 Y-13.577 E9.87601
G1 X-31.73 Y-13.599 E9.89595
G0 F3600 X-31.73 Y-13.199
G1 F1800 X32.178 Y-13.173 E13.08433
G1 X32.644 Y-13.139 E13.10764
G1 X33.085 Y-13.074 E13.12988
G1 X33.807 Y-12.879 E13.1672
G1 X34.414 Y-12.636 E13.19982
G1 X34.867 Y-12.411 E13.22505
G1 X35.148 Y-12.223 E13.24192
G1 X35.66 Y-11.838 E13.27388
G1 X36.039 Y-11.503 E13.29911
G1 X36.255 Y-11.254 E13.31556
G1 X36.665 Y-10.731 E13.34871
G1 X36.945 Y-10.31 E13.37394
G1 X37.093 Y-10.007 E13.39076
G1 X37.34 Y-9.425 E13.4223
G1 X37.5 Y-8.946 E13.4475
G1 X37.577 Y-8.508 E13.46969
G1 X37.683 Y-7.495 E13.5205
G1 X37.7 Y-7.16 E13.53724
G1 X37.691 Y9.993 E14.393
G1 X37.651 Y10.497 E14.41823
G1 X37.532 Y10.988 E14.44343
G1 X37.337 Y11.454 E14.46863
G1 X37.071 Y11.884 E14.49386
G1 X36.74 Y12.267 E14.51911
G1 X36.354 Y12.593 E14.54432
G1 X35.921 Y12.854 E14.56954
G1 X35.452 Y13.043 E14.59477
G1 X34.959 Y13.157 E14.62002
G1 X34.491 Y13.191 E14.64343
G1 X-34.491 Y13.191 E18.08495
G1 X-34.995 Y13.151 E18.11018
G1 X-35.486 Y13.032 E18.13538
G1 X-35.953 Y12.838 E18.16061
G1 X-36.383 Y12.572 E18.18584
G1 X-36.766 Y12.242 E18.21106
G1 X-37.092 Y11.855 E18.2363
G1 X-37.353 Y11.422 E18.26153
G1 X-37.543 Y10.954 E18.28673
G1 X-37.656 Y10.461 E18.31196
G1 X-37.691 Y9.99 E18.33552
G1 X-37.686 Y-7.548 E19.2105
G1 X-37.657 Y-7.976 E19.2319
G1 X-37.58 Y-8.545 E19.26055
G1 X-37.473 Y-9.039 E19.28576
G1 X-37.378 Y-9.309 E19.30004
G1 X-37.133 Y-9.919 E19.33284
G1 X-36.909 Y-10.371 E19.35801
G1 X-36.722 Y-10.648 E19.37468
G1 X-36.338 Y-11.159 E19.40657
G1 X-36.003 Y-11.538 E19.43181
G1 X-35.754 Y-11.756 E19.44832
G1 X-35.232 Y-12.165 E19.4814
G1 X-34.81 Y-12.444 E19.50664
G1 X-34.511 Y-12.591 E19.52326
G1 X-33.928 Y-12.839 E19.55487
G1 X-33.448 Y-12.999 E19.58011
G1 X-33.029 Y-13.074 E19.60135
G1 X-32.085 Y-13.179 E19.64874
G1 X-31.73 Y-13.199 E19.66648
G1 F3600 E11.66648
G0 F3600 X-31.73 Y-10.665
G0 X-31.73 Y-9.38
G0 X-31.931 Y-9
;TYPE:WALL-INNER
G1 F3600 E19.66648
G1 F1800 X31.931 Y-9 E22.85256
G1 X32.387 Y-8.94 E22.87551
G1 X32.747 Y-8.791 E22.89495
G1 X33.055 Y-8.555 E22.91431
G1 X33.291 Y-8.247 E22.93367
G1 X33.44 Y-7.887 E22.9531
G1 X33.5 Y-7.431 E22.97605
G1 X33.5 Y9 E23.7958
G1 X-33.5 Y9 E27.13844
G1 X-33.5 Y-7.431 E27.95819
G1 X-33.44 Y-7.887 E27.98113
G1 X-33.291 Y-8.247 E28.00057
G1 X-33.055 Y-8.555 E28.01993
G1 X-32.747 Y-8.791 E28.03929
G1 X-32.387 Y-8.94 E28.05872
G1 X-31.931 Y-9 E28.08167
G0 F3600 X-31.96 Y-9.4
G1 F1800 X31.96 Y-9.4 E31.27065
G1 X32.491 Y-9.33 E31.29737
G1 X32.948 Y-9.141 E31.32205
G1 X33.34 Y-8.84 E31.3467
G1 X33.641 Y-8.448 E31.37136
G1 X33.83 Y-7.991 E31.39603
G1 X33.9 Y-7.46 E31.42275
G1 X33.9 Y9.4 E32.2639
G1 X-33.9 Y9.4 E35.64646
G1 X-33.9 Y-7.46 E36.48761
G1 X-33.83 Y-7.991 E36.51433
G1 X-33.641 Y-8.448 E36.539
G1 X-33.34 Y-8.84 E36.56366
G1 X-32.948 Y-9.141 E36.58832
G1 X-32.491 Y-9.33 E36.61299
G1 X-31.96 Y-9.4 E36.63971
G0 F3600 X-31.989 Y-9.8
;TYPE:WALL-OUTER
G1 F1800 X31.989 Y-9.8 E39.83158
G1 X32.592 Y-9.721 E39.86193
G1 X33.149 Y-9.49 E39.89201
G1 X33.625 Y-9.125 E39.92194
G1 X33.99 Y-8.649 E39.95186
G1 X34.221 Y-8.092 E39.98194
G1 X34.3 Y-7.489 E40.01229
G1 X34.3 Y9.8 E40.87484
G1 X-34.3 Y9.8 E44.29731
G1 X-34.3 Y-7.489 E45.15986
G1 X-34.221 Y-8.092 E45.1902
G1 X-33.99 Y-8.649 E45.22028
G1 X-33.625 Y-9.125 E45.25021
G1 X-33.149 Y-9.49 E45.28013
G1 X-32.592 Y-9.721 E45.31022
G1 X-31.989 Y-9.8 E45.34056
G0 F3600 X-31.789 Y-9.8
G0 X-31.789 Y-9.3
G0 X-33.3 Y8.8
G0 X-33.319 Y8.541
;TYPE:SKIN
G1 F1800 X-33.04 Y8.819 E45.36021
G0 F3600 X-32.475 Y8.819
G1 F1800 X-33.319 Y7.975 E45.41976
G1 X-33.389 Y7.905
G0 F3600 X-33.319 Y7.409
G1 F1800 X-31.909 Y8.819 E45.51924
G1 X-31.839 Y8.889
G0 F3600 X-31.343 Y8.819
G1 F1800 X-33.319 Y6.844 E45.65862
G1 X-33.389 Y6.774
G0 F3600 X-33.319 Y6.278
G1 F1800 X-30.778 Y8.819 E45.8379
G1 X-30.708 Y8.889
G0 F3600 X-30.212 Y8.819
G1 F1800 X-33.319 Y5.712 E46.05712
G1 X-33.389 Y5.642
G0 F3600 X-33.319 Y5.147
G1 F1800 X-29.646 Y8.819 E46.31623
G1 X-29.576 Y8.889
G0 F3600 X-29.081 Y8.819
G1 F1800 X-33.319 Y4.581 E46.61525
G1 X-33.389 Y4.511
G0 F3600 X-33.319 Y4.015
G1 F1800 X-28.515 Y8.819 E46.9542
G1 X-28.445 Y8.889
G0 F3600 X-27.949 Y8.819
G1 F1800 X-33.319 Y3.449 E47.33308
G1 X-33.389 Y3.379
G0 F3600 X-33.319 Y2.884
G1 F1800 X-27.384 Y8.819 E47.75182
G1 X-27.314 Y8.889
G0 F3600 X-26.818 Y8.819
G1 F1800 X-33.319 Y2.318 E48.2105
G1 X-33.389 Y2.248
G0 F3600 X-33.319 Y1.752
G1 F1800 X-26.252 Y8.819 E48.70912
G1 X-26.182 Y8.889
G0 F3600 X-25.687 Y8.819
G1 F1800 X-33.319 Y1.187 E49.2476
G1 X-33.389 Y1.117
G0 F3600 X-33.319 Y0.621
G1 F1800 X-25.121 Y8.819 E49.82601
G1 X-25.051 Y8.889
G0 F3600 X-24.555 Y8.819
G1 F1800 X-33.319 Y0.055 E50.44436
G1 X-33.389 Y-0.015
G0 F3600 X-33.319 Y-0.509
G1 F1800 X-23.99 Y8.819 E51.10254
G1 X-23.92 Y8.889
G0 F3600 X-23.424 Y8.819
G1 F1800 X-33.319 Y-1.075 E51.80065
G1 X-33.389 Y-1.145
G0 F3600 X-33.319 Y-1.641
G1 F1800 X-22.858 Y8.819 E52.53869
G1 X-22.788 Y8.889
G0 F3600 X-22.292 Y8.819
G1 F1800 X-33.319 Y-2.206 E53.31663
G1 X-33.389 Y-2.276
G0 F3600 X-33.319 Y-2.772
G1 F1800 X-21.727 Y8.819 E54.13448
G1 X-21.657 Y8.889
G0 F3600 X-21.161 Y8.819
G1 F1800 X-33.319 Y-3.338 E54.99225
G1 X-33.389 Y-3.408
G0 F3600 X-33.319 Y-3.903
G1 F1800 X-20.595 Y8.819 E55.88993
G1 X-20.525 Y8.889
G0 F3600 X-20.03 Y8.819
G1 F1800 X-33.319 Y-4.469 E56.82751
G1 X-33.389 Y-4.539
G0 F3600 X-33.319 Y-5.035
G1 F1800 X-19.464 Y8.819 E57.80502
G1 X-19.394 Y8.889
G0 F3600 X-18.898 Y8.819
G1 F1800 X-33.319 Y-5.6 E58.82243
G1 X-33.389 Y-5.67
G0 F3600 X-33.319 Y-6.166
G1 F1800 X-18.333 Y8.819 E59.87973
G1 X-18.263 Y8.889
G0 F3600 X-17.767 Y8.819
G1 F1800 X-33.319 Y-6.732 E60.97698
G1 X-33.389 Y-6.802
G0 F3600 X-33.319 Y-7.298
G1 F1800 X-17.201 Y8.819 E62.11415
G1 X-17.131 Y8.889
G0 F3600 X-16.636 Y8.819
G1 F1800 X-33.267 Y-7.812 E63.28756
G1 X-33.337 Y-7.882
G0 F3600 X-33.095 Y-8.205
G1 F1800 X-16.07 Y8.819 E64.48873
G1 X-16 Y8.889
G0 F3600 X-15.504 Y8.819
G1 F1800 X-32.826 Y-8.501 E65.71082
G1 X-32.896 Y-8.571
G0 F3600 X-32.468 Y-8.71
G1 F1800 X-14.939 Y8.819 E66.94759
G1 X-14.869 Y8.889
G0 F3600 X-14.373 Y8.819
G1 F1800 X-32.002 Y-8.809 E68.19137
G1 X-32.072 Y-8.879
G0 F3600 X-31.447 Y-8.82
G1 F1800 X-13.807 Y8.819 E69.43593
G1 X-13.737 Y8.889
G0 F3600 X-13.241 Y8.819
G1 F1800 X-30.882 Y-8.82 E70.68053
G1 X-30.952 Y-8.89
G0 F3600 X-30.316 Y-8.82
G1 F1800 X-12.676 Y8.819 E71.92509
G1 X-12.606 Y8.889
G0 F3600 X-12.11 Y8.819
G1 F1800 X-29.75 Y-8.82 E73.16965
G1 X-29.82 Y-8.89
G0 F3600 X-29.185 Y-8.82
G1 F1800 X-11.544 Y8.819 E74.41425
G1 X-11.474 Y8.889
G0 F3600 X-10.979 Y8.819
G1 F1800 X-28.619 Y-8.82 E75.65881
G1 X-28.689 Y-8.89
G0 F3600 X-28.053 Y-8.82
G1 F1800 X-10.413 Y8.819 E76.90338
G1 X-10.343 Y8.889
G0 F3600 X-9.847 Y8.819
G1 F1800 X-27.488 Y-8.82 E78.14797
G1 X-27.558 Y-8.89
G0 F3600 X-26.922 Y-8.82
G1 F1800 X-9.282 Y8.819 E79.39253
G1 X-9.212 Y8.889
G0 F3600 X-8.716 Y8.819
G1 F1800 X-26.356 Y-8.82 E80.6371
G1 X-26.426 Y-8.89
G0 F3600 X-25.791 Y-8.82
G1 F1800 X-8.15 Y8.819 E81.88169
G1 X-8.08 Y8.889
G0 F3600 X-7.585 Y8.819
G1 F1800 X-25.225 Y-8.82 E83.12626
G1 X-25.295 Y-8.89
G0 F3600 X-24.659 Y-8.82
G1 F1800 X-7.019 Y8.819 E84.37082
G1 X-6.949 Y8.889
G0 F3600 X-6.453 Y8.819
G1 F1800 X-24.093 Y-8.82 E85.61538
G1 X-24.163 Y-8.89
G0 F3600 X-23.528 Y-8.82
G1 F1800 X-5.888 Y8.819 E86.85994
G1 X-5.818 Y8.889
G0 F3600 X-5.322 Y8.819
G1 F1800 X-22.962 Y-8.82 E88.1045
G1 X-23.032 Y-8.89
G0 F3600 X-22.396 Y-8.82
G1 F1800 X-4.756 Y8.819 E89.34907
G1 X-4.686 Y8.889
G0 F3600 X-4.191 Y8.819
G1 F1800 X-21.831 Y-8.82 E90.59363
G1 X-21.901 Y-8.89
G0 F3600 X-21.265 Y-8.82
G1 F1800 X-3.625 Y8.819 E91.83819
G1 X-3.555 Y8.889
G0 F3600 X-3.059 Y8.819
G1 F1800 X-20.699 Y-8.82 E93.08275
G1 X-20.769 Y-8.89
G0 F3600 X-20.134 Y-8.82
G1 F1800 X-2.493 Y8.819 E94.32735
G1 X-2.423 Y8.889
G0 F3600 X-1.928 Y8.819
G1 F1800 X-19.568 Y-8.82 E95.57191
G1 X-19.638 Y-8.89
G0 F3600 X-19.002 Y-8.82
G1 F1800 X-1.362 Y8.819 E96.81647
G1 X-1.292 Y8.889
G0 F3600 X-0.796 Y8.819
G1 F1800 X-18.437 Y-8.82 E98.06107
G1 X-18.507 Y-8.89
G0 F3600 X-17.871 Y-8.82
G1 F1800 X-0.231 Y8.819 E99.30563
G1 X-0.161 Y8.889
G0 F3600 X0.334 Y8.819
G1 F1800 X-17.305 Y-8.82 E100.55016
G1 X-17.375 Y-8.89
G0 F3600 X-16.74 Y-8.82
G1 F1800 X0.9 Y8.819 E101.79472
G1 X0.97 Y8.889
G0 F3600 X1.465 Y8.819
G1 F1800 X-16.174 Y-8.82 E103.03925
G1 X-16.244 Y-8.89
G0 F3600 X-15.608 Y-8.82
G1 F1800 X2.031 Y8.819 E104.28377
G1 X2.101 Y8.889
G0 F3600 X2.597 Y8.819
G1 F1800 X-15.042 Y-8.82 E105.5283
G1 X-15.112 Y-8.89
G0 F3600 X-14.477 Y-8.82
G1 F1800 X3.162 Y8.819 E106.77283
G1 X3.232 Y8.889
G0 F3600 X3.728 Y8.819
G1 F1800 X-13.911 Y-8.82 E108.01736
G1 X-13.981 Y-8.89
G0 F3600 X-13.345 Y-8.82
G1 F1800 X4.294 Y8.819 E109.26188
G1 X4.364 Y8.889
G0 F3600 X4.859 Y8.819
G1 F1800 X-12.78 Y-8.82 E110.50641
G1 X-12.85 Y-8.89
G0 F3600 X-12.214 Y-8.82
G1 F1800 X5.425 Y8.819 E111.75094
G1 X5.495 Y8.889
G0 F3600 X5.991 Y8.819
G1 F1800 X-11.648 Y-8.82 E112.99546
G1 X-11.718 Y-8.89
G0 F3600 X-11.083 Y-8.82
G1 F1800 X6.557 Y8.819 E114.24002
G1 X6.627 Y8.889
G0 F3600 X7.122 Y8.819
G1 F1800 X-10.517 Y-8.82 E115.48455
G1 X-10.587 Y-8.89
G0 F3600 X-9.951 Y-8.82
G1 F1800 X7.688 Y8.819 E116.72908
G1 X7.758 Y8.889
G0 F3600 X8.254 Y8.819
G1 F1800 X-9.386 Y-8.82 E117.97364
G1 X-9.456 Y-8.89
G0 F3600 X-8.82 Y-8.82
G1 F1800 X8.819 Y8.819 E119.21817
G1 X8.889 Y8.889
G0 F3600 X9.385 Y8.819
G1 F1800 X-8.254 Y-8.82 E120.46269
G1 X-8.324 Y-8.89
G0 F3600 X-7.689 Y-8.82
G1 F1800 X9.951 Y8.819 E121.70725
G1 X10.021 Y8.889
G0 F3600 X10.516 Y8.819
G1 F1800 X-7.123 Y-8.82 E122.95178
G1 X-7.193 Y-8.89
G0 F3600 X-6.557 Y-8.82
G1 F1800 X11.082 Y8.819 E124.19631
G1 X11.152 Y8.889
G0 F3600 X11.648 Y8.819
G1 F1800 X-5.992 Y-8.82 E125.44087
G1 X-6.062 Y-8.89
G0 F3600 X-5.426 Y-8.82
G1 F1800 X12.213 Y8.819 E126.6854
G1 X12.283 Y8.889
G0 F3600 X12.779 Y8.819
G1 F1800 X-4.86 Y-8.82 E127.92992
G1 X-4.93 Y-8.89
G0 F3600 X-4.294 Y-8.82
G1 F1800 X13.345 Y8.819 E129.17445
G1 X13.415 Y8.889
G0 F3600 X13.91 Y8.819
G1 F1800 X-3.729 Y-8.82 E130.41898
G1 X-3.799 Y-8.89
G0 F3600 X-3.163 Y-8.82
G1 F1800 X14.476 Y8.819 E131.6635
G1 X14.546 Y8.889
G0 F3600 X15.042 Y8.819
G1 F1800 X-2.597 Y-8.82 E132.90803
G1 X-2.667 Y-8.89
G0 F3600 X-2.032 Y-8.82
G1 F1800 X15.607 Y8.819 E134.15256
G1 X15.677 Y8.889
G0 F3600 X16.173 Y8.819
G1 F1800 X-1.466 Y-8.82 E135.39708
G1 X-1.536 Y-8.89
G0 F3600 X-0.9 Y-8.82
G1 F1800 X16.739 Y8.819 E136.64161
G1 X16.809 Y8.889
G0 F3600 X17.305 Y8.819
G1 F1800 X-0.335 Y-8.82 E137.88617
G1 X-0.405 Y-8.89
G0 F3600 X0.23 Y-8.82
G1 F1800 X17.87 Y8.819 E139.13073
G1 X17.94 Y8.889
G0 F3600 X18.436 Y8.819
G1 F1800 X0.796 Y-8.82 E140.3753
G1 X0.726 Y-8.89
G0 F3600 X1.361 Y-8.82
G1 F1800 X19.002 Y8.819 E141.61989
G1 X19.072 Y8.889
G0 F3600 X19.567 Y8.819
G1 F1800 X1.927 Y-8.82 E142.86446
G1 X1.857 Y-8.89
G0 F3600 X2.493 Y-8.82
G1 F1800 X20.133 Y8.819 E144.10902
G1 X20.203 Y8.889
G0 F3600 X20.699 Y8.819
G1 F1800 X3.058 Y-8.82 E145.35362
G1 X2.988 Y-8.89
G0 F3600 X3.624 Y-8.82
G1 F1800 X21.264 Y8.819 E146.59818
G1 X21.334 Y8.889
G0 F3600 X21.83 Y8.819
G1 F1800 X4.19 Y-8.82 E147.84274
G1 X4.12 Y-8.89
G0 F3600 X4.756 Y-8.82
G1 F1800 X22.396 Y8.819 E149.0873
G1 X22.466 Y8.889
G0 F3600 X22.961 Y8.819
G1 F1800 X5.321 Y-8.82 E150.33186
G1 X5.251 Y-8.89
G0 F3600 X5.887 Y-8.82
G1 F1800 X23.527 Y8.819 E151.57643
G1 X23.597 Y8.889
G0 F3600 X24.093 Y8.819
G1 F1800 X6.453 Y-8.82 E152.82099
G1 X6.383 Y-8.89
G0 F3600 X7.018 Y-8.82
G1 F1800 X24.658 Y8.819 E154.06555
G1 X24.728 Y8.889
G0 F3600 X25.224 Y8.819
G1 F1800 X7.584 Y-8.82 E155.31011
G1 X7.514 Y-8.89
G0 F3600 X8.15 Y-8.82
G1 F1800 X25.79 Y8.819 E156.55467
G1 X25.86 Y8.889
G0 F3600 X26.355 Y8.819
G1 F1800 X8.715 Y-8.82 E157.79924
G1 X8.645 Y-8.89
G0 F3600 X9.281 Y-8.82
G1 F1800 X26.921 Y8.819 E159.0438
G1 X26.991 Y8.889
G0 F3600 X27.487 Y8.819
G1 F1800 X9.847 Y-8.82 E160.28836
G1 X9.777 Y-8.89
G0 F3600 X10.412 Y-8.82
G1 F1800 X28.053 Y8.819 E161.53296
G1 X28.123 Y8.889
G0 F3600 X28.618 Y8.819
G1 F1800 X10.978 Y-8.82 E162.77752
G1 X10.908 Y-8.89
G0 F3600 X11.544 Y-8.82
G1 F1800 X29.184 Y8.819 E164.02208
G1 X29.254 Y8.889
G0 F3600 X29.75 Y8.819
G1 F1800 X12.109 Y-8.82 E165.26668
G1 X12.039 Y-8.89
G0 F3600 X12.675 Y-8.82
G1 F1800 X30.315 Y8.819 E166.51124
G1 X30.385 Y8.889
G0 F3600 X30.881 Y8.819
G1 F1800 X13.241 Y-8.82 E167.7558
G1 X13.171 Y-8.89
G0 F3600 X13.806 Y-8.82
G1 F1800 X31.447 Y8.819 E169.0004
G1 X31.517 Y8.889
G0 F3600 X32.012 Y8.819
G1 F1800 X14.372 Y-8.82 E170.24496
G1 X14.302 Y-8.89
G0 F3600 X14.938 Y-8.82
G1 F1800 X32.578 Y8.819 E171.48952
G1 X32.648 Y8.889
G0 F3600 X33.144 Y8.819
G1 F1800 X15.504 Y-8.82 E172.73409
G1 X15.434 Y-8.89
G0 F3600 X16.069 Y-8.82
G1 F1800 X33.319 Y8.429 E173.95113
G1 X33.389 Y8.499
G0 F3600 X33.319 Y7.863
G1 F1800 X16.635 Y-8.82 E175.12824
G1 X16.565 Y-8.89
G0 F3600 X17.201 Y-8.82
G1 F1800 X33.319 Y7.298 E176.26545
G1 X33.389 Y7.368
G0 F3600 X33.319 Y6.732
G1 F1800 X17.766 Y-8.82 E177.36277
G1 X17.696 Y-8.89
G0 F3600 X18.332 Y-8.82
G1 F1800 X33.319 Y6.166 E178.42014
G1 X33.389 Y6.236
G0 F3600 X33.319 Y5.6
G1 F1800 X18.898 Y-8.82 E179.43759
G1 X18.828 Y-8.89
G0 F3600 X19.463 Y-8.82
G1 F1800 X33.319 Y5.035 E180.41517
G1 X33.389 Y5.105
G0 F3600 X33.319 Y4.469
G1 F1800 X20.029 Y-8.82 E181.35282
G1 X19.959 Y-8.89
G0 F3600 X20.595 Y-8.82
G1 F1800 X33.319 Y3.903 E182.25053
G1 X33.389 Y3.973
G0 F3600 X33.319 Y3.338
G1 F1800 X21.16 Y-8.82 E183.10837
