;FLAVOR:RepRap
;TIME:2593
;Filament used: 2.65425m
;Layer height: 0.2
;Generated with Cura_SteamEngine 0.0.0-master
M104 S200
M109 S200
;Sliced at: Thu 01-02-2018 13:52:47 
 ;Basic settings: Layer height: 0.2 Walls: 1.2 Fill: {fill_density} 
 ;Print time: 00:43:13 
 ;Filament used: [2.65]m [7.9164300390625]g 
 ;Filament cost: [0] 
 ;M190 S60 ;Uncomment to add your own bed temperature line 
 ;M109 S200 ;Uncomment to add your own temperature line 
 G21        ;metric values 
 G90        ;absolute positioning 
 M82        ;set extruder to absolute mode 
 M107       ;start with the fan off 
 G28 X0 Y0  ;move X/Y to min endstops 
 G28 Z0     ;move Z to min endstops 
 G1 Z15.0 F3000 ;move the platform down 15mm 
 G92 E0                  ;zero the extruded length 
 G1 F3000 E3              ;extrude 3mm of feed stock 
 G92 E0                  ;zero the extruded length again 
 G1 F3000 
 ;Put printing message on LCD screen 
 M117 Printing...
;LAYER_COUNT:120
;LAYER:0
M107
G0 F3600 X-16 Y-9.709 Z0.299
;TYPE:SKIRT
G1 F1800 X-15.994 Y-9.933 E0.01118
G1 X-15.898 Y-11.705 E0.09971
G1 X-15.783 Y-12.466 E0.13811
G1 X-15.54 Y-13.431 E0.18776
G1 X-15.328 Y-14.051 E0.22045
G1 X-14.947 Y-14.926 E0.26806
G1 X-14.686 Y-15.427 E0.29625
G1 X-14.501 Y-15.701 E0.31274
G1 X-13.495 Y-17.067 E0.39738
G1 X-13.005 Y-17.618 E0.43416
G1 X-12.655 Y-17.945 E0.45806
G1 X-12.142 Y-18.351 E0.4907
G1 X-10.866 Y-19.201 E0.56719
G1 X-10.374 Y-19.48 E0.59541
G1 X-9.985 Y-19.642 E0.61643
G1 X-8.682 Y-20.104 E0.6854
G1 X-8.137 Y-20.255 E0.71362
G1 X-7.771 Y-20.311 E0.73209
G1 X-6.26 Y-20.473 E0.80791
G1 X-5.831 Y-20.496 E0.82934
G1 X6.187 Y-20.487 E1.42892
G1 X6.826 Y-20.435 E1.46091
G1 X8.369 Y-20.184 E1.5389
G1 X8.919 Y-20.054 E1.56709
G1 X9.388 Y-19.875 E1.59214
G1 X10.834 Y-19.215 E1.67144
G1 X11.33 Y-18.944 E1.69964
G1 X11.7 Y-18.677 E1.7224
G1 X12.884 Y-17.712 E1.79861
G1 X13.296 Y-17.324 E1.82684
G1 X13.608 Y-16.942 E1.85145
G1 X14.545 Y-15.635 E1.93168
G1 X14.841 Y-15.153 E1.9599
G1 X15.045 Y-14.692 E1.98505
G1 X15.585 Y-13.233 E2.06267
G1 X15.792 Y-12.425 E2.10428
G1 X15.934 Y-11.456 E2.15314
G1 X15.976 Y-10.875 E2.1822
G1 X15.971 Y10.926 E3.26986
G1 X15.913 Y11.601 E3.30366
G1 X15.713 Y12.767 E3.36268
G1 X15.49 Y13.563 E3.40392
G1 X15.002 Y14.796 E3.47008
G1 X14.758 Y15.306 E3.49828
G1 X14.505 Y15.695 E3.52143
G1 X13.496 Y17.066 E3.60636
G1 X13.005 Y17.618 E3.64322
G1 X12.655 Y17.945 E3.66712
G1 X12.197 Y18.313 E3.69643
G1 X11.088 Y19.079 E3.76367
G1 X10.602 Y19.367 E3.79185
G1 X10.208 Y19.538 E3.81328
G1 X8.738 Y20.084 E3.89152
G1 X8.195 Y20.243 E3.91974
G1 X7.771 Y20.311 E3.94117
G1 X6.26 Y20.473 E4.01698
G1 X5.826 Y20.496 E4.03867
G1 X-6.43 Y20.472 E4.65012
G1 X-7.002 Y20.43 E4.67874
G1 X-7.923 Y20.295 E4.72518
G1 X-8.522 Y20.159 E4.75582
G1 X-9.323 Y19.912 E4.79764
G1 X-9.859 Y19.704 E4.82632
G1 X-10.706 Y19.302 E4.8731
G1 X-11.422 Y18.865 E4.91495
G1 X-12.674 Y17.907 E4.9936
G1 X-13.097 Y17.532 E5.0218
G1 X-13.327 Y17.277 E5.03893
G1 X-13.981 Y16.485 E5.09018
G1 X-14.325 Y15.999 E5.11988
G1 X-14.8 Y15.209 E5.16587
G1 X-15.087 Y14.631 E5.19807
G1 X-15.439 Y13.749 E5.24545
G1 X-15.645 Y13.059 E5.28137
G1 X-15.879 Y11.902 E5.34026
G1 X-15.958 Y11.117 E5.37963
G1 X-16 Y-9.709 E6.41864
G0 F3600 X-15.6 Y-9.71
G1 F1800 X-15.595 Y-9.912 E6.42872
G1 X-15.499 Y-11.684 E6.51726
G1 X-15.395 Y-12.368 E6.55177
G1 X-15.152 Y-13.333 E6.60142
G1 X-14.962 Y-13.891 E6.63083
G1 X-14.581 Y-14.766 E6.67844
G1 X-14.331 Y-15.241 E6.70522
G1 X-14.179 Y-15.464 E6.71869
G1 X-13.173 Y-16.83 E6.80332
G1 X-12.732 Y-17.326 E6.83643
G1 X-12.382 Y-17.653 E6.86033
G1 X-11.92 Y-18.018 E6.88971
G1 X-10.644 Y-18.868 E6.9662
G1 X-10.177 Y-19.131 E6.99294
G1 X-9.851 Y-19.265 E7.01052
G1 X-8.548 Y-19.727 E7.07949
G1 X-8.031 Y-19.868 E7.10623
G1 X-7.729 Y-19.913 E7.12146
G1 X-6.218 Y-20.075 E7.19728
G1 X-5.831 Y-20.096 E7.21661
G1 X6.187 Y-20.087 E7.81619
G1 X6.762 Y-20.04 E7.84498
G1 X8.305 Y-19.789 E7.92297
G1 X8.826 Y-19.664 E7.9497
G1 X9.222 Y-19.511 E7.97088
G1 X10.668 Y-18.851 E8.05018
G1 X11.138 Y-18.593 E8.07693
G1 X11.447 Y-18.367 E8.09603
G1 X12.631 Y-17.402 E8.17223
G1 X13.021 Y-17.033 E8.19902
G1 X13.283 Y-16.709 E8.21981
G1 X14.22 Y-15.402 E8.30004
G1 X14.499 Y-14.944 E8.32679
G1 X14.67 Y-14.554 E8.34804
G1 X15.21 Y-13.095 E8.42566
G1 X15.396 Y-12.367 E8.46314
G1 X15.538 Y-11.398 E8.512
G1 X15.576 Y-10.875 E8.53816
G1 X15.571 Y10.926 E9.62582
G1 X15.519 Y11.534 E9.65626
G1 X15.319 Y12.7 E9.71529
G1 X15.118 Y13.416 E9.75239
G1 X14.63 Y14.649 E9.81855
G1 X14.396 Y15.131 E9.84528
G1 X14.182 Y15.458 E9.86477
G1 X13.173 Y16.829 E9.9497
G1 X12.732 Y17.326 E9.98285
G1 X12.382 Y17.653 E10.00675
G1 X11.97 Y17.984 E10.03311
G1 X10.861 Y18.75 E10.10036
G1 X10.398 Y19.021 E10.12712
G1 X10.068 Y19.163 E10.14504
G1 X8.598 Y19.709 E10.22328
G1 X8.083 Y19.857 E10.25001
G1 X7.729 Y19.913 E10.26789
G1 X6.218 Y20.075 E10.34371
G1 X5.827 Y20.096 E10.36324
G1 X-6.429 Y20.072 E10.9747
G1 X-6.944 Y20.034 E11.00046
G1 X-7.865 Y19.899 E11.0469
G1 X-8.404 Y19.777 E11.07447
G1 X-9.205 Y19.53 E11.11629
G1 X-9.688 Y19.342 E11.14215
G1 X-10.535 Y18.94 E11.18893
G1 X-11.179 Y18.547 E11.22656
G1 X-12.431 Y17.589 E11.30522
G1 X-12.831 Y17.232 E11.33196
G1 X-13.019 Y17.022 E11.34603
G1 X-13.673 Y16.23 E11.39727
G1 X-13.982 Y15.793 E11.42397
G1 X-14.457 Y15.003 E11.46996
G1 X-14.716 Y14.482 E11.49899
G1 X-15.068 Y13.6 E11.54637
G1 X-15.253 Y12.98 E11.57864
G1 X-15.487 Y11.823 E11.63754
G1 X-15.558 Y11.116 E11.67299
G1 X-15.6 Y-9.71 E12.712
G0 F3600 X-15.2 Y-9.711
G1 F1800 X-15.195 Y-9.89 E12.72094
G1 X-15.099 Y-11.662 E12.80947
G1 X-15.007 Y-12.27 E12.84015
G1 X-14.764 Y-13.235 E12.8898
G1 X-14.595 Y-13.732 E12.91599
G1 X-14.214 Y-14.607 E12.9636
G1 X-13.857 Y-15.227 E12.99929
G1 X-12.851 Y-16.593 E13.08393
G1 X-12.459 Y-17.033 E13.11333
G1 X-12.109 Y-17.36 E13.13723
G1 X-11.698 Y-17.685 E13.16337
G1 X-10.422 Y-18.535 E13.23986
G1 X-9.98 Y-18.781 E13.26509
G1 X-9.717 Y-18.888 E13.27926
G1 X-8.414 Y-19.35 E13.34823
G1 X-7.686 Y-19.516 E13.38548
G1 X-6.175 Y-19.678 E13.4613
G1 X-5.832 Y-19.696 E13.47844
G1 X6.186 Y-19.687 E14.07802
G1 X6.698 Y-19.645 E14.10365
G1 X8.241 Y-19.394 E14.18164
G1 X8.732 Y-19.274 E14.20686
G1 X9.056 Y-19.147 E14.22422
G1 X10.502 Y-18.487 E14.30352
G1 X10.944 Y-18.242 E14.32873
G1 X11.195 Y-18.056 E14.34432
G1 X12.379 Y-17.091 E14.42052
G1 X12.744 Y-16.742 E14.44572
G1 X12.958 Y-16.475 E14.46279
G1 X13.895 Y-15.168 E14.54302
G1 X14.156 Y-14.736 E14.5682
G1 X14.295 Y-14.415 E14.58565
G1 X14.835 Y-12.956 E14.66327
G1 X15 Y-12.309 E14.69658
G1 X15.142 Y-11.34 E14.74544
G1 X15.176 Y-10.875 E14.7687
G1 X15.171 Y10.926 E15.85636
G1 X15.125 Y11.466 E15.88339
G1 X14.925 Y12.632 E15.94242
G1 X14.746 Y13.269 E15.97543
G1 X14.258 Y14.502 E16.04158
G1 X14.036 Y14.956 E16.0668
G1 X13.86 Y15.221 E16.08267
G1 X12.851 Y16.592 E16.1676
G1 X12.459 Y17.033 E16.19703
G1 X12.109 Y17.36 E16.22093
G1 X11.743 Y17.655 E16.24438
G1 X10.634 Y18.421 E16.31163
G1 X10.196 Y18.675 E16.33689
G1 X9.929 Y18.788 E16.35135
G1 X8.459 Y19.334 E16.42958
G1 X7.973 Y19.472 E16.45479
G1 X7.686 Y19.516 E16.46928
G1 X6.175 Y19.678 E16.54509
G1 X5.828 Y19.696 E16.56243
G1 X-6.428 Y19.672 E17.17388
G1 X-6.886 Y19.638 E17.19679
G1 X-7.807 Y19.503 E17.24323
G1 X-8.286 Y19.395 E17.26773
G1 X-9.087 Y19.148 E17.30955
G1 X-9.516 Y18.981 E17.33252
G1 X-10.363 Y18.579 E17.37929
G1 X-10.936 Y18.229 E17.41279
G1 X-12.188 Y17.271 E17.49144
G1 X-12.71 Y16.768 E17.52761
G1 X-13.364 Y15.976 E17.57885
G1 X-13.639 Y15.587 E17.60262
G1 X-14.114 Y14.797 E17.64861
G1 X-14.344 Y14.334 E17.6744
G1 X-14.696 Y13.452 E17.72178
G1 X-14.86 Y12.9 E17.75051
G1 X-15.094 Y11.743 E17.8094
G1 X-15.158 Y11.115 E17.84089
G1 X-15.2 Y-9.711 E18.87991
G1 F3600 E10.87991
G0 F3600 X-12.665 Y-9.711
G0 X-11.38 Y-9.711
G0 X-11 Y-10.379
;TYPE:WALL-INNER
G1 F3600 E18.87991
G1 F1800 X-10.973 Y-10.998 E18.91082
G1 X-10.902 Y-11.482 E18.93522
G1 X-10.782 Y-11.961 E18.95986
G1 X-10.624 Y-12.4 E18.98314
G1 X-10.406 Y-12.86 E19.00853
G1 X-10.16 Y-13.271 E19.03243
G1 X-9.861 Y-13.676 E19.05755
G1 X-9.536 Y-14.036 E19.08174
G1 X-9.17 Y-14.366 E19.10633
G1 X-8.781 Y-14.654 E19.13048
G1 X-8.36 Y-14.906 E19.15496
G1 X-7.9 Y-15.124 E19.18035
G1 X-7.461 Y-15.282 E19.20363
G1 X-6.982 Y-15.401 E19.22825
G1 X-6.497 Y-15.473 E19.25271
G1 X-5.95 Y-15.5 E19.28004
G1 X5.95 Y-15.5 E19.87373
G1 X6.497 Y-15.473 E19.90105
G1 X6.982 Y-15.401 E19.92552
G1 X7.461 Y-15.282 E19.95014
G1 X7.9 Y-15.124 E19.97342
G1 X8.36 Y-14.906 E19.99881
G1 X8.781 Y-14.654 E20.02329
G1 X9.17 Y-14.366 E20.04744
G1 X9.536 Y-14.036 E20.07203
G1 X9.861 Y-13.676 E20.09622
G1 X10.16 Y-13.271 E20.12134
G1 X10.406 Y-12.86 E20.14523
G1 X10.624 Y-12.4 E20.17063
G1 X10.782 Y-11.961 E20.19391
G1 X10.902 Y-11.482 E20.21854
G1 X10.973 Y-10.997 E20.243
G1 X11 Y-10.376 E20.27401
G1 X11 Y10.447 E21.31287
G1 X10.975 Y10.987 E21.33984
G1 X10.906 Y11.461 E21.36374
G1 X10.778 Y11.97 E21.38993
G1 X10.624 Y12.401 E21.41276
G1 X10.406 Y12.86 E21.43811
G1 X10.16 Y13.271 E21.46201
G1 X9.861 Y13.676 E21.48712
G1 X9.536 Y14.036 E21.51132
G1 X9.17 Y14.366 E21.53591
G1 X8.781 Y14.654 E21.56005
G1 X8.36 Y14.906 E21.58453
G1 X7.9 Y15.124 E21.60993
G1 X7.461 Y15.282 E21.63321
G1 X6.982 Y15.401 E21.65783
G1 X6.497 Y15.473 E21.68229
G1 X5.95 Y15.5 E21.70961
G1 X-5.99 Y15.5 E22.3053
G1 X-6.471 Y15.475 E22.32933
G1 X-6.99 Y15.399 E22.3555
G1 X-7.459 Y15.283 E22.37961
G1 X-7.9 Y15.124 E22.40299
G1 X-8.36 Y14.906 E22.42839
G1 X-8.781 Y14.654 E22.45287
G1 X-9.17 Y14.366 E22.47702
G1 X-9.536 Y14.036 E22.5016
G1 X-9.861 Y13.676 E22.5258
G1 X-10.16 Y13.271 E22.55091
G1 X-10.406 Y12.86 E22.57481
G1 X-10.624 Y12.4 E22.60021
G1 X-10.784 Y11.953 E22.62389
G1 X-10.9 Y11.486 E22.6479
G1 X-10.973 Y10.995 E22.67267
G1 X-11 Y10.405 E22.70213
G1 X-11 Y-10.379 E23.73905
G0 F3600 X-11.4 Y-10.397
G1 F1800 X-11.372 Y-11.034 E23.77086
G1 X-11.295 Y-11.557 E23.79724
G1 X-11.166 Y-12.073 E23.82377
G1 X-10.99 Y-12.562 E23.8497
G1 X-10.761 Y-13.047 E23.87646
G1 X-10.492 Y-13.496 E23.90257
G1 X-10.173 Y-13.927 E23.92932
G1 X-9.819 Y-14.319 E23.95567
G1 X-9.427 Y-14.673 E23.98202
G1 X-8.999 Y-14.99 E24.0086
G1 X-8.547 Y-15.261 E24.03489
G1 X-8.062 Y-15.49 E24.06165
G1 X-7.573 Y-15.666 E24.08758
G1 X-7.057 Y-15.795 E24.11411
G1 X-6.533 Y-15.872 E24.14054
G1 X-5.97 Y-15.9 E24.16866
G1 X5.97 Y-15.9 E24.76435
G1 X6.533 Y-15.872 E24.79247
G1 X7.057 Y-15.795 E24.81889
G1 X7.573 Y-15.666 E24.84543
G1 X8.062 Y-15.49 E24.87136
G1 X8.547 Y-15.261 E24.89812
G1 X8.999 Y-14.99 E24.92441
G1 X9.427 Y-14.673 E24.95098
G1 X9.819 Y-14.319 E24.97733
G1 X10.173 Y-13.927 E25.00368
G1 X10.492 Y-13.496 E25.03043
G1 X10.761 Y-13.047 E25.05655
G1 X10.99 Y-12.562 E25.08331
G1 X11.166 Y-12.073 E25.10923
G1 X11.295 Y-11.557 E25.13577
G1 X11.372 Y-11.034 E25.16214
G1 X11.4 Y-10.393 E25.19415
G1 X11.4 Y10.466 E26.23481
G1 X11.374 Y11.023 E26.26263
G1 X11.298 Y11.544 E26.2889
G1 X11.163 Y12.08 E26.31648
G1 X10.99 Y12.562 E26.34203
G1 X10.761 Y13.047 E26.36878
G1 X10.492 Y13.496 E26.3949
G1 X10.173 Y13.927 E26.42165
G1 X9.819 Y14.319 E26.448
G1 X9.427 Y14.673 E26.47435
G1 X8.999 Y14.99 E26.50092
G1 X8.547 Y15.261 E26.52722
G1 X8.062 Y15.49 E26.55398
G1 X7.573 Y15.666 E26.5799
G1 X7.057 Y15.795 E26.60644
G1 X6.533 Y15.872 E26.63286
G1 X5.97 Y15.9 E26.66099
G1 X-5.99 Y15.9 E27.25767
G1 X-6.518 Y15.873 E27.28405
G1 X-7.062 Y15.793 E27.31148
G1 X-7.573 Y15.666 E27.33775
G1 X-8.062 Y15.49 E27.36368
G1 X-8.547 Y15.261 E27.39044
G1 X-8.999 Y14.99 E27.41673
G1 X-9.427 Y14.673 E27.4433
G1 X-9.819 Y14.319 E27.46965
G1 X-10.173 Y13.927 E27.496
G1 X-10.492 Y13.496 E27.52276
G1 X-10.761 Y13.047 E27.54887
G1 X-10.99 Y12.562 E27.57563
G1 X-11.168 Y12.067 E27.60187
G1 X-11.294 Y11.557 E27.62808
G1 X-11.372 Y11.033 E27.65451
G1 X-11.4 Y10.423 E27.68498
G1 X-11.4 Y-10.397 E28.72369
G0 F3600 X-11.8 Y-10.415
;TYPE:WALL-OUTER
G1 F1800 X-11.771 Y-11.07 E28.7564
G1 X-11.688 Y-11.632 E28.78474
G1 X-11.55 Y-12.185 E28.81318
G1 X-11.358 Y-12.719 E28.84149
G1 X-11.114 Y-13.237 E28.87006
G1 X-10.828 Y-13.714 E28.8978
G1 X-10.48 Y-14.184 E28.92698
G1 X-10.102 Y-14.602 E28.9551
G1 X-9.684 Y-14.98 E28.98321
G1 X-9.217 Y-15.326 E29.01221
G1 X-8.737 Y-15.614 E29.04014
G1 X-8.219 Y-15.858 E29.0687
G1 X-7.685 Y-16.05 E29.09701
G1 X-7.132 Y-16.188 E29.12545
G1 X-6.57 Y-16.271 E29.15379
G1 X-5.99 Y-16.3 E29.18276
G1 X5.99 Y-16.3 E29.78045
G1 X6.57 Y-16.271 E29.80942
G1 X7.132 Y-16.188 E29.83776
G1 X7.685 Y-16.05 E29.8662
G1 X8.219 Y-15.858 E29.89451
G1 X8.737 Y-15.614 E29.92308
G1 X9.217 Y-15.326 E29.951
G1 X9.684 Y-14.98 E29.98
G1 X10.102 Y-14.602 E30.00812
G1 X10.48 Y-14.184 E30.03623
G1 X10.828 Y-13.714 E30.06541
G1 X11.114 Y-13.237 E30.09316
G1 X11.358 Y-12.719 E30.12172
G1 X11.55 Y-12.185 E30.15004
G1 X11.688 Y-11.632 E30.17847
G1 X11.771 Y-11.07 E30.20681
G1 X11.8 Y-10.411 E30.23972
G1 X11.8 Y10.485 E31.28223
G1 X11.773 Y11.059 E31.3109
G1 X11.691 Y11.622 E31.33928
G1 X11.548 Y12.19 E31.3685
G1 X11.358 Y12.719 E31.39655
G1 X11.114 Y13.237 E31.42511
G1 X10.828 Y13.714 E31.45286
G1 X10.48 Y14.184 E31.48204
G1 X10.102 Y14.602 E31.51015
G1 X9.684 Y14.98 E31.53827
G1 X9.217 Y15.326 E31.56727
G1 X8.737 Y15.614 E31.59519
G1 X8.219 Y15.858 E31.62376
G1 X7.685 Y16.05 E31.65207
G1 X7.132 Y16.188 E31.68051
G1 X6.57 Y16.271 E31.70885
G1 X5.99 Y16.3 E31.73782
G1 X-5.99 Y16.3 E32.33551
G1 X-6.565 Y16.271 E32.36423
G1 X-7.137 Y16.187 E32.39307
G1 X-7.685 Y16.05 E32.42125
G1 X-8.219 Y15.858 E32.44956
G1 X-8.737 Y15.614 E32.47813
G1 X-9.217 Y15.326 E32.50606
G1 X-9.684 Y14.98 E32.53506
G1 X-10.102 Y14.602 E32.56317
G1 X-10.48 Y14.184 E32.59129
G1 X-10.828 Y13.714 E32.62046
G1 X-11.114 Y13.237 E32.64821
G1 X-11.358 Y12.719 E32.67678
G1 X-11.552 Y12.179 E32.70541
G1 X-11.688 Y11.632 E32.73353
G1 X-11.771 Y11.07 E32.76187
G1 X-11.8 Y10.441 E32.79328
G1 X-11.8 Y-10.415 E33.83379
G0 F3600 X-11.792 Y-10.615
G0 X-11.292 Y-10.593
G0 X9.402 Y-13.887
G0 X9.973 Y-13.22
;TYPE:SKIN
G1 F1800 X8.715 Y-14.477 E33.92252
G1 X8.645 Y-14.547
G0 F3600 X7.58 Y-15.047
G1 F1800 X10.548 Y-12.078 E34.13196
G1 X10.618 Y-12.008
G0 F3600 X10.743 Y-11.317
G1 F1800 X6.819 Y-15.242 E34.40885
G1 X6.749 Y-15.312
G0 F3600 X6.19 Y-15.306
G1 F1800 X10.806 Y-10.69 E34.73454
G1 X10.876 Y-10.62
G0 F3600 X10.819 Y-10.11
G1 F1800 X5.611 Y-15.318 E35.10199
G1 X5.541 Y-15.388
G0 F3600 X5.045 Y-15.318
G1 F1800 X10.819 Y-9.545 E35.50934
G1 X10.889 Y-9.475
G0 F3600 X10.819 Y-8.979
G1 F1800 X4.48 Y-15.318 E35.95659
G1 X4.41 Y-15.388
G0 F3600 X3.914 Y-15.318
G1 F1800 X10.819 Y-8.413 E36.44378
G1 X10.889 Y-8.343
G0 F3600 X10.819 Y-7.848
G1 F1800 X3.348 Y-15.318 E36.97086
G1 X3.278 Y-15.388
G0 F3600 X2.783 Y-15.318
G1 F1800 X10.819 Y-7.282 E37.53785
G1 X10.889 Y-7.212
G0 F3600 X10.819 Y-6.716
G1 F1800 X2.217 Y-15.318 E38.14476
G1 X2.147 Y-15.388
G0 F3600 X1.651 Y-15.318
G1 F1800 X10.819 Y-6.151 E38.79158
G1 X10.889 Y-6.081
G0 F3600 X10.819 Y-5.585
G1 F1800 X1.086 Y-15.318 E39.4783
G1 X1.016 Y-15.388
G0 F3600 X0.52 Y-15.318
G1 F1800 X10.819 Y-5.019 E40.20495
G1 X10.889 Y-4.949
G0 F3600 X10.819 Y-4.454
G1 F1800 X-0.045 Y-15.318 E40.97146
G1 X-0.115 Y-15.388
G0 F3600 X-0.61 Y-15.318
G1 F1800 X10.819 Y-3.888 E41.77787
G1 X10.889 Y-3.818
G0 F3600 X10.819 Y-3.322
G1 F1800 X-1.176 Y-15.318 E42.62422
G1 X-1.246 Y-15.388
G0 F3600 X-1.742 Y-15.318
G1 F1800 X10.819 Y-2.757 E43.51047
G1 X10.889 Y-2.687
G0 F3600 X10.819 Y-2.191
G1 F1800 X-2.307 Y-15.318 E44.43661
G1 X-2.377 Y-15.388
G0 F3600 X-2.873 Y-15.318
G1 F1800 X10.819 Y-1.625 E45.40269
G1 X10.889 Y-1.555
G0 F3600 X10.819 Y-1.059
G1 F1800 X-3.439 Y-15.318 E46.40871
G1 X-3.509 Y-15.388
G0 F3600 X-4.005 Y-15.318
G1 F1800 X10.819 Y-0.494 E47.45462
G1 X10.889 Y-0.424
G0 F3600 X10.819 Y0.071
G1 F1800 X-4.57 Y-15.318 E48.5404
G1 X-4.64 Y-15.388
G0 F3600 X-5.136 Y-15.318
G1 F1800 X10.819 Y0.637 E49.66611
G1 X10.889 Y0.707
G0 F3600 X10.819 Y1.202
G1 F1800 X-5.702 Y-15.318 E50.83172
G1 X-5.772 Y-15.388
G0 F3600 X-6.252 Y-15.303
G1 F1800 X10.819 Y1.768 E52.03617
G1 X10.889 Y1.838
G0 F3600 X10.819 Y2.334
G1 F1800 X-6.764 Y-15.25 E53.27678
G1 X-6.834 Y-15.32
G0 F3600 X-7.232 Y-15.152
G1 F1800 X10.819 Y2.899 E54.55038
G1 X10.889 Y2.969
