;FLAVOR:RepRap
;TIME:3576
;Filament used: 3.70649m
;Layer height: 0.2
;Generated with Cura_SteamEngine 0.0.0-master
M104 S200
M109 S200
;Sliced at: Sat 27-01-2018 08:03:12 
 ;Basic settings: Layer height: 0.2 Walls: 1.2 Fill: {fill_density} 
 ;Print time: 00:59:37 
 ;Filament used: [3.71]m [11.0547852734375]g 
 ;Filament cost: [0] 
 ;M190 S60 ;Uncomment to add your own bed temperature line 
 ;M109 S200 ;Uncomment to add your own temperature line 
 G21        ;metric values 
 G90        ;absolute positioning 
 M82        ;set extruder to absolute mode 
 M107       ;start with the fan off 
 G28 X0 Y0  ;move X/Y to min endstops 
 G28 Z0     ;move Z to min endstops 
 G1 Z15.0 F3000 ;move the platform down 15mm 
 G92 E0                  ;zero the extruded length 
 G1 F3000 E3              ;extrude 3mm of feed stock 
 G92 E0                  ;zero the extruded length again 
 G1 F3000 
 ;Put printing message on LCD screen 
 M117 Printing...
;LAYER_COUNT:120
;LAYER:0
M107
G0 F3600 X10.063 Y20.435 Z0.299
;TYPE:SKIRT
G1 F1800 X-11.156 Y20.422 E1.05862
G1 X-11.563 Y20.399 E1.07896
G1 X-12.578 Y20.283 E1.12993
G1 X-13.225 Y20.148 E1.1629
G1 X-14.265 Y19.829 E1.21717
G1 X-14.881 Y19.575 E1.25041
G1 X-15.863 Y19.06 E1.30574
G1 X-16.451 Y18.674 E1.34083
G1 X-17.335 Y17.961 E1.39749
G1 X-17.844 Y17.46 E1.43312
G1 X-18.607 Y16.542 E1.49267
G1 X-18.918 Y16.105 E1.51943
G1 X-19.059 Y15.849 E1.53401
G1 X-19.711 Y14.543 E1.60684
G1 X-19.961 Y13.89 E1.64172
G1 X-20.185 Y13.076 E1.68384
G1 X-20.292 Y12.515 E1.71234
G1 X-20.392 Y11.607 E1.75791
G1 X-20.414 Y11.214 E1.77755
G1 X-20.42 Y-11.2 E2.89579
G1 X-20.395 Y-11.622 E2.91688
G1 X-20.281 Y-12.59 E2.9655
G1 X-20.149 Y-13.22 E2.99762
G1 X-19.832 Y-14.258 E3.05176
G1 X-19.57 Y-14.892 E3.08599
G1 X-19.034 Y-15.904 E3.14312
G1 X-18.653 Y-16.482 E3.17766
G1 X-18 Y-17.29 E3.22949
G1 X-17.633 Y-17.681 E3.25624
G1 X-17.428 Y-17.855 E3.26966
G1 X-16.128 Y-18.879 E3.35222
G1 X-15.683 Y-19.179 E3.379
G1 X-15.358 Y-19.342 E3.39714
G1 X-14.288 Y-19.816 E3.45552
G1 X-13.687 Y-20.021 E3.4872
G1 X-12.745 Y-20.252 E3.53559
G1 X-12.196 Y-20.343 E3.56335
G1 X-11.544 Y-20.399 E3.596
G1 X-11.237 Y-20.412 E3.61133
G1 X11.162 Y-20.421 E4.72882
G1 X11.572 Y-20.398 E4.74931
G1 X12.578 Y-20.283 E4.79983
G1 X13.223 Y-20.148 E4.8327
G1 X14.258 Y-19.831 E4.88671
G1 X14.885 Y-19.572 E4.92055
G1 X15.9 Y-19.036 E4.97782
G1 X16.482 Y-18.653 E5.01258
G1 X17.29 Y-18 E5.06441
G1 X17.821 Y-17.47 E5.10184
G1 X18.751 Y-16.325 E5.17543
G1 X19.058 Y-15.884 E5.20224
G1 X19.239 Y-15.534 E5.2219
G1 X19.857 Y-14.162 E5.29697
G1 X20.041 Y-13.657 E5.32378
G1 X20.13 Y-13.253 E5.34442
G1 X20.367 Y-11.775 E5.4191
G1 X20.412 Y-11.203 E5.44773
G1 X20.402 Y11.466 E6.57869
G1 X20.354 Y12.051 E6.60797
G1 X20.186 Y13.067 E6.65935
G1 X20.035 Y13.662 E6.68997
G1 X19.749 Y14.485 E6.73344
G1 X19.517 Y15.01 E6.76208
G1 X19.029 Y15.916 E6.81342
G1 X18.597 Y16.548 E6.85161
G1 X17.681 Y17.62 E6.92196
G1 X17.133 Y18.139 E6.95961
G1 X16.265 Y18.804 E7.01417
G1 X15.645 Y19.186 E7.0505
G1 X14.559 Y19.712 E7.1107
G1 X13.911 Y19.952 E7.14518
G1 X12.868 Y20.228 E7.199
G1 X12.113 Y20.344 E7.23711
G1 X10.231 Y20.431 E7.33111
G1 X10.063 Y20.435 E7.33949
G0 F3600 X10.063 Y20.035
G1 F1800 X-11.156 Y20.022 E8.39811
G1 X-11.517 Y20.001 E8.41615
G1 X-12.532 Y19.885 E8.46712
G1 X-13.107 Y19.765 E8.49642
G1 X-14.147 Y19.446 E8.5507
G1 X-14.695 Y19.221 E8.58025
G1 X-15.677 Y18.706 E8.63557
G1 X-16.2 Y18.363 E8.66677
G1 X-17.084 Y17.65 E8.72343
G1 X-17.536 Y17.204 E8.75511
G1 X-18.299 Y16.286 E8.81467
G1 X-18.701 Y15.67 E8.85137
G1 X-19.353 Y14.364 E8.92419
G1 X-19.575 Y13.784 E8.95517
G1 X-19.799 Y12.97 E8.99729
G1 X-19.895 Y12.471 E9.02265
G1 X-19.995 Y11.563 E9.06822
G1 X-20.014 Y11.214 E9.08566
G1 X-20.02 Y-11.2 E10.2039
G1 X-19.998 Y-11.575 E10.22264
G1 X-19.884 Y-12.543 E10.27127
G1 X-19.766 Y-13.104 E10.29987
G1 X-19.449 Y-14.142 E10.35401
G1 X-19.217 Y-14.705 E10.38439
G1 X-18.681 Y-15.717 E10.44153
G1 X-18.342 Y-16.23 E10.4722
G1 X-17.689 Y-17.038 E10.52403
G1 X-17.18 Y-17.541 E10.55973
G1 X-15.88 Y-18.565 E10.6423
G1 X-15.459 Y-18.845 E10.66752
G1 X-15.196 Y-18.977 E10.6822
G1 X-14.126 Y-19.451 E10.74059
G1 X-13.592 Y-19.633 E10.76873
G1 X-12.65 Y-19.864 E10.81712
G1 X-12.162 Y-19.944 E10.84179
G1 X-11.51 Y-20 E10.87444
G1 X-11.237 Y-20.012 E10.88808
G1 X11.162 Y-20.021 E12.00557
G1 X11.526 Y-20 E12.02376
G1 X12.532 Y-19.885 E12.07427
G1 X13.106 Y-19.766 E12.10352
G1 X14.141 Y-19.449 E12.15752
G1 X14.698 Y-19.219 E12.18759
G1 X15.713 Y-18.683 E12.24485
G1 X16.23 Y-18.342 E12.27575
G1 X17.038 Y-17.689 E12.32758
G1 X17.511 Y-17.217 E12.36092
G1 X18.441 Y-16.072 E12.43451
G1 X18.728 Y-15.656 E12.45973
G1 X18.875 Y-15.369 E12.47581
G1 X19.493 Y-13.997 E12.55089
G1 X19.663 Y-13.521 E12.5761
G1 X19.735 Y-13.19 E12.593
G1 X19.972 Y-11.712 E12.66768
G1 X20.012 Y-11.204 E12.69311
G1 X20.002 Y11.465 E13.82407
G1 X19.959 Y11.986 E13.85015
G1 X19.791 Y13.002 E13.90153
G1 X19.657 Y13.53 E13.9287
G1 X19.371 Y14.353 E13.97217
G1 X19.165 Y14.82 E13.99764
G1 X18.677 Y15.726 E14.04898
G1 X18.293 Y16.288 E14.08293
G1 X17.377 Y17.36 E14.15328
G1 X16.89 Y17.821 E14.18674
G1 X16.022 Y18.486 E14.24129
G1 X15.471 Y18.826 E14.27359
G1 X14.385 Y19.352 E14.33379
G1 X13.809 Y19.566 E14.36445
G1 X12.766 Y19.842 E14.41828
G1 X12.095 Y19.945 E14.45214
G1 X10.213 Y20.032 E14.54614
G1 X10.063 Y20.035 E14.55362
G1 F3600 E6.55362
G0 F3600 X10.064 Y17.5
G0 X10.064 Y16.215
G0 X10.965 Y15.835
;TYPE:WALL-INNER
G1 F3600 E14.55362
G1 F1800 X-10.986 Y15.834 E15.64876
G1 X-11.464 Y15.809 E15.67264
G1 X-11.962 Y15.738 E15.69774
G1 X-12.235 Y15.673 E15.71174
G1 X-12.848 Y15.464 E15.74405
G1 X-13.282 Y15.26 E15.76798
G1 X-13.701 Y15.01 E15.79232
G1 X-13.923 Y14.85 E15.80597
G1 X-14.428 Y14.408 E15.83945
G1 X-14.73 Y14.072 E15.86199
G1 X-15.025 Y13.675 E15.88667
G1 X-15.179 Y13.43 E15.90111
G1 X-15.468 Y12.843 E15.93375
G1 X-15.624 Y12.405 E15.95694
G1 X-15.742 Y11.932 E15.98127
G1 X-15.791 Y11.642 E15.99594
G1 X-15.835 Y10.958 E16.03013
G1 X-15.835 Y-10.99 E17.12512
G1 X-15.809 Y-11.46 E17.14861
G1 X-15.736 Y-11.963 E17.17397
G1 X-15.672 Y-12.236 E17.18796
G1 X-15.459 Y-12.861 E17.2209
G1 X-15.266 Y-13.271 E17.24351
G1 X-15.012 Y-13.694 E17.26812
G1 X-14.843 Y-13.929 E17.28256
G1 X-14.404 Y-14.431 E17.31583
G1 X-14.071 Y-14.73 E17.33816
G1 X-13.671 Y-15.028 E17.36305
G1 X-13.43 Y-15.179 E17.37724
G1 X-12.843 Y-15.468 E17.40988
G1 X-12.409 Y-15.622 E17.43285
G1 X-11.929 Y-15.744 E17.45756
G1 X-11.654 Y-15.788 E17.47146
G1 X-10.963 Y-15.835 E17.50601
G1 X10.986 Y-15.834 E18.60105
G1 X11.464 Y-15.809 E18.62493
G1 X11.962 Y-15.738 E18.65003
G1 X12.226 Y-15.676 E18.66356
G1 X12.861 Y-15.459 E18.69704
G1 X13.271 Y-15.266 E18.71964
G1 X13.694 Y-15.012 E18.74426
G1 X13.929 Y-14.843 E18.7587
G1 X14.425 Y-14.409 E18.79158
G1 X14.742 Y-14.057 E18.81521
G1 X15.01 Y-13.699 E18.83753
G1 X15.177 Y-13.43 E18.85332
G1 X15.47 Y-12.837 E18.88632
G1 X15.624 Y-12.409 E18.90901
G1 X15.74 Y-11.94 E18.93312
G1 X15.79 Y-11.645 E18.94805
G1 X15.835 Y-10.968 E18.9819
G1 X15.834 Y10.99 E20.07738
G1 X15.809 Y11.467 E20.10121
G1 X15.74 Y11.954 E20.12575
G1 X15.674 Y12.233 E20.14006
G1 X15.462 Y12.855 E20.17284
G1 X15.261 Y13.282 E20.19639
G1 X15.021 Y13.683 E20.2197
G1 X14.843 Y13.933 E20.23501
G1 X14.407 Y14.427 E20.26789
G1 X14.06 Y14.741 E20.29123
G1 X13.69 Y15.018 E20.31429
G1 X13.431 Y15.178 E20.32948
G1 X12.84 Y15.47 E20.36237
G1 X12.405 Y15.626 E20.38542
G1 X11.944 Y15.741 E20.40913
G1 X11.645 Y15.791 E20.42425
G1 X10.965 Y15.835 E20.45825
G0 F3600 X11.163 Y-8.398
G1 F1800 X11.806 Y-8.518 E20.49088
G1 X12.397 Y-8.799 E20.52353
G1 X12.901 Y-9.215 E20.55613
G1 X13.285 Y-9.744 E20.58875
G1 X13.525 Y-10.352 E20.62136
G1 X13.608 Y-11 E20.65395
G1 X13.525 Y-11.648 E20.68654
G1 X13.285 Y-12.256 E20.71915
G1 X12.901 Y-12.785 E20.75177
G1 X12.397 Y-13.201 E20.78437
G1 X11.806 Y-13.482 E20.81702
G1 X11.163 Y-13.602 E20.84965
G1 X10.511 Y-13.562 E20.88224
G1 X9.889 Y-13.36 E20.91487
G1 X9.337 Y-13.008 E20.94753
G1 X8.891 Y-12.532 E20.98007
G1 X8.575 Y-11.961 E21.01263
G1 X8.413 Y-11.326 E21.04533
G1 X8.413 Y-10.674 E21.07786
G1 X8.575 Y-10.039 E21.11055
G1 X8.891 Y-9.468 E21.14311
G1 X9.337 Y-8.992 E21.17565
G1 X9.889 Y-8.64 E21.20832
G1 X10.511 Y-8.438 E21.24094
G1 X11.163 Y-8.398 E21.27353
G0 F3600 X-8.392 Y-11
G1 F1800 X-8.475 Y-11.648 E21.30612
G1 X-8.715 Y-12.256 E21.33874
G1 X-9.099 Y-12.785 E21.37135
G1 X-9.603 Y-13.201 E21.40395
G1 X-10.194 Y-13.482 E21.4366
G1 X-10.837 Y-13.602 E21.46923
G1 X-11.489 Y-13.562 E21.50182
G1 X-12.111 Y-13.36 E21.53445
G1 X-12.663 Y-13.008 E21.56711
G1 X-13.109 Y-12.532 E21.59966
G1 X-13.425 Y-11.961 E21.63221
G1 X-13.587 Y-11.326 E21.66491
G1 X-13.587 Y-10.674 E21.69744
G1 X-13.425 Y-10.039 E21.73013
G1 X-13.109 Y-9.468 E21.76269
G1 X-12.663 Y-8.992 E21.79523
G1 X-12.111 Y-8.64 E21.8279
G1 X-11.489 Y-8.438 E21.86052
G1 X-10.837 Y-8.398 E21.89311
G1 X-10.194 Y-8.518 E21.92575
G1 X-9.603 Y-8.799 E21.95839
G1 X-9.099 Y-9.215 E21.991
G1 X-8.715 Y-9.744 E22.02361
G1 X-8.475 Y-10.352 E22.05622
G1 X-8.392 Y-11 E22.08881
G0 F3600 X-8.795 Y-11
G1 F1800 X-8.865 Y-11.548 E22.11638
G1 X-9.068 Y-12.062 E22.14395
G1 X-9.393 Y-12.509 E22.17152
G1 X-9.819 Y-12.861 E22.19909
G1 X-10.319 Y-13.098 E22.2267
G1 X-10.862 Y-13.2 E22.25426
G1 X-11.414 Y-13.166 E22.28185
G1 X-11.939 Y-12.995 E22.3094
G1 X-12.406 Y-12.698 E22.33701
G1 X-12.783 Y-12.295 E22.36454
G1 X-13.05 Y-11.812 E22.39207
G1 X-13.187 Y-11.276 E22.41968
G1 X-13.187 Y-10.724 E22.44721
G1 X-13.05 Y-10.188 E22.47482
G1 X-12.783 Y-9.705 E22.50235
G1 X-12.406 Y-9.302 E22.52988
G1 X-11.939 Y-9.005 E22.55749
G1 X-11.414 Y-8.834 E22.58504
G1 X-10.862 Y-8.8 E22.61263
G1 X-10.319 Y-8.902 E22.6402
G1 X-9.819 Y-9.139 E22.6678
G1 X-9.393 Y-9.491 E22.69537
G1 X-9.068 Y-9.938 E22.72294
G1 X-8.865 Y-10.452 E22.75051
G1 X-8.795 Y-11 E22.77808
G0 F3600 X-8.695 Y-11
G0 X-8.827 Y-11.557
G0 X-10.972 Y-16.136
G0 X-10.975 Y-16.235
G1 F1800 X10.988 Y-16.234 E23.87381
G1 X11.509 Y-16.207 E23.89984
G1 X12.03 Y-16.132 E23.9261
G1 X12.345 Y-16.058 E23.94225
G1 X13.007 Y-15.832 E23.97714
G1 X13.461 Y-15.619 E24.00216
G1 X13.912 Y-15.348 E24.02841
G1 X14.182 Y-15.154 E24.045
G1 X14.706 Y-14.695 E24.07975
G1 X15.051 Y-14.312 E24.10547
G1 X15.342 Y-13.923 E24.12971
G1 X15.528 Y-13.624 E24.14728
G1 X15.836 Y-12.999 E24.18204
G1 X16.008 Y-12.521 E24.20738
G1 X16.134 Y-12.015 E24.2334
G1 X16.187 Y-11.698 E24.24943
G1 X16.235 Y-10.975 E24.28558
G1 X16.234 Y10.99 E25.38142
G1 X16.207 Y11.51 E25.4074
G1 X16.134 Y12.023 E25.43325
G1 X16.059 Y12.343 E25.44965
G1 X15.831 Y13.01 E25.48482
G1 X15.616 Y13.467 E25.51001
G1 X15.352 Y13.908 E25.53566
G1 X15.156 Y14.183 E25.5525
G1 X14.694 Y14.707 E25.58736
G1 X14.319 Y15.046 E25.61258
G1 X13.908 Y15.353 E25.63817
G1 X13.625 Y15.529 E25.6548
G1 X13 Y15.837 E25.68956
G1 X12.523 Y16.009 E25.71486
G1 X12.015 Y16.135 E25.74097
G1 X11.697 Y16.188 E25.75705
G1 X10.976 Y16.235 E25.7931
G1 X-10.988 Y16.234 E26.88889
G1 X-11.509 Y16.207 E26.91491
G1 X-12.03 Y16.132 E26.94118
G1 X-12.345 Y16.058 E26.95732
G1 X-13.003 Y15.833 E26.99201
G1 X-13.467 Y15.615 E27.01759
G1 X-13.921 Y15.344 E27.04397
G1 X-14.172 Y15.163 E27.05941
G1 X-14.707 Y14.695 E27.09487
G1 X-15.045 Y14.319 E27.12009
G1 X-15.353 Y13.905 E27.14584
G1 X-15.531 Y13.621 E27.16256
G1 X-15.837 Y13 E27.1971
G1 X-16.007 Y12.523 E27.22236
G1 X-16.136 Y12.007 E27.2489
G1 X-16.188 Y11.694 E27.26473
G1 X-16.235 Y10.969 E27.30097
G1 X-16.235 Y-10.99 E28.39651
G1 X-16.207 Y-11.507 E28.42234
G1 X-16.129 Y-12.04 E28.44922
G1 X-16.058 Y-12.345 E28.46484
G1 X-15.832 Y-13.007 E28.49974
G1 X-15.619 Y-13.461 E28.52476
G1 X-15.348 Y-13.912 E28.55101
G1 X-15.154 Y-14.182 E28.5676
G1 X-14.695 Y-14.706 E28.60235
G1 X-14.318 Y-15.045 E28.62764
G1 X-13.901 Y-15.356 E28.6536
G1 X-13.621 Y-15.531 E28.67007
G1 X-13 Y-15.837 E28.70461
G1 X-12.525 Y-16.006 E28.72976
G1 X-12.012 Y-16.136 E28.75616
G1 X-11.7 Y-16.186 E28.77193
G1 X-10.975 Y-16.235 E28.80818
G0 F3600 X-10.972 Y-16.136
G0 X8.714 Y-11.288
G0 X8.813 Y-11.276
G1 F1800 X8.813 Y-10.724 E28.83572
G1 X8.95 Y-10.188 E28.86332
G1 X9.217 Y-9.705 E28.89086
G1 X9.594 Y-9.302 E28.91839
G1 X10.061 Y-9.005 E28.946
G1 X10.586 Y-8.834 E28.97355
G1 X11.138 Y-8.8 E29.00114
G1 X11.681 Y-8.902 E29.0287
G1 X12.181 Y-9.139 E29.05631
G1 X12.607 Y-9.491 E29.08388
G1 X12.932 Y-9.938 E29.11145
G1 X13.135 Y-10.452 E29.13902
G1 X13.205 Y-11 E29.16658
G1 X13.135 Y-11.548 E29.19414
G1 X12.932 Y-12.062 E29.22172
G1 X12.607 Y-12.509 E29.24929
G1 X12.181 Y-12.861 E29.27686
G1 X11.681 Y-13.098 E29.30446
G1 X11.138 Y-13.2 E29.33203
G1 X10.586 Y-13.166 E29.35962
G1 X10.061 Y-12.995 E29.38717
G1 X9.594 Y-12.698 E29.41478
G1 X9.217 Y-12.295 E29.44231
G1 X8.95 Y-11.812 E29.46984
G1 X8.813 Y-11.276 E29.49744
G0 F3600 X9.213 Y-11.226
;TYPE:WALL-OUTER
G1 F1800 X9.213 Y-10.774 E29.51999
G1 X9.325 Y-10.337 E29.5425
G1 X9.543 Y-9.942 E29.56501
G1 X9.851 Y-9.612 E29.58753
G1 X10.233 Y-9.37 E29.61009
G1 X10.662 Y-9.23 E29.6326
G1 X11.113 Y-9.202 E29.65515
G1 X11.556 Y-9.286 E29.67764
G1 X11.965 Y-9.479 E29.70021
G1 X12.313 Y-9.767 E29.72274
G1 X12.579 Y-10.132 E29.74527
G1 X12.745 Y-10.552 E29.76781
G1 X12.802 Y-11 E29.79034
G1 X12.745 Y-11.448 E29.81287
G1 X12.579 Y-11.868 E29.8354
G1 X12.313 Y-12.233 E29.85793
G1 X11.965 Y-12.521 E29.88047
G1 X11.556 Y-12.714 E29.90303
G1 X11.113 Y-12.798 E29.92553
G1 X10.662 Y-12.77 E29.94807
G1 X10.233 Y-12.63 E29.97058
G1 X9.851 Y-12.388 E29.99314
G1 X9.543 Y-12.058 E30.01566
G1 X9.325 Y-11.663 E30.03817
G1 X9.213 Y-11.226 E30.06068
G0 F3600 X9.213 Y-11.026
G0 X8.713 Y-11.026
G0 X8.913 Y-11.826
G0 X10.986 Y-16.135
G0 X10.99 Y-16.634
G1 F1800 X11.554 Y-16.605 E30.08886
G1 X12.098 Y-16.526 E30.11628
G1 X12.464 Y-16.44 E30.13504
G1 X13.154 Y-16.205 E30.1714
G1 X13.651 Y-15.971 E30.19881
G1 X14.129 Y-15.684 E30.22663
G1 X14.435 Y-15.465 E30.2454
G1 X14.986 Y-14.982 E30.28195
G1 X15.356 Y-14.571 E30.30954
G1 X15.681 Y-14.136 E30.33663
G1 X15.879 Y-13.817 E30.35537
G1 X16.203 Y-13.159 E30.39196
G1 X16.391 Y-12.637 E30.41964
G1 X16.528 Y-12.089 E30.44782
G1 X16.584 Y-11.748 E30.46506
G1 X16.635 Y-10.987 E30.50311
G1 X16.634 Y10.99 E31.59955
G1 X16.605 Y11.554 E31.62772
G1 X16.527 Y12.099 E31.65519
G1 X16.442 Y12.46 E31.67369
G1 X16.204 Y13.157 E31.71044
G1 X15.971 Y13.652 E31.73773
G1 X15.685 Y14.13 E31.76552
G1 X15.467 Y14.435 E31.78423
G1 X14.981 Y14.986 E31.82088
G1 X14.572 Y15.357 E31.84843
G1 X14.134 Y15.684 E31.8757
G1 X13.818 Y15.88 E31.89425
G1 X13.16 Y16.204 E31.93084
G1 X12.638 Y16.392 E31.95852
G1 X12.092 Y16.528 E31.9866
G1 X11.748 Y16.585 E32.00399
G1 X10.987 Y16.635 E32.04204
G1 X-10.99 Y16.634 E33.13848
G1 X-11.554 Y16.605 E33.16665
G1 X-12.098 Y16.526 E33.19408
G1 X-12.464 Y16.44 E33.21284
G1 X-13.154 Y16.205 E33.2492
G1 X-13.656 Y15.968 E33.2769
G1 X-14.133 Y15.684 E33.30459
G1 X-14.421 Y15.476 E33.32232
G1 X-14.986 Y14.982 E33.35976
G1 X-15.36 Y14.566 E33.38767
G1 X-15.681 Y14.135 E33.41448
G1 X-15.883 Y13.812 E33.43349
G1 X-16.206 Y13.157 E33.46992
G1 X-16.39 Y12.641 E33.49725
G1 X-16.528 Y12.089 E33.52564
G1 X-16.585 Y11.746 E33.54299
G1 X-16.635 Y10.987 E33.58094
G1 X-16.635 Y-10.99 E34.67737
G1 X-16.605 Y-11.554 E34.70555
G1 X-16.524 Y-12.106 E34.73339
G1 X-16.44 Y-12.464 E34.75173
G1 X-16.205 Y-13.154 E34.7881
G1 X-15.971 Y-13.651 E34.8155
G1 X-15.684 Y-14.129 E34.84332
G1 X-15.465 Y-14.435 E34.86209
G1 X-14.982 Y-14.986 E34.89865
G1 X-14.571 Y-15.356 E34.92624
G1 X-14.135 Y-15.681 E34.95337
G1 X-13.812 Y-15.883 E34.97238
G1 X-13.157 Y-16.206 E35.00881
G1 X-12.641 Y-16.39 E35.03614
G1 X-12.093 Y-16.528 E35.06434
G1 X-11.748 Y-16.584 E35.08177
G1 X-10.987 Y-16.635 E35.11982
G1 X10.99 Y-16.634 E36.21626
G0 F3600 X11.19 Y-16.624
G0 X11.164 Y-16.125
G0 X-8.79 Y-11.63
G0 X-9.255 Y-11.448
G1 F1800 X-9.421 Y-11.868 E36.23879
G1 X-9.687 Y-12.233 E36.26132
G1 X-10.035 Y-12.521 E36.28386
G1 X-10.444 Y-12.714 E36.30642
G1 X-10.887 Y-12.798 E36.32892
G1 X-11.338 Y-12.77 E36.35146
G1 X-11.767 Y-12.63 E36.37398
G1 X-12.149 Y-12.388 E36.39654
G1 X-12.457 Y-12.058 E36.41906
G1 X-12.675 Y-11.663 E36.44157
G1 X-12.787 Y-11.226 E36.46407
