;FLAVOR:RepRap
;TIME:3494
;Filament used: 3.63395m
;Layer height: 0.2
;Generated with Cura_SteamEngine 0.0.0-master
M104 S200
M109 S200
;Sliced at: Tue 30-01-2018 04:19:38 
 ;Basic settings: Layer height: 0.2 Walls: 1.2 Fill: {fill_density} 
 ;Print time: 00:58:14 
 ;Filament used: [3.63]m [10.838440390625]g 
 ;Filament cost: [0] 
 ;M190 S60 ;Uncomment to add your own bed temperature line 
 ;M109 S200 ;Uncomment to add your own temperature line 
 G21        ;metric values 
 G90        ;absolute positioning 
 M82        ;set extruder to absolute mode 
 M107       ;start with the fan off 
 G28 X0 Y0  ;move X/Y to min endstops 
 G28 Z0     ;move Z to min endstops 
 G1 Z15.0 F3000 ;move the platform down 15mm 
 G92 E0                  ;zero the extruded length 
 G1 F3000 E3              ;extrude 3mm of feed stock 
 G92 E0                  ;zero the extruded length again 
 G1 F3000 
 ;Put printing message on LCD screen 
 M117 Printing...
;LAYER_COUNT:130
;LAYER:0
M107
G0 F3600 X18.435 Y-10.063 Z0.299
;TYPE:SKIRT
G1 F1800 X18.422 Y11.156 E1.05862
G1 X18.4 Y11.554 E1.07851
G1 X18.29 Y12.538 E1.1279
G1 X18.117 Y13.305 E1.16713
G1 X17.623 Y14.746 E1.24313
G1 X17.331 Y15.388 E1.27832
G1 X16.912 Y16.109 E1.31992
G1 X16.577 Y16.589 E1.34912
G1 X15.978 Y17.316 E1.39612
G1 X15.428 Y17.855 E1.43454
G1 X14.128 Y18.879 E1.5171
G1 X13.683 Y19.179 E1.54388
G1 X13.327 Y19.356 E1.56371
G1 X12.111 Y19.881 E1.62979
G1 X11.557 Y20.069 E1.65898
G1 X11.009 Y20.206 E1.68716
G1 X10.348 Y20.307 E1.72052
G1 X8.276 Y20.429 E1.82407
G1 X8.057 Y20.435 E1.835
G1 X-9.47 Y20.402 E2.70943
G1 X-9.998 Y20.362 E2.73585
G1 X-10.85 Y20.234 E2.77883
G1 X-11.425 Y20.099 E2.8083
G1 X-12.36 Y19.796 E2.85733
G1 X-12.831 Y19.605 E2.88269
G1 X-13.465 Y19.295 E2.9179
G1 X-13.951 Y19.008 E2.94606
G1 X-14.812 Y18.404 E2.99853
G1 X-15.401 Y17.887 E3.03763
G1 X-16.421 Y16.772 E3.11302
G1 X-16.753 Y16.35 E3.13981
G1 X-16.953 Y16.015 E3.15927
G1 X-17.65 Y14.687 E3.2341
G1 X-17.863 Y14.195 E3.26085
G1 X-17.945 Y13.925 E3.27492
G1 X-18.238 Y12.805 E3.33268
G1 X-18.352 Y12.051 E3.37073
G1 X-18.431 Y10.24 E3.46116
G1 X-18.434 Y10.078 E3.46925
G1 X-18.402 Y-11.468 E4.54418
G1 X-18.362 Y-11.998 E4.5707
G1 X-18.234 Y-12.85 E4.61368
G1 X-18.108 Y-13.394 E4.64154
G1 X-17.866 Y-14.164 E4.68181
G1 X-17.602 Y-14.792 E4.7158
G1 X-16.882 Y-16.129 E4.79156
G1 X-16.593 Y-16.581 E4.81832
G1 X-16.362 Y-16.858 E4.83632
G1 X-15.474 Y-17.824 E4.90178
G1 X-14.993 Y-18.261 E4.9342
G1 X-14.299 Y-18.785 E4.97759
G1 X-13.689 Y-19.157 E5.01323
G1 X-12.465 Y-19.745 E5.08098
G1 X-11.869 Y-19.969 E5.11274
G1 X-11.091 Y-20.185 E5.15303
G1 X-10.495 Y-20.297 E5.18328
G1 X-9.54 Y-20.395 E5.23118
G1 X-9.174 Y-20.414 E5.24946
G1 X9.2 Y-20.42 E6.16614
G1 X9.723 Y-20.382 E6.1923
G1 X11.013 Y-20.193 E6.25735
G1 X11.727 Y-20.012 E6.2941
G1 X12.69 Y-19.66 E6.34525
G1 X13.25 Y-19.399 E6.37608
G1 X14.162 Y-18.874 E6.42858
G1 X14.793 Y-18.413 E6.46756
G1 X15.826 Y-17.47 E6.53734
G1 X16.263 Y-16.992 E6.56966
G1 X16.742 Y-16.363 E6.6091
G1 X17.063 Y-15.859 E6.63891
G1 X17.56 Y-14.915 E6.69214
G1 X17.824 Y-14.271 E6.72686
G1 X18.18 Y-13.082 E6.78878
G1 X18.295 Y-12.558 E6.81555
G1 X18.326 Y-12.237 E6.83164
G1 X18.43 Y-10.253 E6.93075
G1 X18.435 Y-10.063 E6.94024
G0 F3600 X18.035 Y-10.063
G1 F1800 X18.022 Y11.156 E7.99886
G1 X18.002 Y11.51 E8.01655
G1 X17.892 Y12.494 E8.06594
G1 X17.739 Y13.176 E8.10081
G1 X17.245 Y14.617 E8.17681
G1 X16.985 Y15.187 E8.20807
G1 X16.566 Y15.908 E8.24967
G1 X16.269 Y16.335 E8.27562
G1 X15.67 Y17.062 E8.32262
G1 X15.18 Y17.541 E8.3568
G1 X13.88 Y18.565 E8.43937
G1 X13.459 Y18.845 E8.46459
G1 X13.168 Y18.989 E8.48079
G1 X11.952 Y19.514 E8.54687
G1 X11.46 Y19.68 E8.57277
G1 X10.912 Y19.817 E8.60096
G1 X10.324 Y19.907 E8.63063
G1 X8.252 Y20.029 E8.73418
G1 X8.058 Y20.035 E8.74387
G1 X-9.469 Y20.002 E9.61829
G1 X-9.938 Y19.966 E9.64176
G1 X-10.79 Y19.838 E9.68475
G1 X-11.301 Y19.718 E9.71093
G1 X-12.236 Y19.415 E9.75997
G1 X-12.656 Y19.246 E9.78255
G1 X-13.29 Y18.936 E9.81776
G1 X-13.722 Y18.681 E9.84279
G1 X-14.583 Y18.077 E9.89526
G1 X-15.106 Y17.617 E9.93001
G1 X-16.126 Y16.502 E10.0054
G1 X-16.437 Y16.103 E10.03064
G1 X-16.598 Y15.829 E10.0465
G1 X-17.295 Y14.501 E10.12132
G1 X-17.558 Y13.824 E10.15756
G1 X-17.851 Y12.704 E10.21532
G1 X-17.952 Y12.033 E10.24917
G1 X-18.031 Y10.222 E10.33961
G1 X-18.034 Y10.078 E10.34679
G1 X-18.002 Y-11.468 E11.42173
G1 X-17.966 Y-11.938 E11.44524
G1 X-17.838 Y-12.79 E11.48823
G1 X-17.727 Y-13.274 E11.513
G1 X-17.485 Y-14.044 E11.55327
G1 X-17.249 Y-14.602 E11.5835
G1 X-16.529 Y-15.939 E11.65926
G1 X-16.255 Y-16.364 E11.68448
G1 X-16.068 Y-16.588 E11.69904
G1 X-15.18 Y-17.554 E11.7645
G1 X-14.752 Y-17.942 E11.79333
G1 X-14.058 Y-18.466 E11.83671
G1 X-13.516 Y-18.796 E11.86837
G1 X-12.292 Y-19.384 E11.93611
G1 X-11.762 Y-19.583 E11.96436
G1 X-10.984 Y-19.799 E12.00464
G1 X-10.455 Y-19.899 E12.0315
G1 X-9.5 Y-19.997 E12.0794
G1 X-9.174 Y-20.014 E12.09568
G1 X9.2 Y-20.02 E13.01237
G1 X9.665 Y-19.986 E13.03563
G1 X10.955 Y-19.797 E13.10067
G1 X11.59 Y-19.637 E13.13334
G1 X12.553 Y-19.285 E13.1845
G1 X13.05 Y-19.052 E13.21188
G1 X13.962 Y-18.527 E13.26438
G1 X14.523 Y-18.117 E13.29905
G1 X15.556 Y-17.174 E13.36883
G1 X15.945 Y-16.75 E13.39754
G1 X16.424 Y-16.121 E13.43698
G1 X16.71 Y-15.673 E13.4635
G1 X17.207 Y-14.729 E13.51672
G1 X17.441 Y-14.156 E13.5476
G1 X17.797 Y-12.967 E13.60952
G1 X17.903 Y-12.473 E13.63473
G1 X17.927 Y-12.217 E13.64756
G1 X18.031 Y-10.233 E13.74667
G1 X18.035 Y-10.063 E13.75516
G1 F3600 E5.75516
G0 F3600 X15.5 Y-10.064
G0 X14.215 Y-10.064
G0 X13.835 Y-10.968
;TYPE:WALL-INNER
G1 F3600 E13.75516
G1 F1800 X13.834 Y10.99 E14.85065
G1 X13.809 Y11.464 E14.87433
G1 X13.738 Y11.956 E14.89913
G1 X13.674 Y12.229 E14.91312
G1 X13.459 Y12.861 E14.94642
G1 X13.266 Y13.271 E14.96903
G1 X13.012 Y13.694 E14.99365
G1 X12.844 Y13.928 E15.00802
G1 X12.404 Y14.431 E15.04136
G1 X12.071 Y14.73 E15.06369
G1 X11.675 Y15.025 E15.08832
G1 X11.431 Y15.178 E15.10269
G1 X10.84 Y15.47 E15.13558
G1 X10.405 Y15.626 E15.15863
G1 X9.944 Y15.741 E15.18234
G1 X9.645 Y15.791 E15.19746
G1 X8.965 Y15.835 E15.23146
G1 X-8.986 Y15.835 E16.12704
G1 X-9.464 Y15.809 E16.15092
G1 X-9.962 Y15.738 E16.17602
G1 X-10.226 Y15.676 E16.18955
G1 X-10.862 Y15.459 E16.22307
G1 X-11.28 Y15.263 E16.24611
G1 X-11.696 Y15.012 E16.27035
G1 X-11.929 Y14.846 E16.28462
G1 X-12.418 Y14.417 E16.31707
G1 X-12.738 Y14.06 E16.34099
G1 X-13.017 Y13.685 E16.36431
G1 X-13.183 Y13.422 E16.37983
G1 X-13.472 Y12.833 E16.41256
G1 X-13.621 Y12.417 E16.4346
G1 X-13.745 Y11.923 E16.46001
G1 X-13.788 Y11.655 E16.47356
G1 X-13.834 Y10.958 E16.5084
G1 X-13.835 Y-10.99 E17.60339
G1 X-13.809 Y-11.464 E17.62708
G1 X-13.738 Y-11.96 E17.65208
G1 X-13.674 Y-12.232 E17.66602
G1 X-13.461 Y-12.86 E17.6991
G1 X-13.265 Y-13.273 E17.72191
G1 X-13.015 Y-13.689 E17.74612
G1 X-12.84 Y-13.934 E17.76114
G1 X-12.409 Y-14.427 E17.79381
G1 X-12.077 Y-14.727 E17.81614
G1 X-11.669 Y-15.029 E17.84146
G1 X-11.433 Y-15.175 E17.85531
G1 X-10.843 Y-15.467 E17.88815
G1 X-10.403 Y-15.624 E17.91146
G1 X-9.932 Y-15.744 E17.93571
G1 X-9.647 Y-15.791 E17.95012
G1 X-8.965 Y-15.835 E17.98421
G1 X8.986 Y-15.835 E18.87979
G1 X9.466 Y-15.809 E18.90377
G1 X9.957 Y-15.739 E18.92852
G1 X10.232 Y-15.674 E18.94262
G1 X10.85 Y-15.463 E18.9752
G1 X11.282 Y-15.259 E18.99903
G1 X11.689 Y-15.015 E19.0227
G1 X11.934 Y-14.84 E19.03773
G1 X12.428 Y-14.408 E19.07047
G1 X12.73 Y-14.072 E19.093
G1 X13.017 Y-13.685 E19.11704
G1 X13.182 Y-13.423 E19.13249
G1 X13.466 Y-12.843 E19.16471
G1 X13.629 Y-12.394 E19.18854
G1 X13.742 Y-11.94 E19.21188
G1 X13.79 Y-11.654 E19.22635
G1 X13.835 Y-10.968 E19.26065
G0 F3600 X12.301 Y-9.285
G1 F1800 X11.797 Y-9.701 E19.29325
G1 X11.206 Y-9.982 E19.3259
G1 X10.563 Y-10.102 E19.35853
G1 X9.911 Y-10.062 E19.39112
G1 X9.289 Y-9.86 E19.42375
G1 X8.737 Y-9.508 E19.45641
G1 X8.291 Y-9.032 E19.48895
G1 X7.975 Y-8.461 E19.52151
G1 X7.813 Y-7.826 E19.55421
G1 X7.813 Y-7.174 E19.58674
G1 X7.975 Y-6.539 E19.61943
G1 X8.291 Y-5.968 E19.65199
G1 X8.737 Y-5.492 E19.68453
G1 X9.289 Y-5.14 E19.7172
G1 X9.911 Y-4.938 E19.74982
G1 X10.563 Y-4.898 E19.78241
G1 X11.206 Y-5.018 E19.81505
G1 X11.797 Y-5.299 E19.84769
G1 X12.301 Y-5.715 E19.8803
G1 X12.685 Y-6.244 E19.91291
G1 X12.925 Y-6.852 E19.94552
G1 X13.008 Y-7.5 E19.97811
G1 X12.925 Y-8.148 E20.01071
G1 X12.685 Y-8.756 E20.04332
G1 X12.301 Y-9.285 E20.07593
G0 F3600 X10.54 Y-9.739
G0 X-7.792 Y-7.5
G1 F1800 X-7.875 Y-8.148 E20.10852
G1 X-8.115 Y-8.756 E20.14113
G1 X-8.499 Y-9.285 E20.17375
G1 X-9.003 Y-9.701 E20.20635
G1 X-9.594 Y-9.982 E20.239
G1 X-10.237 Y-10.102 E20.27163
G1 X-10.889 Y-10.062 E20.30422
G1 X-11.511 Y-9.86 E20.33685
G1 X-12.063 Y-9.508 E20.36951
G1 X-12.509 Y-9.032 E20.40205
G1 X-12.825 Y-8.461 E20.43461
G1 X-12.987 Y-7.826 E20.46731
G1 X-12.987 Y-7.174 E20.49984
G1 X-12.825 Y-6.539 E20.53253
G1 X-12.509 Y-5.968 E20.56509
G1 X-12.063 Y-5.492 E20.59763
G1 X-11.511 Y-5.14 E20.63029
G1 X-10.889 Y-4.938 E20.66292
G1 X-10.237 Y-4.898 E20.69551
G1 X-9.594 Y-5.018 E20.72814
G1 X-9.003 Y-5.299 E20.76079
G1 X-8.499 Y-5.715 E20.7934
G1 X-8.115 Y-6.244 E20.82601
G1 X-7.875 Y-6.852 E20.85862
G1 X-7.792 Y-7.5 E20.89121
G0 F3600 X-8.195 Y-7.5
G1 F1800 X-8.265 Y-8.048 E20.91877
G1 X-8.468 Y-8.562 E20.94635
G1 X-8.793 Y-9.009 E20.97392
G1 X-9.219 Y-9.361 E21.00149
G1 X-9.719 Y-9.598 E21.02909
G1 X-10.262 Y-9.7 E21.05666
G1 X-10.814 Y-9.666 E21.08425
G1 X-11.339 Y-9.495 E21.1118
G1 X-11.806 Y-9.198 E21.13941
G1 X-12.183 Y-8.795 E21.16694
G1 X-12.45 Y-8.312 E21.19447
G1 X-12.587 Y-7.776 E21.22207
G1 X-12.587 Y-7.224 E21.24961
G1 X-12.45 Y-6.688 E21.27721
G1 X-12.183 Y-6.205 E21.30475
G1 X-11.806 Y-5.802 E21.33228
G1 X-11.339 Y-5.505 E21.35989
G1 X-10.814 Y-5.334 E21.38744
G1 X-10.262 Y-5.3 E21.41503
G1 X-9.719 Y-5.402 E21.44259
G1 X-9.219 Y-5.639 E21.4702
G1 X-8.793 Y-5.991 E21.49777
G1 X-8.468 Y-6.438 E21.52534
G1 X-8.265 Y-6.952 E21.55291
G1 X-8.195 Y-7.5 E21.58047
G0 F3600 X-8.095 Y-7.5
G0 X-8.227 Y-8.057
G0 X-8.433 Y-8.581
G0 X-8.764 Y-9.036
G0 X-9.198 Y-9.394
G0 X-9.707 Y-9.636
G0 X-14.136 Y-10.988
G0 X-14.235 Y-10.99
G1 F1800 X-14.207 Y-11.509 E21.60641
G1 X-14.132 Y-12.03 E21.63267
G1 X-14.057 Y-12.349 E21.64901
G1 X-13.834 Y-13.006 E21.68363
G1 X-13.619 Y-13.459 E21.70865
G1 X-13.348 Y-13.912 E21.73498
G1 X-13.155 Y-14.181 E21.7515
G1 X-12.693 Y-14.709 E21.7865
G1 X-12.328 Y-15.04 E21.81108
G1 X-11.896 Y-15.359 E21.83788
G1 X-11.627 Y-15.526 E21.85367
G1 X-10.998 Y-15.837 E21.88868
G1 X-10.522 Y-16.007 E21.9139
G1 X-10.012 Y-16.136 E21.94014
G1 X-9.697 Y-16.188 E21.95607
G1 X-8.976 Y-16.235 E21.99212
G1 X8.988 Y-16.235 E22.88834
G1 X9.509 Y-16.207 E22.91437
G1 X10.029 Y-16.133 E22.94058
G1 X10.343 Y-16.059 E22.95667
G1 X11.006 Y-15.832 E22.99164
G1 X11.464 Y-15.616 E23.0169
G1 X11.912 Y-15.348 E23.04294
G1 X12.181 Y-15.155 E23.05946
G1 X12.707 Y-14.695 E23.09432
G1 X13.045 Y-14.319 E23.11955
G1 X13.349 Y-13.91 E23.14497
G1 X13.53 Y-13.622 E23.16194
G1 X13.836 Y-12.997 E23.19666
G1 X14.011 Y-12.515 E23.22224
G1 X14.133 Y-12.024 E23.24748
G1 X14.188 Y-11.697 E23.26403
G1 X14.235 Y-10.976 E23.30007
G1 X14.234 Y10.99 E24.39596
G1 X14.207 Y11.509 E24.42189
G1 X14.132 Y12.027 E24.448
G1 X14.057 Y12.346 E24.46435
G1 X13.832 Y13.007 E24.49919
G1 X13.619 Y13.461 E24.52421
G1 X13.348 Y13.912 E24.55046
G1 X13.155 Y14.181 E24.56697
G1 X12.695 Y14.706 E24.6018
G1 X12.318 Y15.045 E24.62709
G1 X11.905 Y15.353 E24.6528
G1 X11.622 Y15.53 E24.66945
G1 X11 Y15.837 E24.70405
G1 X10.523 Y16.009 E24.72935
G1 X10.015 Y16.135 E24.75546
G1 X9.697 Y16.188 E24.77155
G1 X8.976 Y16.235 E24.8076
G1 X-8.988 Y16.235 E25.70382
G1 X-9.509 Y16.207 E25.72985
G1 X-10.03 Y16.132 E25.75611
G1 X-10.345 Y16.058 E25.77226
G1 X-11.009 Y15.832 E25.80725
G1 X-11.47 Y15.615 E25.83267
G1 X-11.907 Y15.352 E25.85812
G1 X-12.18 Y15.157 E25.87485
G1 X-12.702 Y14.7 E25.90947
G1 X-13.049 Y14.313 E25.9354
G1 X-13.349 Y13.91 E25.96046
G1 X-13.53 Y13.622 E25.97743
G1 X-13.839 Y12.992 E26.01244
G1 X-14.006 Y12.527 E26.03709
G1 X-14.137 Y12.006 E26.06389
G1 X-14.186 Y11.701 E26.07931
G1 X-14.234 Y10.969 E26.1159
G1 X-14.235 Y-10.99 E27.21144
G0 F3600 X-14.136 Y-10.988
G0 X8.114 Y-7.788
G0 X8.213 Y-7.776
G1 F1800 X8.213 Y-7.224 E27.23898
G1 X8.35 Y-6.688 E27.26658
G1 X8.617 Y-6.205 E27.29412
G1 X8.994 Y-5.802 E27.32165
G1 X9.461 Y-5.505 E27.34926
G1 X9.986 Y-5.334 E27.37681
G1 X10.538 Y-5.3 E27.4044
G1 X11.081 Y-5.402 E27.43196
G1 X11.581 Y-5.639 E27.45957
G1 X12.007 Y-5.991 E27.48714
G1 X12.332 Y-6.438 E27.51471
G1 X12.535 Y-6.952 E27.54228
G1 X12.605 Y-7.5 E27.56984
G1 X12.535 Y-8.048 E27.59741
G1 X12.332 Y-8.562 E27.62498
G1 X12.007 Y-9.009 E27.65255
G1 X11.581 Y-9.361 E27.68012
G1 X11.081 Y-9.598 E27.70772
G1 X10.538 Y-9.7 E27.73529
G1 X9.986 Y-9.666 E27.76288
G1 X9.461 Y-9.495 E27.79043
G1 X8.994 Y-9.198 E27.81804
G1 X8.617 Y-8.795 E27.84557
G1 X8.35 Y-8.312 E27.8731
G1 X8.213 Y-7.776 E27.9007
G0 F3600 X8.613 Y-7.726
;TYPE:WALL-OUTER
G1 F1800 X8.613 Y-7.274 E27.92325
G1 X8.725 Y-6.837 E27.94576
G1 X8.943 Y-6.442 E27.96827
G1 X9.251 Y-6.112 E27.99079
G1 X9.633 Y-5.87 E28.01335
G1 X10.062 Y-5.73 E28.03586
G1 X10.513 Y-5.702 E28.05841
G1 X10.956 Y-5.786 E28.0809
G1 X11.365 Y-5.979 E28.10347
G1 X11.713 Y-6.267 E28.126
G1 X11.979 Y-6.632 E28.14854
G1 X12.145 Y-7.052 E28.17107
G1 X12.202 Y-7.5 E28.1936
G1 X12.145 Y-7.948 E28.21613
G1 X11.979 Y-8.368 E28.23866
G1 X11.713 Y-8.733 E28.26119
G1 X11.365 Y-9.021 E28.28373
G1 X10.956 Y-9.214 E28.30629
G1 X10.513 Y-9.298 E28.32879
G1 X10.062 Y-9.27 E28.35133
G1 X9.633 Y-9.13 E28.37384
G1 X9.251 Y-8.888 E28.3964
G1 X8.943 Y-8.558 E28.41893
G1 X8.725 Y-8.163 E28.44143
G1 X8.613 Y-7.726 E28.46394
G0 F3600 X8.613 Y-7.526
G0 X8.113 Y-7.526
G0 X8.313 Y-8.326
G0 X8.585 Y-8.818
G0 X8.969 Y-9.228
G0 X9.444 Y-9.531
G0 X14.136 Y-10.973
G0 X14.635 Y-10.987
G1 F1800 X14.634 Y10.99 E29.56038
G1 X14.605 Y11.554 E29.58855
G1 X14.526 Y12.098 E29.61598
G1 X14.44 Y12.463 E29.63469
G1 X14.205 Y13.154 E29.6711
G1 X13.971 Y13.651 E29.69851
G1 X13.684 Y14.129 E29.72632
G1 X13.466 Y14.434 E29.74503
G1 X12.982 Y14.986 E29.78165
G1 X12.571 Y15.356 E29.80924
G1 X12.135 Y15.681 E29.83637
G1 X11.813 Y15.882 E29.85531
G1 X11.16 Y16.204 E29.89163
G1 X10.638 Y16.392 E29.91931
G1 X10.092 Y16.528 E29.94739
G1 X9.748 Y16.585 E29.96478
G1 X8.987 Y16.635 E30.00283
G1 X-8.99 Y16.635 E30.89971
G1 X-9.554 Y16.605 E30.92788
G1 X-10.098 Y16.526 E30.95531
G1 X-10.464 Y16.44 E30.97407
G1 X-11.155 Y16.205 E31.01048
G1 X-11.66 Y15.968 E31.03831
G1 X-12.127 Y15.687 E31.0655
G1 X-12.431 Y15.47 E31.08414
G1 X-12.982 Y14.987 E31.12069
G1 X-13.36 Y14.566 E31.14892
G1 X-13.681 Y14.135 E31.17573
G1 X-13.878 Y13.821 E31.19422
G1 X-14.206 Y13.151 E31.23144
G1 X-14.391 Y12.637 E31.2587
G1 X-14.529 Y12.09 E31.28684
G1 X-14.584 Y11.747 E31.30417
G1 X-14.634 Y10.987 E31.34217
G1 X-14.635 Y-10.99 E32.43861
G1 X-14.605 Y-11.554 E32.46678
G1 X-14.526 Y-12.098 E32.49421
G1 X-14.44 Y-12.464 E32.51297
G1 X-14.207 Y-13.152 E32.54921
G1 X-13.969 Y-13.654 E32.57692
G1 X-13.684 Y-14.129 E32.60456
G1 X-13.47 Y-14.428 E32.6229
G1 X-12.977 Y-14.992 E32.66028
G1 X-12.579 Y-15.352 E32.68705
G1 X-12.125 Y-15.688 E32.71523
G1 X-11.821 Y-15.877 E32.73309
G1 X-11.153 Y-16.207 E32.77026
G1 X-10.641 Y-16.39 E32.79739
G1 X-10.092 Y-16.528 E32.82563
G1 X-9.748 Y-16.585 E32.84302
G1 X-8.987 Y-16.635 E32.88107
G1 X8.99 Y-16.635 E33.77795
G1 X9.554 Y-16.605 E33.80613
G1 X10.099 Y-16.527 E33.83359
G1 X10.46 Y-16.442 E33.8521
G1 X11.157 Y-16.204 E33.88884
G1 X11.651 Y-15.971 E33.91609
G1 X12.129 Y-15.684 E33.94391
G1 X12.428 Y-15.47 E33.96225
G1 X12.986 Y-14.982 E33.99923
G1 X13.36 Y-14.566 E34.02714
G1 X13.681 Y-14.135 E34.05395
G1 X13.878 Y-13.821 E34.07245
G1 X14.206 Y-13.151 E34.10966
G1 X14.393 Y-12.636 E34.137
G1 X14.528 Y-12.09 E34.16506
G1 X14.585 Y-11.749 E34.18231
G1 X14.635 Y-10.987 E34.22041
G0 F3600 X14.635 Y-10.787
G0 X14.135 Y-10.788
G0 X-8.19 Y-8.13
G0 X-8.655 Y-7.948
G1 F1800 X-8.821 Y-8.368 E34.24294
G1 X-9.087 Y-8.733 E34.26547
G1 X-9.435 Y-9.021 E34.28801
G1 X-9.844 Y-9.214 E34.31057
G1 X-10.287 Y-9.298 E34.33306
G1 X-10.738 Y-9.27 E34.35561
