;FLAVOR:RepRap
;TIME:560
;Filament used: 0.352456m
;Layer height: 0.2
;Generated with Cura_SteamEngine 0.0.0-master
M104 S200
M109 S200
;Sliced at: Sat 24-02-2018 13:28:11 
 ;Basic settings: Layer height: 0.2 Walls: 1.2 Fill: {fill_density} 
 ;Print time: 00:09:21 
 ;Filament used: [0.35]m [1.051218173828125]g 
 ;Filament cost: [0] 
 ;M190 S60 ;Uncomment to add your own bed temperature line 
 ;M109 S200 ;Uncomment to add your own temperature line 
 G21        ;metric values 
 G90        ;absolute positioning 
 M82        ;set extruder to absolute mode 
 M107       ;start with the fan off 
 G28 X0 Y0  ;move X/Y to min endstops 
 G28 Z0     ;move Z to min endstops 
 G1 Z15.0 F3000 ;move the platform down 15mm 
 G92 E0                  ;zero the extruded length 
 G1 F3000 E3              ;extrude 3mm of feed stock 
 G92 E0                  ;zero the extruded length again 
 G1 F3000 
 ;Put printing message on LCD screen 
 M117 Printing...
;LAYER_COUNT:89
;LAYER:0
M107
G0 F3600 X10.376 Y5.354 Z0.299
;TYPE:SKIRT
G1 F1800 X10.336 Y5.945 E0.02955
G1 X10.217 Y6.526 E0.05914
G1 X10.083 Y6.932 E0.08047
G1 X9.932 Y7.325 E0.10147
G1 X9.683 Y7.863 E0.13105
G1 X9.363 Y8.363 E0.16067
G1 X8.979 Y8.815 E0.19026
G1 X8.538 Y9.211 E0.21983
G1 X8.048 Y9.544 E0.24938
G1 X7.749 Y9.704 E0.2663
G1 X3.171 Y11.93 E0.52027
G1 X2.622 Y12.153 E0.54983
G1 X2.047 Y12.3 E0.57944
G1 X1.268 Y12.373 E0.61848
G1 X-1.199 Y12.385 E0.74156
G1 X-1.79 Y12.348 E0.7711
G1 X-2.372 Y12.232 E0.80071
G1 X-3.106 Y11.96 E0.83976
G1 X-7.651 Y9.804 E1.09073
G1 X-8.168 Y9.515 E1.12028
G1 X-8.642 Y9.158 E1.14988
G1 X-9.028 Y8.78 E1.17684
G1 X-12.19 Y5.284 E1.41201
G1 X-12.557 Y4.819 E1.44157
G1 X-12.859 Y4.308 E1.47118
G1 X-13.089 Y3.762 E1.50074
G1 X-13.243 Y3.189 E1.53034
G1 X-13.327 Y2.333 E1.57325
G1 X-13.327 Y-2.328 E1.80579
G1 X-13.287 Y-2.92 E1.83539
G1 X-13.168 Y-3.5 E1.86493
G1 X-12.972 Y-4.06 E1.89453
G1 X-12.702 Y-4.588 E1.92412
G1 X-12.173 Y-5.299 E1.96833
G1 X-8.998 Y-8.768 E2.20294
G1 X-8.569 Y-9.177 E2.23252
G1 X-8.089 Y-9.525 E2.26209
G1 X-7.733 Y-9.726 E2.28249
G1 X-7.38 Y-9.904 E2.30221
G1 X-6.834 Y-10.134 E2.33177
G1 X-6.262 Y-10.29 E2.36135
G1 X-5.399 Y-10.375 E2.40462
G1 X5.354 Y-10.376 E2.94108
G1 X5.945 Y-10.336 E2.97064
G1 X6.526 Y-10.217 E3.00023
G1 X6.904 Y-10.094 E3.02006
G1 X7.292 Y-9.948 E3.04074
G1 X7.831 Y-9.702 E3.0703
G1 X8.333 Y-9.386 E3.09989
G1 X8.788 Y-9.006 E3.12947
G1 X9.187 Y-8.567 E3.15906
G1 X9.615 Y-7.919 E3.19781
G1 X9.848 Y-7.487 E3.2223
G1 X10.093 Y-6.947 E3.25188
G1 X10.264 Y-6.379 E3.28147
G1 X10.357 Y-5.794 E3.31103
G1 X10.375 Y-5.398 E3.3308
G1 X10.376 Y5.354 E3.86722
G0 F3600 X9.976 Y5.354
G1 F1800 X9.936 Y5.918 E3.89543
G1 X9.817 Y6.47 E3.9236
G1 X9.71 Y6.789 E3.94039
G1 X9.559 Y7.182 E3.96139
G1 X9.319 Y7.694 E3.9896
G1 X9.01 Y8.167 E4.01779
G1 X8.637 Y8.592 E4.046
G1 X8.208 Y8.96 E4.0742
G1 X7.574 Y9.344 E4.11118
G1 X2.996 Y11.57 E4.36515
G1 X2.472 Y11.781 E4.39333
G1 X1.922 Y11.916 E4.42158
G1 X1.266 Y11.973 E4.45444
G1 X-1.201 Y11.985 E4.57752
G1 X-1.765 Y11.948 E4.60571
G1 X-2.318 Y11.831 E4.63391
G1 X-2.934 Y11.599 E4.66675
G1 X-7.479 Y9.443 E4.91772
G1 X-7.972 Y9.165 E4.94596
G1 X-8.42 Y8.821 E4.97414
G1 X-8.732 Y8.512 E4.99605
G1 X-11.894 Y5.016 E5.23122
G1 X-12.242 Y4.571 E5.25941
G1 X-12.525 Y4.081 E5.28764
G1 X-12.735 Y3.557 E5.3158
G1 X-12.87 Y3.008 E5.34401
G1 X-12.927 Y2.333 E5.3778
G1 X-12.927 Y-2.328 E5.61034
G1 X-12.887 Y-2.892 E5.63855
G1 X-12.768 Y-3.445 E5.66677
G1 X-12.572 Y-3.975 E5.69496
G1 X-12.304 Y-4.472 E5.72313
G1 X-11.878 Y-5.029 E5.75812
G1 X-8.703 Y-8.498 E5.99273
G1 X-8.292 Y-8.887 E6.02096
G1 X-7.832 Y-9.214 E6.04912
G1 X-7.553 Y-9.369 E6.06504
G1 X-7.2 Y-9.547 E6.08477
G1 X-6.678 Y-9.765 E6.11299
G1 X-6.131 Y-9.907 E6.14119
G1 X-5.399 Y-9.975 E6.17786
G1 X5.354 Y-9.976 E6.71433
G1 X5.918 Y-9.936 E6.74254
G1 X6.47 Y-9.817 E6.77071
G1 X6.763 Y-9.72 E6.78611
G1 X7.151 Y-9.574 E6.80679
G1 X7.664 Y-9.338 E6.83496
G1 X8.14 Y-9.032 E6.8632
G1 X8.567 Y-8.662 E6.89138
G1 X8.938 Y-8.235 E6.91961
G1 X9.263 Y-7.729 E6.94961
G1 X9.496 Y-7.297 E6.9741
G1 X9.728 Y-6.782 E7.00228
G1 X9.886 Y-6.239 E7.03049
G1 X9.975 Y-5.398 E7.07268
G1 X9.976 Y5.354 E7.6091
G0 F3600 X9.576 Y5.354
G1 F1800 X9.536 Y5.888 E7.63582
G1 X9.336 Y6.645 E7.67488
G1 X9.185 Y7.038 E7.69588
G1 X8.956 Y7.523 E7.72264
G1 X8.658 Y7.969 E7.7494
G1 X8.296 Y8.365 E7.77617
G1 X7.88 Y8.703 E7.80291
G1 X7.399 Y8.985 E7.83073
G1 X2.821 Y11.211 E8.0847
G1 X2.323 Y11.408 E8.11141
G1 X1.801 Y11.53 E8.13816
G1 X1.265 Y11.573 E8.16499
G1 X-1.202 Y11.585 E8.28807
G1 X-1.737 Y11.548 E8.31482
G1 X-2.261 Y11.431 E8.34161
G1 X-2.763 Y11.238 E8.36844
G1 X-7.308 Y9.082 E8.61941
G1 X-7.774 Y8.816 E8.64618
G1 X-8.195 Y8.485 E8.6729
G1 X-8.435 Y8.244 E8.68987
G1 X-11.597 Y4.748 E8.92504
G1 X-11.926 Y4.324 E8.95182
G1 X-12.189 Y3.857 E8.97855
G1 X-12.379 Y3.355 E9.00533
G1 X-12.492 Y2.831 E9.03208
G1 X-12.527 Y2.333 E9.05698
G1 X-12.527 Y-2.328 E9.28952
G1 X-12.487 Y-2.863 E9.31629
G1 X-12.368 Y-3.386 E9.34305
G1 X-12.173 Y-3.885 E9.36978
G1 X-11.905 Y-4.35 E9.39655
G1 X-11.583 Y-4.759 E9.42252
G1 X-8.408 Y-8.228 E9.65714
G1 X-8.017 Y-8.595 E9.68389
G1 X-7.373 Y-9.011 E9.72214
G1 X-7.02 Y-9.189 E9.74186
G1 X-6.524 Y-9.395 E9.76866
G1 X-6.004 Y-9.524 E9.79539
G1 X-5.399 Y-9.575 E9.82568
G1 X5.354 Y-9.576 E10.36215
G1 X5.888 Y-9.536 E10.38886
G1 X6.622 Y-9.345 E10.4267
G1 X7.01 Y-9.199 E10.44738
G1 X7.496 Y-8.974 E10.4741
G1 X7.944 Y-8.678 E10.50089
G1 X8.343 Y-8.319 E10.52767
G1 X8.683 Y-7.906 E10.55436
G1 X8.911 Y-7.539 E10.57591
G1 X9.144 Y-7.107 E10.6004
G1 X9.362 Y-6.617 E10.62716
G1 X9.506 Y-6.101 E10.65389
G1 X9.575 Y-5.398 E10.68913
G1 X9.576 Y5.354 E11.22555
G0 F3600 X9.176 Y5.354
G1 F1800 X9.136 Y5.858 E11.25077
G1 X8.963 Y6.502 E11.28404
G1 X8.812 Y6.895 E11.30504
G1 X8.594 Y7.351 E11.33026
G1 X8.307 Y7.767 E11.35547
G1 X7.958 Y8.133 E11.3807
G1 X7.555 Y8.439 E11.40595
G1 X7.224 Y8.625 E11.42489
G1 X2.646 Y10.851 E11.67886
G1 X2.176 Y11.035 E11.70404
G1 X1.682 Y11.143 E11.72927
G1 X1.263 Y11.173 E11.75022
G1 X-1.204 Y11.185 E11.8733
G1 X-1.709 Y11.147 E11.89857
G1 X-2.201 Y11.031 E11.92379
G1 X-2.591 Y10.876 E11.94473
G1 X-7.136 Y8.72 E12.1957
G1 X-7.575 Y8.468 E12.22095
G1 X-8.138 Y7.976 E12.25825
G1 X-11.3 Y4.48 E12.49343
G1 X-11.609 Y4.079 E12.51868
G1 X-11.85 Y3.635 E12.54389
G1 X-12.019 Y3.158 E12.56913
G1 X-12.11 Y2.661 E12.59434
G1 X-12.127 Y2.333 E12.61073
G1 X-12.127 Y-2.328 E12.84327
G1 X-12.087 Y-2.832 E12.86849
G1 X-11.968 Y-3.323 E12.89369
G1 X-11.774 Y-3.79 E12.91892
G1 X-11.508 Y-4.22 E12.94415
G1 X-11.288 Y-4.489 E12.96149
G1 X-8.113 Y-7.958 E13.1961
G1 X-7.743 Y-8.302 E13.22131
G1 X-7.193 Y-8.654 E13.25388
G1 X-6.84 Y-8.832 E13.27361
G1 X-6.372 Y-9.024 E13.29884
G1 X-5.88 Y-9.139 E13.32405
G1 X-5.399 Y-9.175 E13.34812
G1 X5.354 Y-9.176 E13.88459
G1 X5.858 Y-9.136 E13.90981
G1 X6.481 Y-8.971 E13.94196
G1 X6.869 Y-8.825 E13.96265
G1 X7.327 Y-8.61 E13.98789
G1 X7.745 Y-8.326 E14.0131
G1 X8.113 Y-7.979 E14.03833
G1 X8.422 Y-7.579 E14.06355
G1 X8.558 Y-7.349 E14.07688
G1 X8.791 Y-6.917 E14.10137
G1 X8.996 Y-6.455 E14.12659
G1 X9.124 Y-5.966 E14.1518
G1 X9.175 Y-5.398 E14.18026
G1 X9.176 Y5.354 E14.71668
G1 F3600 E6.71668
G0 F3600 X6.648 Y5.031
G0 X6.569 Y5.021
G0 X4.671 Y4.779
G0 X4.592 Y4.769
G0 X2.48 Y4.501
;TYPE:SUPPORT
G1 F3600 E14.71668
G1 F1800 X-1.291 Y4.501 E14.90481
G1 X-1.083 Y4.006 E14.9316
G1 X-0.05 Y4.007 E14.98314
G1 X2.687 Y4.011 E15.11968
G1 X2.48 Y4.501 E15.14622
G0 F3600 X0.00 Y4.341
G1 F1800 X0.00 Y4.168 E15.15485
G1 F3600 E7.15485
G0 F3600 X0.171 Y4.735
G0 X0.194 Y4.812
G0 X0.724 Y6.572
G0 X0.747 Y6.648
G0 X1.092 Y7.795
G1 F3600 E15.15485
G1 F1800 X-1.091 Y7.795 E15.26376
G1 X-1.469 Y6.884 E15.31297
G1 X1.476 Y6.884 E15.4599
G1 X1.092 Y7.795 E15.50922
G0 F3600 X0.00 Y7.635
G1 F1800 X0.00 Y7.044 E15.53871
G1 F3600 E7.53871
G0 F3600 X-5.577 Y6.627
G0 X-6.059 Y6.459
G0 X-6.296 Y6.266
G0 X-6.649 Y5.453
G0 X-7.299 Y2.137
G1 F3600 E15.53871
G1 F1800 X-8.737 Y2.137 E15.61045
G1 X-8.737 Y-2.137 E15.82368
G1 X-7.299 Y-2.137 E15.89542
G1 X-7.299 Y2.137 E16.10865
G0 F3600 X-7.998 Y1.977
G1 F1800 X-7.998 Y-1.977 E16.30592
G0 F3600 X-7.459 Y0.00
G1 F1800 X-8.577 Y0.00 E16.36169
G1 F3600 E8.36169
G0 F3600 X-6.65 Y0.00
G0 X-5.365 Y0.00
G0 X-4.985 Y1.1
;TYPE:WALL-INNER
G1 F3600 E16.36169
G1 F1800 X-4.985 Y-4.985 E16.66528
G1 X4.985 Y-4.985 E17.16268
G1 X4.985 Y1.1 E17.46626
G1 X-4.985 Y1.1 E17.96367
G0 F3600 X-5.385 Y1.5
G1 F1800 X-5.385 Y-5.326 E18.30422
G1 X-5.289 Y-5.385 E18.30984
G1 X5.326 Y-5.385 E18.83943
G1 X5.385 Y-5.289 E18.84505
G1 X5.385 Y1.5 E19.18375
G1 X-5.385 Y1.5 E19.72107
G0 F3600 X-5.6 Y1.9
;TYPE:WALL-OUTER
G1 F1800 X-5.6 Y5.359 E19.89364
G1 X-5.6 Y5.6 E19.90566
G1 X-5.367 Y5.6 E19.91392
G1 X5.375 Y5.6 E20.44984
G1 X5.42 Y5.6 E20.45208
G1 X5.6 Y5.6 E20.46106
G1 X5.6 Y5.565
G1 X5.6 Y5.511
G1 X5.6 Y5.378 E20.46309
G1 X5.6 Y1.9 E20.63661
G1 X-5.6 Y1.9 E21.19538
G0 F3600 X-5.6 Y2.1
G0 X-5.785 Y1.9
G1 F1800 X-5.785 Y-5.378 E21.55848
G1 X-5.757 Y-5.511 E21.56526
G1 X-5.734 Y-5.565 E21.56819
G1 X-5.705 Y-5.599 E21.57042
G1 X-5.42 Y-5.773 E21.58708
G1 X-5.375 Y-5.785 E21.5894
G1 X5.378 Y-5.785 E22.12587
G1 X5.511 Y-5.757 E22.13265
G1 X5.565 Y-5.734 E22.13558
G1 X5.599 Y-5.705 E22.13781
G1 X5.773 Y-5.42 E22.15447
G1 X5.785 Y-5.375 E22.15679
G1 X5.785 Y1.9 E22.51974
G1 X5.785 Y5.378 E22.59839
G1 X5.757 Y5.511
G1 X5.734 Y5.565
G1 X5.705 Y5.599
G1 X5.628 Y5.646
G1 X5.42 Y5.773
G1 X5.375 Y5.785
G1 X-5.367 Y5.785 E22.84394
G1 X-5.631 Y5.694 E22.84681
G1 X-5.657 Y5.65
G1 X-5.665 Y5.63
G1 X-5.785 Y5.359
G1 X-5.785 Y1.9 E22.92662
G0 F3600 X-5.785 Y1.7
G0 X-5.315 Y1.43
G0 X-4.785 Y0.9
G0 X-4.77 Y0.885
G1 F1800 X-4.487 Y0.602 E22.95133
;TYPE:SKIN
G1 X-4.874 Y0.216
G0 F3600 X-4.804 Y-0.279
G1 F1800 X-3.605 Y0.919 E23.03589
G1 X-3.535 Y0.989
G0 F3600 X-3.039 Y0.919
G1 F1800 X-4.804 Y-0.844 E23.16035
G1 X-4.874 Y-0.914
G0 F3600 X-4.804 Y-1.41
G1 F1800 X-2.474 Y0.919 E23.32471
G1 X-2.404 Y0.989
G0 F3600 X-1.908 Y0.919
G1 F1800 X-4.804 Y-1.976 E23.529
G1 X-4.874 Y-2.046
G0 F3600 X-4.804 Y-2.542
G1 F1800 X-1.342 Y0.919 E23.77323
G1 X-1.272 Y0.989
G0 F3600 X-0.777 Y0.919
G1 F1800 X-4.804 Y-3.107 E24.05732
G1 X-4.874 Y-3.177
G0 F3600 X-4.804 Y-3.673
G1 F1800 X-0.211 Y0.919 E24.38135
G1 X-0.141 Y0.989
G0 F3600 X0.354 Y0.919
G1 F1800 X-4.804 Y-4.239 E24.74527
G1 X-4.874 Y-4.309
G0 F3600 X-4.804 Y-4.804
G1 F1800 X0.919 Y0.919 E25.14906
G1 X0.989 Y0.989
G0 F3600 X1.485 Y0.919
G1 F1800 X-4.239 Y-4.804 E25.55288
G1 X-4.309 Y-4.874
G0 F3600 X-3.673 Y-4.804
G1 F1800 X2.051 Y0.919 E25.95671
G1 X2.121 Y0.989
G0 F3600 X2.617 Y0.919
G1 F1800 X-3.107 Y-4.804 E26.36053
G1 X-3.177 Y-4.874
G0 F3600 X-2.542 Y-4.804
G1 F1800 X3.182 Y0.919 E26.76436
G1 X3.252 Y0.989
G0 F3600 X3.748 Y0.919
G1 F1800 X-1.976 Y-4.804 E27.16818
G1 X-2.046 Y-4.874
G0 F3600 X-1.41 Y-4.804
G1 F1800 X4.314 Y0.919 E27.572
G1 X4.384 Y0.989
G0 F3600 X4.804 Y0.844
G1 F1800 X-0.844 Y-4.804 E27.9705
G1 X-0.914 Y-4.874
G0 F3600 X-0.279 Y-4.804
G1 F1800 X4.804 Y0.279 E28.32913
G1 X4.874 Y0.349
G0 F3600 X4.804 Y-0.286
G1 F1800 X0.286 Y-4.804 E28.6479
G1 X0.216 Y-4.874
G0 F3600 X0.852 Y-4.804
G1 F1800 X4.804 Y-0.852 E28.92674
G1 X4.874 Y-0.782
G0 F3600 X4.804 Y-1.417
G1 F1800 X1.417 Y-4.804 E29.16571
G1 X1.347 Y-4.874
G0 F3600 X1.983 Y-4.804
G1 F1800 X4.804 Y-1.983 E29.36474
G1 X4.874 Y-1.913
G0 F3600 X4.804 Y-2.549
G1 F1800 X2.549 Y-4.804 E29.52385
G1 X2.479 Y-4.874
G0 F3600 X3.114 Y-4.804
G1 F1800 X4.804 Y-3.114 E29.64309
G1 X4.874 Y-3.044
G0 F3600 X4.804 Y-3.68
G1 F1800 X3.68 Y-4.804 E29.72239
G1 X3.61 Y-4.874
G0 F3600 X4.246 Y-4.804
G1 F1800 X4.804 Y-4.246 E29.76176
G1 F3600 E21.76176
G0 F3600 X-0.049 Y1.48
G0 X-0.049 Y2.765
G0 X-0.049 Y4.007
;TIME_ELAPSED:23.514932
;LAYER:1
M106 S255
G0 F5400 X-0.049 Y4.007 Z0.499
;TYPE:SUPPORT
G1 F3600 E29.76176
G1 F2700 X0.00 Y4.008 E29.76339
G1 X1.107 Y4.009 E29.80021
G1 X1.317 Y4.501 E29.818
G1 X0.00 Y4.501 E29.86181
G1 X0.00 Y4.008 E29.8782
G0 F5400 X-0.049 Y4.007
G1 F2700 X-1.083 Y4.006 E29.91259
G1 X-1.291 Y4.501 E29.93045
G1 X0.00 Y4.501 E29.97339
G1 F3600 E21.97339
G0 F5400 X0.00 Y4.735
G0 X0.00 Y4.815
G0 X0.00 Y6.772
G0 X0.00 Y6.852
G0 X0.00 Y7.085
G1 F3600 E29.97339
G1 F2700 X0.00 Y7.795 E29.99701
G1 X-1.091 Y7.795 E30.03329
G1 X-1.387 Y7.084 E30.05891
G1 X0.00 Y7.085 E30.10504
G1 X1.391 Y7.086 E30.1513
G1 X1.092 Y7.795 E30.1769
G1 X0.00 Y7.795 E30.21322
G1 F3600 E22.21322
G0 F5400 X-5.683 Y6.821
G0 X-6.292 Y6.494
G0 X-6.652 Y6.053
G0 X-6.848 Y5.477
G0 X-7.299 Y2.137
G1 F3600 E30.21322
G1 F2700 X-7.998 Y2.137 E30.23647
G1 X-7.998 Y-2.137 E30.37862
G1 X-7.299 Y-2.137 E30.40187
G1 X-7.299 Y2.137 E30.54402
G0 F5400 X-7.998 Y2.137
G1 F2700 X-8.737 Y2.137 E30.5686
G1 X-8.737 Y-2.137 E30.71076
G1 X-7.998 Y-2.137 E30.73533
G1 F3600 E22.73533
G0 F5400 X-6.853 Y-2.137
G0 X-5.568 Y-2.137
G0 X-5.188 Y-4.989
;TYPE:WALL-INNER
G1 F3600 E30.73533
G1 F2700 X-5.188 Y-5.189 E30.74199
G1 X-4.988 Y-5.189 E30.74629
G1 X4.989 Y-5.188 E31.07813
G1 X5.189 Y-5.188 E31.08478
G1 X5.189 Y-4.988 E31.08909
G1 X5.188 Y1.1 E31.29158
G1 X-5.188 Y1.1 E31.63668
G1 X-5.188 Y-4.989 E31.8392
G0 F5400 X-5.588 Y-5.29
G1 F2700 X-5.588 Y-5.301 E31.83957
G1 X-5.528 Y-5.458 E31.84516
G1 X-5.425 Y-5.574 E31.85032
G1 X-5.344 Y-5.589 E31.85306
G1 X-5.333 Y-5.589 E31.85343
G1 X5.292 Y-5.588 E32.20682
G1 X5.304 Y-5.588 E32.20721
G1 X5.458 Y-5.527 E32.21272
G1 X5.574 Y-5.425 E32.21786
G1 X5.589 Y-5.344 E32.2206
G1 X5.589 Y-5.332 E32.221
G1 X5.588 Y1.5 E32.44823
G1 X-5.588 Y1.5 E32.81995
G1 X-5.588 Y-5.29 E33.04579
G0 F5400 X-5.946 Y-5.494
;TYPE:WALL-OUTER
G1 F1800 X-5.872 Y-5.673 E33.05223
G1 X-5.681 Y-5.888 E33.06179
G1 X-5.632 Y-5.926 E33.06385
G1 X-5.536 Y-5.96 E33.06724
G1 X-5.379 Y-5.989 E33.07255
G1 X5.367 Y-5.988 E33.42997
G1 X5.496 Y-5.945 E33.43449
G1 X5.673 Y-5.872 E33.44086
G1 X5.888 Y-5.681 E33.45042
G1 X5.926 Y-5.632 E33.45248
G1 X5.96 Y-5.536 E33.45587
G1 X5.989 Y-5.379 E33.46118
G1 X5.989 Y1.9 E33.70328
G1 X5.988 Y5.367 E33.81859
G1 X5.946 Y5.494 E33.82304
G1 X5.872 Y5.673 E33.82949
G1 X5.789 Y5.767 E33.83366
G1 X5.681 Y5.888 E33.83905
G1 X5.632 Y5.926 E33.84111
G1 X5.536 Y5.96 E33.8445
G1 X5.379 Y5.989 E33.84981
G1 X-5.457 Y5.983 E34.21022
G1 X-5.543 Y5.951 E34.21327
G1 X-5.743 Y5.821 E34.2212
G1 X-5.765 Y5.807 E34.22207
G1 X-5.803 Y5.757 E34.22416
G1 X-5.89 Y5.643 E34.22893
G1 X-5.977 Y5.458 E34.23573
G1 X-5.988 Y5.385 E34.23818
G1 X-5.988 Y1.9 E34.3541
G1 X-5.988 Y-5.367 E34.5958
G1 X-5.946 Y-5.494 E34.60025
G0 F5400 X-5.872 Y-5.673
G0 X-5.868 Y-5.678
G0 X-5.443 Y-5.407
G0 X-5.518 Y1.43
G0 X-5.6 Y1.9
G1 F1800 X-5.6 Y5.385 E34.71252
G1 X-5.6 Y5.458 E34.7135
G1 X-5.6 Y5.6 E34.71494
G1 X-5.543 Y5.6
G1 X-5.457 Y5.6
G1 X5.379 Y5.6 E35.06267
G1 X5.536 Y5.6 E35.06645
G1 X5.6 Y5.6
G1 X5.6 Y5.494
G1 X5.6 Y5.367 E35.0675
G1 X5.6 Y1.9 E35.1795
G1 X-5.6 Y1.9 E35.55201
G0 F5400 X-5.6 Y2.1
G0 X-5.518 Y1.43
G0 X-4.988 Y-4.989
G0 X-4.608 Y-5.008
;TYPE:SKIN
G1 F1800 X-5.007 Y-4.608 E35.5708
G0 F5400 X-5.007 Y-4.043
G1 F1800 X-4.042 Y-5.008 E35.61619
G1 X-3.972 Y-5.078
G0 F5400 X-3.476 Y-5.008
G1 F1800 X-5.007 Y-3.477 E35.68821
G1 X-5.077 Y-3.407
G0 F5400 X-5.007 Y-2.911
G1 F1800 X-2.911 Y-5.008 E35.78682
G1 X-2.841 Y-5.078
G0 F5400 X-2.345 Y-5.008
G1 F1800 X-5.007 Y-2.346 E35.91203
G1 X-5.077 Y-2.276
G0 F5400 X-5.007 Y-1.781
G1 F1800 X-1.779 Y-5.008 E36.06385
G1 X-1.709 Y-5.078
G0 F5400 X-1.214 Y-5.008
G1 F1800 X-5.007 Y-1.215 E36.24226
G1 X-5.077 Y-1.145
G0 F5400 X-5.007 Y-0.649
G1 F1800 X-0.648 Y-5.008 E36.44729
G1 X-0.578 Y-5.078
G0 F5400 X-0.082 Y-5.008
G1 F1800 X-5.007 Y-0.084 E36.67892
G1 X-5.077 Y-0.014
G0 F5400 X-5.007 Y0.481
G1 F1800 X0.482 Y-5.008 E36.93711
G1 X0.552 Y-5.078
G0 F5400 X1.048 Y-5.008
G1 F1800 X-4.879 Y0.919 E37.2159
G1 X-4.949 Y0.989
G0 F5400 X-4.314 Y0.919
G1 F1800 X1.614 Y-5.008 E37.49471
G1 X1.684 Y-5.078
G0 F5400 X2.18 Y-5.008
G1 F1800 X-3.748 Y0.919 E37.77352
G1 X-3.818 Y0.989
G0 F5400 X-3.182 Y0.919
G1 F1800 X2.745 Y-5.008 E38.05231
G1 X2.815 Y-5.078
G0 F5400 X3.311 Y-5.008
G1 F1800 X-2.617 Y0.919 E38.33112
G1 X-2.687 Y0.989
G0 F5400 X-2.051 Y0.919
G1 F1800 X3.877 Y-5.008 E38.60993
G1 X3.947 Y-5.078
G0 F5400 X4.442 Y-5.008
