;FLAVOR:RepRap
;TIME:4814
;Filament used: 5.03983m
;Layer height: 0.2
;Generated with Cura_SteamEngine 0.0.0-master
M104 S200
M109 S200
;Sliced at: Mon 12-02-2018 13:06:24 
 ;Basic settings: Layer height: 0.2 Walls: 1.2 Fill: {fill_density} 
 ;Print time: 01:20:14 
 ;Filament used: [5.04]m [15.03155609375]g 
 ;Filament cost: [0] 
 ;M190 S60 ;Uncomment to add your own bed temperature line 
 ;M109 S200 ;Uncomment to add your own temperature line 
 G21        ;metric values 
 G90        ;absolute positioning 
 M82        ;set extruder to absolute mode 
 M107       ;start with the fan off 
 G28 X0 Y0  ;move X/Y to min endstops 
 G28 Z0     ;move Z to min endstops 
 G1 Z15.0 F3000 ;move the platform down 15mm 
 G92 E0                  ;zero the extruded length 
 G1 F3000 E3              ;extrude 3mm of feed stock 
 G92 E0                  ;zero the extruded length again 
 G1 F3000 
 ;Put printing message on LCD screen 
 M117 Printing...
;LAYER_COUNT:110
;LAYER:0
M107
G0 F3600 X-11.76 Y28.51 Z0.299
;TYPE:SKIRT
G1 F1800 X-16.887 Y26.448 E0.2757
G1 X-19.364 Y25.574 E0.40674
G1 X-25.432 Y23.737 E0.72305
G1 X-25.795 Y23.605 E0.74232
G1 X-26.893 Y23.139 E0.80183
G1 X-27.552 Y22.774 E0.83941
G1 X-28.266 Y22.274 E0.8829
G1 X-28.797 Y21.819 E0.91778
G1 X-29.561 Y21.024 E0.97279
G1 X-29.902 Y20.611 E0.99951
G1 X-30.088 Y20.321 E1.0167
G1 X-30.735 Y19.193 E1.08158
G1 X-30.966 Y18.709 E1.10833
G1 X-31.089 Y18.334 E1.12802
G1 X-31.425 Y17.08 E1.19279
G1 X-31.525 Y16.553 E1.21955
G1 X-31.548 Y16.154 E1.23949
G1 X-31.6 Y-14.787 E2.78315
G1 X-31.597 Y-14.933 E2.79043
G1 X-31.544 Y-16.294 E2.85839
G1 X-31.46 Y-16.939 E2.89084
G1 X-31.275 Y-17.767 E2.93316
G1 X-31.117 Y-18.288 E2.96033
G1 X-30.871 Y-18.92 E2.99416
G1 X-30.599 Y-19.474 E3.02495
G1 X-30.041 Y-20.399 E3.07885
G1 X-29.609 Y-20.974 E3.11473
G1 X-29.033 Y-21.601 E3.1572
G1 X-28.522 Y-22.061 E3.19151
G1 X-27.636 Y-22.716 E3.24648
G1 X-27.003 Y-23.09 E3.28316
G1 X-26.209 Y-23.456 E3.32678
G1 X-25.734 Y-23.636 E3.35212
G1 X-20.497 Y-25.202 E3.62483
G1 X-15.36 Y-27.032 E3.89689
G1 X-8.917 Y-29.797 E4.24668
G1 X-8.409 Y-29.971 E4.27347
G1 X-7.882 Y-30.068 E4.3002
G1 X-7.497 Y-30.089 E4.31944
G1 X7.492 Y-30.09 E5.06724
G1 X8.027 Y-30.05 E5.09401
G1 X8.549 Y-29.931 E5.12072
G1 X8.932 Y-29.79 E5.14108
G1 X14.311 Y-27.443 E5.43387
G1 X19.435 Y-25.551 E5.70638
G1 X26.179 Y-23.455 E6.05872
G1 X26.678 Y-23.258 E6.08548
G1 X26.969 Y-23.1 E6.102
G1 X27.895 Y-22.542 E6.15594
G1 X28.332 Y-22.232 E6.18267
G1 X28.581 Y-22.006 E6.19945
G1 X29.497 Y-21.091 E6.26404
G1 X29.99 Y-20.477 E6.30333
G1 X30.452 Y-19.751 E6.34626
G1 X30.762 Y-19.144 E6.38026
G1 X31.165 Y-18.127 E6.43484
G1 X31.349 Y-17.504 E6.46725
G1 X31.479 Y-16.851 E6.50046
G1 X31.548 Y-16.154 E6.53541
G1 X31.6 Y14.752 E8.07732
G1 X31.597 Y14.895 E8.08445
G1 X31.544 Y16.289 E8.15405
G1 X31.426 Y17.079 E8.1939
G1 X31.097 Y18.314 E8.25766
G1 X30.855 Y18.963 E8.29222
G1 X30.559 Y19.571 E8.32596
G1 X30.267 Y20.065 E8.35459
G1 X29.775 Y20.765 E8.39727
G1 X29.328 Y21.287 E8.43156
G1 X28.532 Y22.054 E8.48671
G1 X28.119 Y22.397 E8.51349
G1 X27.829 Y22.583 E8.53068
G1 X26.706 Y23.229 E8.59532
G1 X26.223 Y23.461 E8.62205
G1 X25.952 Y23.554 E8.63634
G1 X20.507 Y25.199 E8.92012
G1 X15.36 Y27.032 E9.1927
G1 X8.917 Y29.797 E9.5425
G1 X8.409 Y29.971 E9.56929
G1 X7.882 Y30.068 E9.59602
G1 X7.497 Y30.089 E9.61526
G1 X-7.491 Y30.09 E10.36301
G1 X-8.026 Y30.05 E10.38978
G1 X-8.548 Y29.931 E10.41649
G1 X-8.975 Y29.77 E10.43925
G1 X-11.76 Y28.51 E10.59176
G0 F3600 X-11.595 Y28.145
G1 F1800 X-16.745 Y26.074 E10.86869
G1 X-19.248 Y25.191 E11.00111
G1 X-25.316 Y23.354 E11.31741
G1 X-25.639 Y23.237 E11.33455
G1 X-26.737 Y22.771 E11.39406
G1 X-27.323 Y22.446 E11.42749
G1 X-28.037 Y21.946 E11.47097
G1 X-28.508 Y21.542 E11.50193
G1 X-29.272 Y20.747 E11.55694
G1 X-29.593 Y20.356 E11.58218
G1 X-29.741 Y20.122 E11.59599
G1 X-30.388 Y18.994 E11.66087
G1 X-30.604 Y18.537 E11.68609
G1 X-30.703 Y18.23 E11.70218
G1 X-31.039 Y16.976 E11.76695
G1 X-31.131 Y16.479 E11.79217
G1 X-31.148 Y16.153 E11.80845
G1 X-31.2 Y-14.788 E13.35211
G1 X-31.198 Y-14.918 E13.35859
G1 X-31.145 Y-16.279 E13.42655
G1 X-31.07 Y-16.852 E13.45538
G1 X-30.885 Y-17.68 E13.4977
G1 X-30.744 Y-18.143 E13.52185
G1 X-30.498 Y-18.775 E13.55569
G1 X-30.256 Y-19.267 E13.58304
G1 X-29.698 Y-20.192 E13.63694
G1 X-29.315 Y-20.704 E13.66884
G1 X-28.739 Y-21.331 E13.71131
G1 X-28.284 Y-21.739 E13.7418
G1 X-27.398 Y-22.394 E13.79677
G1 X-26.836 Y-22.727 E13.82936
G1 X-26.042 Y-23.093 E13.87298
G1 X-25.619 Y-23.253 E13.89555
G1 X-20.369 Y-24.823 E14.16893
G1 X-15.222 Y-26.657 E14.44153
G1 X-8.759 Y-29.43 E14.7924
G1 X-8.28 Y-29.592 E14.81762
G1 X-7.782 Y-29.676 E14.84282
G1 X-7.497 Y-29.689 E14.85705
G1 X7.492 Y-29.69 E15.60486
G1 X7.996 Y-29.65 E15.63008
G1 X8.487 Y-29.531 E15.65529
G1 X8.772 Y-29.423 E15.67049
G1 X14.155 Y-27.074 E15.96351
G1 X19.304 Y-25.173 E16.23734
G1 X26.061 Y-23.073 E16.59035
G1 X26.53 Y-22.885 E16.61556
G1 X26.763 Y-22.758 E16.6288
G1 X27.689 Y-22.2 E16.68274
G1 X28.1 Y-21.906 E16.70795
G1 X28.299 Y-21.723 E16.72144
G1 X29.215 Y-20.808 E16.78603
G1 X29.653 Y-20.262 E16.82095
G1 X30.115 Y-19.536 E16.86388
G1 X30.39 Y-18.997 E16.89407
G1 X30.793 Y-17.98 E16.94865
G1 X30.956 Y-17.426 E16.97746
G1 X31.086 Y-16.773 E17.01068
G1 X31.148 Y-16.153 E17.04176
G1 X31.2 Y14.753 E18.58367
G1 X31.198 Y14.88 E18.59001
G1 X31.145 Y16.274 E18.65961
G1 X31.039 Y16.976 E18.69503
G1 X30.71 Y18.211 E18.75879
G1 X30.495 Y18.788 E18.78951
G1 X30.199 Y19.396 E18.82325
G1 X29.94 Y19.835 E18.84868
G1 X29.448 Y20.535 E18.89136
G1 X29.05 Y20.999 E18.92186
G1 X28.254 Y21.766 E18.97701
G1 X27.864 Y22.087 E19.00221
G1 X27.63 Y22.236 E19.01605
G1 X26.507 Y22.882 E19.08069
G1 X25.836 Y23.171 E19.11714
G1 X20.383 Y24.818 E19.40132
G1 X15.222 Y26.657 E19.67467
G1 X8.759 Y29.43 E20.02553
G1 X8.28 Y29.592 E20.05076
G1 X7.782 Y29.676 E20.07596
G1 X7.497 Y29.689 E20.09019
G1 X-7.491 Y29.69 E20.83794
G1 X-7.995 Y29.65 E20.86317
G1 X-8.486 Y29.531 E20.88837
G1 X-8.811 Y29.405 E20.90576
G1 X-11.595 Y28.145 E21.05822
G1 F3600 E13.05822
G0 F3600 X-8.165 Y25.886
G0 X-6.886 Y25.886
G0 X-6.5 Y25.5
;TYPE:WALL-INNER
G1 F3600 E21.05822
G1 F1800 X-6.5 Y19.5 E21.35756
G1 X-22.963 Y19.5 E22.1789
G1 X-23.517 Y19.463 E22.2066
G1 X-24.034 Y19.363 E22.23288
G1 X-24.536 Y19.19 E22.25937
G1 X-24.996 Y18.965 E22.28491
G1 X-25.434 Y18.672 E22.3112
G1 X-25.827 Y18.327 E22.33729
G1 X-26.17 Y17.936 E22.36324
G1 X-26.466 Y17.493 E22.38982
G1 X-26.689 Y17.039 E22.41506
G1 X-26.865 Y16.524 E22.44221
G1 X-26.964 Y16.029 E22.4674
G1 X-27 Y15.465 E22.49559
G1 X-27 Y-15.465 E24.0387
G1 X-26.964 Y-16.029 E24.06689
G1 X-26.865 Y-16.524 E24.09208
G1 X-26.689 Y-17.039 E24.11923
G1 X-26.466 Y-17.493 E24.14446
G1 X-26.17 Y-17.936 E24.17104
G1 X-25.827 Y-18.327 E24.19699
G1 X-25.436 Y-18.67 E24.22294
G1 X-24.993 Y-18.966 E24.24952
G1 X-24.539 Y-19.189 E24.27476
G1 X-24.024 Y-19.365 E24.30191
G1 X-23.529 Y-19.464 E24.3271
G1 X-22.965 Y-19.5 E24.35529
G1 X-6.5 Y-19.5 E25.17673
G1 X-6.5 Y-25.5 E25.47607
G1 X-1.83 Y-25.5 E25.70906
G1 X-1.534 Y-25.5 E25.72383
G1 X-1.308 Y-25.5 E25.7351
G1 X-1.534 Y-25.356
G1 X-1.736 Y-25.141 E25.7455
G1 X-1.948 Y-24.916 E25.76092
G1 X-2.239 Y-24.385 E25.79113
G1 X-2.389 Y-23.802 E25.82116
G1 X-2.389 Y-23.198 E25.8513
G1 X-2.239 Y-22.615 E25.88133
G1 X-1.948 Y-22.084 E25.91154
G1 X-1.534 Y-21.644 E25.94168
G1 X-1.026 Y-21.321 E25.97171
G1 X-0.45 Y-21.135 E26.00191
G1 X0.151 Y-21.098 E26.03195
G1 X0.745 Y-21.211 E26.06212
G1 X1.29 Y-21.468 E26.09218
G1 X1.756 Y-21.852 E26.1223
G1 X2.112 Y-22.341 E26.15248
G1 X2.331 Y-22.902 E26.18253
G1 X2.408 Y-23.5 E26.21261
G1 X2.331 Y-24.098 E26.24269
G1 X2.112 Y-24.659 E26.27273
G1 X1.783 Y-25.11 E26.30058
G1 X1.756 Y-25.148 E26.30291
G1 X1.329 Y-25.5 E26.33052
G1 X1.756 Y-25.5 E26.33893
G1 X1.803 Y-25.5 E26.34115
G1 X6.5 Y-25.5 E26.57548
G1 X6.5 Y-19.5 E26.87482
G1 X22.97 Y-19.5 E27.69651
G1 X23.535 Y-19.463 E27.72476
G1 X24.024 Y-19.365 E27.74964
G1 X24.539 Y-19.189 E27.7768
G1 X24.993 Y-18.966 E27.80203
G1 X25.436 Y-18.67 E27.82861
G1 X25.827 Y-18.327 E27.85456
G1 X26.17 Y-17.936 E27.88051
G1 X26.466 Y-17.493 E27.90709
G1 X26.689 Y-17.039 E27.93233
G1 X26.865 Y-16.524 E27.95948
G1 X26.964 Y-16.029 E27.98466
G1 X27 Y-15.465 E28.01286
G1 X27 Y15.465 E29.55596
G1 X26.964 Y16.029 E29.58416
G1 X26.865 Y16.524 E29.60934
G1 X26.689 Y17.039 E29.6365
G1 X26.466 Y17.493 E29.66173
G1 X26.17 Y17.936 E29.68831
G1 X25.827 Y18.327 E29.71426
G1 X25.436 Y18.67 E29.74021
G1 X24.993 Y18.966 E29.76679
G1 X24.539 Y19.189 E29.79203
G1 X24.024 Y19.365 E29.81918
G1 X23.529 Y19.464 E29.84436
G1 X22.965 Y19.5 E29.87256
G1 X6.5 Y19.5 E30.694
G1 X6.5 Y25.5 E30.99334
G1 X1.803 Y25.5 E31.22768
G1 X1.756 Y25.5 E31.23002
G1 X1.329 Y25.5 E31.25132
G1 X1.756 Y25.148 E31.26603
G1 X1.783 Y25.11 E31.26823
G1 X2.112 Y24.659 E31.29608
G1 X2.331 Y24.098 E31.32613
G1 X2.408 Y23.5 E31.35621
G1 X2.331 Y22.902 E31.38629
G1 X2.112 Y22.341 E31.41633
G1 X1.756 Y21.852 E31.44651
G1 X1.29 Y21.468 E31.47664
G1 X0.745 Y21.211 E31.5067
G1 X0.151 Y21.098 E31.53686
G1 X-0.45 Y21.135 E31.5669
G1 X-1.026 Y21.321 E31.5971
G1 X-1.534 Y21.644 E31.62714
G1 X-1.948 Y22.084 E31.65728
G1 X-2.239 Y22.615 E31.68749
G1 X-2.389 Y23.198 E31.71752
G1 X-2.389 Y23.802 E31.74765
G1 X-2.239 Y24.385 E31.77769
G1 X-1.948 Y24.916 E31.80789
G1 X-1.736 Y25.141 E31.82332
G1 X-1.534 Y25.356 E31.83804
G1 X-1.308 Y25.5 E31.85141
G1 X-1.534 Y25.5
G1 X-1.83 Y25.5 E31.86185
G1 X-6.5 Y25.5 E32.09483
G0 F3600 X-6.872 Y19.872
G0 X-19.603 Y1.44
G1 F1800 X-19.099 Y1.025 E32.12741
G1 X-18.715 Y0.495 E32.16006
G1 X-18.475 Y-0.113 E32.19267
G1 X-18.392 Y-0.761 E32.22526
G1 X-18.475 Y-1.409 E32.25786
G1 X-18.715 Y-2.016 E32.29042
G1 X-19.099 Y-2.546 E32.32307
G1 X-19.603 Y-2.964 E32.35574
G1 X-20.196 Y-3.242 E32.38841
G1 X-20.837 Y-3.362 E32.42095
G1 X-21.489 Y-3.322 E32.45354
G1 X-22.111 Y-3.12 E32.48617
G1 X-22.663 Y-2.77 E32.51877
G1 X-23.109 Y-2.294 E32.55132
G1 X-23.425 Y-1.72 E32.58401
G1 X-23.587 Y-1.086 E32.61665
G1 X-23.587 Y-0.435 E32.64913
G1 X-23.425 Y0.198 E32.68173
G1 X-23.109 Y0.773 E32.71446
G1 X-22.663 Y1.249 E32.74701
G1 X-22.111 Y1.599 E32.77962
G1 X-21.489 Y1.801 E32.81224
G1 X-20.837 Y1.841 E32.84483
G1 X-20.194 Y1.721 E32.87747
G1 X-19.603 Y1.44 E32.91011
G0 F3600 X18.413 Y-0.86
G1 F1800 X18.575 Y-0.224 E32.94286
G1 X18.891 Y0.347 E32.97542
G1 X19.337 Y0.823 E33.00796
G1 X19.889 Y1.175 E33.04062
G1 X20.511 Y1.377 E33.07325
G1 X21.163 Y1.417 E33.10584
G1 X21.806 Y1.297 E33.13847
G1 X22.397 Y1.016 E33.17112
G1 X22.901 Y0.6 E33.20372
G1 X23.285 Y0.071 E33.23634
G1 X23.525 Y-0.537 E33.26895
G1 X23.608 Y-1.185 E33.30154
G1 X23.525 Y-1.833 E33.33413
G1 X23.285 Y-2.441 E33.36674
G1 X22.901 Y-2.97 E33.39936
G1 X22.397 Y-3.386 E33.43196
G1 X21.806 Y-3.667 E33.46461
G1 X21.163 Y-3.787 E33.49724
G1 X20.511 Y-3.747 E33.52983
G1 X19.889 Y-3.545 E33.56246
G1 X19.337 Y-3.193 E33.59512
G1 X18.891 Y-2.717 E33.62766
G1 X18.575 Y-2.146 E33.66022
G1 X18.413 Y-1.511 E33.69292
G1 X18.413 Y-0.86 E33.7254
G0 F3600 X18.813 Y-0.91
G1 F1800 X18.95 Y-0.373 E33.75305
G1 X19.217 Y0.11 E33.78058
G1 X19.594 Y0.513 E33.80811
G1 X20.061 Y0.81 E33.83572
G1 X20.586 Y0.981 E33.86327
G1 X21.138 Y1.015 E33.89086
G1 X21.681 Y0.913 E33.91842
G1 X22.181 Y0.676 E33.94603
G1 X22.607 Y0.324 E33.9736
G1 X22.932 Y-0.123 E34.00117
G1 X23.135 Y-0.637 E34.02874
G1 X23.205 Y-1.185 E34.05631
G1 X23.135 Y-1.733 E34.08387
G1 X22.932 Y-2.247 E34.11144
G1 X22.607 Y-2.694 E34.13901
G1 X22.181 Y-3.046 E34.16658
G1 X21.681 Y-3.283 E34.19419
G1 X21.138 Y-3.385 E34.22175
G1 X20.586 Y-3.351 E34.24934
G1 X20.061 Y-3.18 E34.27689
G1 X19.594 Y-2.883 E34.3045
G1 X19.217 Y-2.48 E34.33203
G1 X18.95 Y-1.997 E34.35957
G1 X18.813 Y-1.461 E34.38717
G1 X18.813 Y-0.91 E34.41466
G0 F3600 X18.714 Y-0.898
G0 X18.774 Y-1.465
G0 X18.913 Y-2.011
G0 X27.301 Y-15.473
G0 X27.4 Y-15.476
G1 F1800 X27.4 Y15.476 E35.95886
G1 X27.361 Y16.08 E35.98905
G1 X27.251 Y16.633 E36.01718
G1 X27.061 Y17.189 E36.0465
G1 X26.812 Y17.696 E36.07468
G1 X26.488 Y18.181 E36.10378
G1 X26.111 Y18.611 E36.13231
G1 X25.681 Y18.988 E36.16084
G1 X25.196 Y19.312 E36.18994
G1 X24.689 Y19.561 E36.21812
G1 X24.133 Y19.751 E36.24743
G1 X23.58 Y19.861 E36.27556
G1 X22.976 Y19.9 E36.30576
G1 X6.9 Y19.9 E37.10779
G1 X6.9 Y25.9 E37.40713
G1 X0.126 Y25.9 E37.74509
G1 X-6.9 Y25.9 E38.09562
G1 X-6.9 Y19.9 E38.39496
G1 X-22.975 Y19.9 E39.19694
G1 X-23.572 Y19.86 E39.2268
G1 X-24.134 Y19.751 E39.25536
G1 X-24.69 Y19.56 E39.28469
G1 X-25.197 Y19.312 E39.31285
G1 X-25.681 Y18.988 E39.3419
G1 X-26.111 Y18.611 E39.37043
G1 X-26.488 Y18.181 E39.39896
G1 X-26.812 Y17.696 E39.42806
G1 X-27.061 Y17.189 E39.45624
G1 X-27.251 Y16.633 E39.48556
G1 X-27.361 Y16.08 E39.51369
G1 X-27.4 Y15.476 E39.54388
G1 X-27.4 Y-15.476 E41.08809
G1 X-27.361 Y-16.08 E41.11828
G1 X-27.251 Y-16.633 E41.14641
G1 X-27.061 Y-17.189 E41.17573
G1 X-26.812 Y-17.696 E41.20391
G1 X-26.488 Y-18.181 E41.233
G1 X-26.111 Y-18.611 E41.26154
G1 X-25.681 Y-18.988 E41.29007
G1 X-25.196 Y-19.312 E41.31916
G1 X-24.689 Y-19.561 E41.34735
G1 X-24.133 Y-19.751 E41.37666
G1 X-23.58 Y-19.861 E41.40479
G1 X-22.976 Y-19.9 E41.43499
G1 X-6.9 Y-19.9 E42.23702
G1 X-6.9 Y-25.9 E42.53636
G1 X0.126 Y-25.9 E42.88689
G1 X6.9 Y-25.9 E43.22485
G1 X6.9 Y-19.9 E43.52419
G1 X22.981 Y-19.9 E44.32647
G1 X23.586 Y-19.86 E44.35672
G1 X24.133 Y-19.751 E44.38455
G1 X24.689 Y-19.561 E44.41386
G1 X25.196 Y-19.312 E44.44204
G1 X25.681 Y-18.988 E44.47114
G1 X26.111 Y-18.611 E44.49967
G1 X26.488 Y-18.181 E44.5282
G1 X26.812 Y-17.696 E44.5573
G1 X27.061 Y-17.189 E44.58548
G1 X27.251 Y-16.633 E44.6148
G1 X27.361 Y-16.08 E44.64293
G1 X27.4 Y-15.476 E44.67312
G0 F3600 X27.301 Y-15.473
G0 X6.872 Y-19.872
G0 X2.037 Y-22.978
G0 X1.941 Y-23.002
G1 F1800 X2.005 Y-23.5 E44.69817
G1 X1.941 Y-23.998 E44.72322
G1 X1.758 Y-24.465 E44.74824
G1 X1.462 Y-24.872 E44.77335
G1 X1.074 Y-25.192 E44.79844
G1 X0.62 Y-25.406 E44.82348
G1 X0.126 Y-25.5 E44.84857
G1 X-0.375 Y-25.469 E44.87361
G1 X-0.854 Y-25.314 E44.89873
G1 X-1.277 Y-25.045 E44.92374
G1 X-1.622 Y-24.679 E44.94884
G1 X-1.864 Y-24.237 E44.97398
G1 X-1.989 Y-23.751 E44.99901
G1 X-1.989 Y-23.249 E45.02406
G1 X-1.864 Y-22.763 E45.04909
G1 X-1.622 Y-22.321 E45.07423
G1 X-1.277 Y-21.955 E45.09933
G1 X-0.854 Y-21.686 E45.12433
G1 X-0.375 Y-21.531 E45.14945
G1 X0.126 Y-21.5 E45.1745
G1 X0.62 Y-21.594 E45.19958
G1 X1.074 Y-21.808 E45.22462
G1 X1.462 Y-22.128 E45.24971
G1 X1.758 Y-22.535 E45.27482
G1 X1.941 Y-23.002 E45.29985
G0 F3600 X2.037 Y-22.978
G0 X1.491 Y-22.101
G0 X-19.321 Y-2.338
G0 X-19.393 Y-2.27
G1 F1800 X-19.819 Y-2.623 E45.32745
G1 X-20.32 Y-2.858 E45.35506
G1 X-20.862 Y-2.96 E45.38257
G1 X-21.414 Y-2.926 E45.41016
G1 X-21.939 Y-2.755 E45.43771
G1 X-22.406 Y-2.459 E45.46529
G1 X-22.783 Y-2.057 E45.49279
G1 X-23.05 Y-1.572 E45.52041
G1 X-23.187 Y-1.036 E45.54801
G1 X-23.187 Y-0.485 E45.5755
G1 X-23.05 Y0.05 E45.60305
G1 X-22.783 Y0.536 E45.63072
G1 X-22.406 Y0.938 E45.65821
G1 X-21.939 Y1.234 E45.6858
G1 X-21.414 Y1.405 E45.71334
G1 X-20.862 Y1.439 E45.74094
G1 X-20.319 Y1.337 E45.7685
G1 X-19.819 Y1.1 E45.79611
G1 X-19.393 Y0.749 E45.82364
G1 X-19.068 Y0.301 E45.85126
G1 X-18.865 Y-0.213 E45.87883
G1 X-18.795 Y-0.761 E45.90639
G1 X-18.865 Y-1.309 E45.93395
G1 X-19.068 Y-1.822 E45.96148
G1 X-19.393 Y-2.27 E45.98909
G0 F3600 X-19.321 Y-2.338
G0 X-1.34 Y21.878
G0 X-1.277 Y21.955
G1 F1800 X-1.622 Y22.321 E46.01418
G1 X-1.864 Y22.763 E46.03932
G1 X-1.989 Y23.249 E46.06436
G1 X-1.989 Y23.751 E46.0894
G1 X-1.864 Y24.237 E46.11444
G1 X-1.622 Y24.679 E46.13958
G1 X-1.277 Y25.045 E46.16467
G1 X-0.854 Y25.314 E46.18968
G1 X-0.375 Y25.469 E46.2148
G1 X0.126 Y25.5 E46.23984
G1 X0.62 Y25.406 E46.26493
G1 X1.074 Y25.192 E46.28997
G1 X1.462 Y24.872 E46.31506
G1 X1.758 Y24.465 E46.34017
G1 X1.941 Y23.998 E46.36519
G1 X2.005 Y23.5 E46.39024
G1 X1.941 Y23.002 E46.41529
G1 X1.758 Y22.535 E46.44032
G1 X1.462 Y22.128 E46.46542
G1 X1.074 Y21.808 E46.49052
G1 X0.62 Y21.594 E46.51556
G1 X0.126 Y21.5 E46.54064
G1 X-0.375 Y21.531 E46.56569
G1 X-0.854 Y21.686 E46.5908
G1 X-1.277 Y21.955 E46.61581
G0 F3600 X-1.02 Y22.266
