;FLAVOR:RepRap
;TIME:4250
;Filament used: 4.45548m
;Layer height: 0.2
;Generated with Cura_SteamEngine 0.0.0-master
M104 S200
M109 S200
;Sliced at: Mon 19-02-2018 20:28:42 
 ;Basic settings: Layer height: 0.2 Walls: 1.2 Fill: {fill_density} 
 ;Print time: 01:10:51 
 ;Filament used: [4.46]m [13.2887033984375]g 
 ;Filament cost: [0] 
 ;M190 S60 ;Uncomment to add your own bed temperature line 
 ;M109 S200 ;Uncomment to add your own temperature line 
 G21        ;metric values 
 G90        ;absolute positioning 
 M82        ;set extruder to absolute mode 
 M107       ;start with the fan off 
 G28 X0 Y0  ;move X/Y to min endstops 
 G28 Z0     ;move Z to min endstops 
 G1 Z15.0 F3000 ;move the platform down 15mm 
 G92 E0                  ;zero the extruded length 
 G1 F3000 E3              ;extrude 3mm of feed stock 
 G92 E0                  ;zero the extruded length again 
 G1 F3000 
 ;Put printing message on LCD screen 
 M117 Printing...
;LAYER_COUNT:89
;LAYER:0
M107
G0 F3600 X-29.676 Y-5.894 Z0.299
;TYPE:SKIRT
G1 F1800 X-29.137 Y-11.328 E0.27243
G1 X-28.986 Y-14.012 E0.40655
G1 X-28.899 Y-18.127 E0.61189
G1 X-28.868 Y-24.684 E0.93903
G1 X-28.825 Y-25.219 E0.96581
G1 X-28.704 Y-25.741 E0.99254
G1 X-28.524 Y-26.202 E1.01723
G1 X-28.408 Y-26.448 E1.0308
G1 X-28.144 Y-26.915 E1.05756
G1 X-27.813 Y-27.337 E1.08432
G1 X-27.424 Y-27.706 E1.11107
G1 X-27.182 Y-27.886 E1.12612
G1 X-26.813 Y-28.138 E1.14841
G1 X-26.349 Y-28.407 E1.17517
G1 X-25.692 Y-28.648 E1.21008
G1 X-25.19 Y-28.779 E1.23596
G1 X-24.662 Y-28.876 E1.26275
G1 X-24.28 Y-28.896 E1.28183
G1 X24.502 Y-28.887 E3.71558
G1 X25.036 Y-28.847 E3.74229
G1 X25.559 Y-28.728 E3.76905
G1 X26.059 Y-28.533 E3.79583
G1 X26.439 Y-28.321 E3.81754
G1 X27.142 Y-27.872 E3.85915
G1 X27.571 Y-27.55 E3.88591
G1 X27.948 Y-27.169 E3.91265
G1 X28.263 Y-26.735 E3.93941
G1 X28.511 Y-26.26 E3.96614
G1 X28.634 Y-25.932 E3.98362
G1 X28.708 Y-25.7 E3.99577
G1 X28.832 Y-25.178 E4.02253
G1 X28.878 Y-24.604 E4.05126
G1 X28.848 Y24.732 E6.51265
G1 X28.808 Y25.267 E6.53941
G1 X28.688 Y25.79 E6.56618
G1 X28.399 Y26.472 E6.60314
G1 X28.289 Y26.671 E6.61448
G1 X27.995 Y27.119 E6.64121
G1 X27.638 Y27.519 E6.66796
G1 X27.225 Y27.862 E6.69475
G1 X26.88 Y28.079 E6.71508
G1 X26.229 Y28.439 E6.75219
G1 X25.742 Y28.663 E6.77894
G1 X25.227 Y28.812 E6.80568
G1 X24.487 Y28.889 E6.8428
G1 X-24.491 Y28.889 E9.28633
G1 X-25.026 Y28.849 E9.31309
G1 X-25.625 Y28.706 E9.34382
G1 X-26.05 Y28.565 E9.36615
G1 X-26.545 Y28.359 E9.3929
G1 X-27.003 Y28.081 E9.41963
G1 X-27.416 Y27.738 E9.44642
G1 X-27.773 Y27.338 E9.47317
G1 X-28.046 Y26.927 E9.49778
G1 X-28.425 Y26.26 E9.53606
G1 X-28.654 Y25.775 E9.56281
G1 X-28.762 Y25.452 E9.57981
G1 X-29.523 Y22.737 E9.72048
G1 X-31.238 Y17.493 E9.99574
G1 X-32.292 Y14.684 E10.14542
G1 X-32.442 Y14.17 E10.17213
G1 X-32.521 Y13.419 E10.20981
G1 X-32.519 Y8.57 E10.45172
G1 X-32.479 Y8.035 E10.47849
G1 X-32.415 Y7.712 E10.49492
G1 X-31.042 Y2.125 E10.78195
G1 X-30.528 Y-0.452 E10.91305
G1 X-29.676 Y-5.894 E11.18786
G0 F3600 X-29.28 Y-5.828
G1 F1800 X-28.739 Y-11.29 E11.46169
G1 X-28.586 Y-14.01 E11.59761
G1 X-28.499 Y-18.117 E11.80255
G1 X-28.468 Y-24.682 E12.13009
G1 X-28.426 Y-25.186 E12.15532
G1 X-28.305 Y-25.677 E12.18055
G1 X-28.162 Y-26.032 E12.19964
G1 X-28.046 Y-26.278 E12.21321
G1 X-27.795 Y-26.717 E12.23844
G1 X-27.478 Y-27.11 E12.26363
G1 X-26.957 Y-27.556 E12.29784
G1 X-26.588 Y-27.808 E12.32014
G1 X-26.149 Y-28.059 E12.34537
G1 X-25.591 Y-28.261 E12.37497
G1 X-25.089 Y-28.392 E12.40086
G1 X-24.591 Y-28.481 E12.4261
G1 X-24.28 Y-28.496 E12.44163
G1 X24.502 Y-28.487 E14.87537
G1 X25.006 Y-28.447 E14.9006
G1 X25.497 Y-28.328 E14.9258
G1 X25.963 Y-28.133 E14.951
G1 X26.223 Y-27.984 E14.96595
G1 X26.926 Y-27.535 E15.00757
G1 X27.33 Y-27.23 E15.03283
G1 X27.68 Y-26.865 E15.05805
G1 X27.968 Y-26.45 E15.08326
G1 X28.253 Y-25.81 E15.11821
G1 X28.327 Y-25.578 E15.13036
G1 X28.442 Y-25.086 E15.15557
G1 X28.478 Y-24.604 E15.17968
G1 X28.448 Y24.732 E17.64106
G1 X28.408 Y25.236 E17.66629
G1 X28.289 Y25.727 E17.69149
G1 X28.049 Y26.278 E17.72148
G1 X27.939 Y26.477 E17.73282
G1 X27.66 Y26.899 E17.75806
G1 X27.318 Y27.271 E17.78327
G1 X26.922 Y27.586 E17.80851
G1 X26.687 Y27.729 E17.82224
G1 X26.036 Y28.089 E17.85935
G1 X25.575 Y28.298 E17.8846
G1 X25.088 Y28.432 E17.9098
G1 X24.487 Y28.489 E17.93992
G1 X-24.491 Y28.489 E20.38344
G1 X-24.995 Y28.449 E20.40867
G1 X-25.499 Y28.326 E20.43455
G1 X-25.924 Y28.185 E20.45689
G1 X-26.389 Y27.989 E20.48207
G1 X-26.818 Y27.721 E20.5073
G1 X-27.2 Y27.389 E20.53255
G1 X-27.524 Y27.002 E20.55773
G1 X-27.698 Y26.729 E20.57388
G1 X-28.077 Y26.062 E20.61216
G1 X-28.291 Y25.604 E20.63738
G1 X-28.376 Y25.344 E20.65103
G1 X-29.14 Y22.617 E20.79232
G1 X-30.855 Y17.376 E21.06743
G1 X-31.917 Y14.544 E21.21833
G1 X-32.057 Y14.058 E21.24356
G1 X-32.121 Y13.419 E21.2756
G1 X-32.119 Y8.57 E21.51752
G1 X-32.079 Y8.066 E21.54274
G1 X-32.027 Y7.808 E21.55587
G1 X-30.652 Y2.212 E21.84336
G1 X-30.129 Y-0.409 E21.9767
G1 X-29.28 Y-5.828 E22.25036
G0 F3600 X-28.73 Y8.77
;TYPE:SUPPORT
G1 F1800 X-27.199 Y8.77 E22.32674
G1 X-27.199 Y13.23 E22.54925
G1 X-28.73 Y13.23 E22.62563
G1 X-28.73 Y8.77 E22.84814
G0 F3600 X-28.57 Y10.663
G1 F1800 X-27.359 Y10.663 E22.90856
G1 F3600 E14.90856
G0 F3600 X-25.964 Y10.663
G0 X-24.679 Y10.663
G0 X-22.163 Y18.492
;TYPE:WALL-INNER
G1 F3600 E22.90856
G1 F1800 X-22.609 Y18.968 E22.9411
G1 X-22.925 Y19.539 E22.97366
G1 X-23.087 Y20.174 E23.00635
G1 X-23.087 Y20.826 E23.03888
G1 X-22.925 Y21.461 E23.07158
G1 X-22.609 Y22.032 E23.10414
G1 X-22.163 Y22.508 E23.13668
G1 X-21.611 Y22.86 E23.16934
G1 X-20.989 Y23.062 E23.20197
G1 X-20.337 Y23.102 E23.23456
G1 X-19.694 Y22.982 E23.26719
G1 X-19.103 Y22.701 E23.29984
G1 X-18.599 Y22.285 E23.33244
G1 X-18.215 Y21.756 E23.36506
G1 X-17.975 Y21.148 E23.39767
G1 X-17.892 Y20.5 E23.43026
G1 X-17.975 Y19.852 E23.46285
G1 X-18.215 Y19.244 E23.49546
G1 X-18.599 Y18.715 E23.52808
G1 X-19.103 Y18.299 E23.56068
G1 X-19.694 Y18.018 E23.59333
G1 X-20.337 Y17.898 E23.62596
G1 X-20.989 Y17.938 E23.65855
G1 X-21.611 Y18.14 E23.69118
G1 X-22.163 Y18.492 E23.72384
G0 F3600 X-24.299 Y24.299
G1 F1800 X-24.299 Y-24.099 E26.13843
G1 X-24.299 Y-24.299 E26.1484
G1 X-24.099 Y-24.299 E26.15487
G1 X24.3 Y-24.297 E28.5695
G1 X24.299 Y24.299 E30.99397
G1 X-24.299 Y24.299 E33.41853
G0 F3600 X-20.989 Y-17.938
G1 F1800 X-20.337 Y-17.898 E33.45112
G1 X-19.694 Y-18.018 E33.48375
G1 X-19.103 Y-18.299 E33.5164
G1 X-18.599 Y-18.715 E33.549
G1 X-18.215 Y-19.244 E33.58162
G1 X-17.975 Y-19.852 E33.61423
G1 X-17.892 Y-20.5 E33.64682
G1 X-17.975 Y-21.148 E33.67941
G1 X-18.215 Y-21.756 E33.71202
G1 X-18.599 Y-22.285 E33.74464
G1 X-19.103 Y-22.701 E33.77724
G1 X-19.694 Y-22.982 E33.80989
G1 X-20.337 Y-23.102 E33.84252
G1 X-20.989 Y-23.062 E33.87511
G1 X-21.611 Y-22.86 E33.90774
G1 X-22.163 Y-22.508 E33.9404
G1 X-22.609 Y-22.032 E33.97294
G1 X-22.925 Y-21.461 E34.0055
G1 X-23.087 Y-20.826 E34.0382
G1 X-23.087 Y-20.174 E34.07073
G1 X-22.925 Y-19.539 E34.10342
G1 X-22.609 Y-18.968 E34.13598
G1 X-22.163 Y-18.492 E34.16852
G1 X-21.611 Y-18.14 E34.20119
G1 X-20.989 Y-17.938 E34.23381
G0 F3600 X17.913 Y-20.174
G1 F1800 X18.075 Y-19.539 E34.26651
G1 X18.391 Y-18.968 E34.29907
G1 X18.837 Y-18.492 E34.33161
G1 X19.389 Y-18.14 E34.36427
G1 X20.011 Y-17.938 E34.3969
G1 X20.663 Y-17.898 E34.42949
G1 X21.306 Y-18.018 E34.46212
G1 X21.897 Y-18.299 E34.49477
G1 X22.401 Y-18.715 E34.52737
G1 X22.785 Y-19.244 E34.55999
G1 X23.025 Y-19.852 E34.5926
G1 X23.108 Y-20.5 E34.62519
G1 X23.025 Y-21.148 E34.65778
G1 X22.785 Y-21.756 E34.69039
G1 X22.401 Y-22.285 E34.72301
G1 X21.897 Y-22.701 E34.75561
G1 X21.306 Y-22.982 E34.78826
G1 X20.663 Y-23.102 E34.82089
G1 X20.011 Y-23.062 E34.85348
G1 X19.389 Y-22.86 E34.88611
G1 X18.837 Y-22.508 E34.91877
G1 X18.391 Y-22.032 E34.95131
G1 X18.075 Y-21.461 E34.98387
G1 X17.913 Y-20.826 E35.01657
G1 X17.913 Y-20.174 E35.04909
G0 F3600 X20.011 Y17.938
G1 F1800 X19.389 Y18.14 E35.08172
G1 X18.837 Y18.492 E35.11438
G1 X18.391 Y18.968 E35.14693
G1 X18.075 Y19.539 E35.17949
G1 X17.913 Y20.174 E35.21218
G1 X17.913 Y20.826 E35.24471
G1 X18.075 Y21.461 E35.2774
G1 X18.391 Y22.032 E35.30996
G1 X18.837 Y22.508 E35.34251
G1 X19.389 Y22.86 E35.37517
G1 X20.011 Y23.062 E35.4078
G1 X20.663 Y23.102 E35.44039
G1 X21.306 Y22.982 E35.47302
G1 X21.897 Y22.701 E35.50567
G1 X22.401 Y22.285 E35.53827
G1 X22.785 Y21.756 E35.57088
G1 X23.025 Y21.148 E35.60349
G1 X23.108 Y20.5 E35.63609
G1 X23.025 Y19.852 E35.66868
G1 X22.785 Y19.244 E35.70129
G1 X22.401 Y18.715 E35.7339
G1 X21.897 Y18.299 E35.76651
G1 X21.306 Y18.018 E35.79915
G1 X20.663 Y17.898 E35.83179
G1 X20.011 Y17.938 E35.86438
G0 F3600 X20.086 Y18.334
G1 F1800 X19.561 Y18.505 E35.89192
G1 X19.094 Y18.802 E35.91954
G1 X18.717 Y19.205 E35.94707
G1 X18.45 Y19.688 E35.9746
G1 X18.313 Y20.224 E36.0022
G1 X18.313 Y20.776 E36.02974
G1 X18.45 Y21.312 E36.05734
G1 X18.717 Y21.795 E36.08488
G1 X19.094 Y22.198 E36.11241
G1 X19.561 Y22.495 E36.14002
G1 X20.086 Y22.666 E36.16757
G1 X20.638 Y22.7 E36.19516
G1 X21.181 Y22.598 E36.22272
G1 X21.681 Y22.361 E36.25033
G1 X22.107 Y22.009 E36.2779
G1 X22.432 Y21.562 E36.30547
G1 X22.635 Y21.048 E36.33304
G1 X22.705 Y20.5 E36.3606
G1 X22.635 Y19.952 E36.38816
G1 X22.432 Y19.438 E36.41574
G1 X22.107 Y18.991 E36.44331
G1 X21.681 Y18.639 E36.47088
G1 X21.181 Y18.402 E36.49848
G1 X20.638 Y18.3 E36.52605
G1 X20.086 Y18.334 E36.55364
G0 F3600 X20.068 Y18.236
G0 X20.64 Y18.261
G0 X21.193 Y18.364
G0 X21.702 Y18.606
G0 X22.136 Y18.964
G0 X22.467 Y19.419
G0 X24.6 Y24.455
G0 X24.699 Y24.46
G1 F1800 X24.692 Y24.523 E36.5568
G1 X24.473 Y24.662 E36.56974
G1 X24.382 Y24.699 E36.57464
G1 X-24.46 Y24.699 E39.01138
G1 X-24.523 Y24.692 E39.01454
G1 X-24.662 Y24.473 E39.02748
G1 X-24.699 Y24.382 E39.03238
G1 X-24.699 Y-24.46 E41.46912
G1 X-24.692 Y-24.523 E41.47228
G1 X-24.473 Y-24.662 E41.48523
G1 X-24.382 Y-24.699 E41.49013
G1 X24.376 Y-24.699 E43.92267
G1 X24.379 Y-24.699 E43.92282
G1 X24.474 Y-24.66 E43.92795
G1 X24.693 Y-24.522 E43.94086
G1 X24.7 Y-24.469 E43.94353
G1 X24.7 Y-24.466 E43.94368
G1 X24.699 Y24.46 E46.38461
G0 F3600 X24.6 Y24.455
G0 X20.644 Y-18.201
G0 X20.638 Y-18.3
G1 F1800 X21.181 Y-18.402 E46.41217
G1 X21.681 Y-18.639 E46.43977
G1 X22.107 Y-18.991 E46.46734
G1 X22.432 Y-19.438 E46.49492
G1 X22.635 Y-19.952 E46.52249
G1 X22.705 Y-20.5 E46.55005
G1 X22.635 Y-21.048 E46.57761
G1 X22.432 Y-21.562 E46.60518
G1 X22.107 Y-22.009 E46.63276
G1 X21.681 Y-22.361 E46.66033
G1 X21.181 Y-22.598 E46.68793
G1 X20.638 Y-22.7 E46.7155
G1 X20.086 Y-22.666 E46.74309
G1 X19.561 Y-22.495 E46.77063
G1 X19.094 Y-22.198 E46.79824
G1 X18.717 Y-21.795 E46.82578
G1 X18.45 Y-21.312 E46.85331
G1 X18.313 Y-20.776 E46.88091
G1 X18.313 Y-20.224 E46.90845
G1 X18.45 Y-19.688 E46.93605
G1 X18.717 Y-19.205 E46.96359
G1 X19.094 Y-18.802 E46.99112
G1 X19.561 Y-18.505 E47.01873
G1 X20.086 Y-18.334 E47.04628
G1 X20.638 Y-18.3 E47.07387
G0 F3600 X20.644 Y-18.201
G0 X-18.195 Y-20.5
G0 X-18.295 Y-20.5
G1 F1800 X-18.365 Y-21.048 E47.10143
G1 X-18.568 Y-21.562 E47.129
G1 X-18.893 Y-22.009 E47.15657
G1 X-19.319 Y-22.361 E47.18414
G1 X-19.819 Y-22.598 E47.21175
G1 X-20.362 Y-22.7 E47.23931
G1 X-20.914 Y-22.666 E47.2669
G1 X-21.439 Y-22.495 E47.29445
G1 X-21.906 Y-22.198 E47.32206
G1 X-22.283 Y-21.795 E47.34959
G1 X-22.55 Y-21.312 E47.37713
G1 X-22.687 Y-20.776 E47.40473
G1 X-22.687 Y-20.224 E47.43227
G1 X-22.55 Y-19.688 E47.45987
G1 X-22.283 Y-19.205 E47.4874
G1 X-21.906 Y-18.802 E47.51493
G1 X-21.439 Y-18.505 E47.54254
G1 X-20.914 Y-18.334 E47.57009
G1 X-20.362 Y-18.3 E47.59768
G1 X-19.819 Y-18.402 E47.62525
G1 X-19.319 Y-18.639 E47.65285
G1 X-18.893 Y-18.991 E47.68042
G1 X-18.568 Y-19.438 E47.708
G1 X-18.365 Y-19.952 E47.73557
G1 X-18.295 Y-20.5 E47.76313
G0 F3600 X-18.195 Y-20.5
G0 X-20.356 Y18.201
G0 X-20.362 Y18.3
G1 F1800 X-20.914 Y18.334 E47.79072
G1 X-21.439 Y18.505 E47.81827
G1 X-21.906 Y18.802 E47.84588
G1 X-22.283 Y19.205 E47.87341
G1 X-22.55 Y19.688 E47.90094
G1 X-22.687 Y20.224 E47.92854
G1 X-22.687 Y20.776 E47.95608
G1 X-22.55 Y21.312 E47.98368
G1 X-22.283 Y21.795 E48.01122
G1 X-21.906 Y22.198 E48.03875
G1 X-21.439 Y22.495 E48.06636
G1 X-20.914 Y22.666 E48.09391
G1 X-20.362 Y22.7 E48.1215
G1 X-19.819 Y22.598 E48.14906
G1 X-19.319 Y22.361 E48.17667
G1 X-18.893 Y22.009 E48.20424
G1 X-18.568 Y21.562 E48.23181
G1 X-18.365 Y21.048 E48.25938
G1 X-18.295 Y20.5 E48.28694
G1 X-18.365 Y19.952 E48.31451
G1 X-18.568 Y19.438 E48.34208
G1 X-18.893 Y18.991 E48.36965
G1 X-19.319 Y18.639 E48.39722
G1 X-19.819 Y18.402 E48.42483
G1 X-20.362 Y18.3 E48.45239
G0 F3600 X-20.387 Y18.702
;TYPE:WALL-OUTER
G1 F1800 X-20.838 Y18.73 E48.47493
G1 X-21.267 Y18.87 E48.49745
G1 X-21.649 Y19.112 E48.52001
G1 X-21.957 Y19.442 E48.54253
G1 X-22.175 Y19.837 E48.56504
G1 X-22.287 Y20.274 E48.58754
G1 X-22.287 Y20.726 E48.61009
G1 X-22.175 Y21.163 E48.6326
G1 X-21.957 Y21.558 E48.65511
G1 X-21.649 Y21.888 E48.67763
G1 X-21.267 Y22.13 E48.70019
G1 X-20.838 Y22.27 E48.7227
G1 X-20.387 Y22.298 E48.74525
G1 X-19.944 Y22.214 E48.76774
G1 X-19.535 Y22.021 E48.79031
G1 X-19.187 Y21.733 E48.81284
G1 X-18.921 Y21.368 E48.83537
G1 X-18.755 Y20.948 E48.85791
G1 X-18.698 Y20.5 E48.88044
G1 X-18.755 Y20.052 E48.90297
G1 X-18.921 Y19.632 E48.9255
G1 X-19.187 Y19.267 E48.94803
G1 X-19.535 Y18.979 E48.97057
G1 X-19.944 Y18.786 E48.99313
G1 X-20.387 Y18.702 E49.01563
G0 F3600 X-20.587 Y18.714
G0 X-20.617 Y18.216
G0 X-21.456 Y18.469
G0 X-21.931 Y18.772
G0 X-22.315 Y19.182
G0 X-22.587 Y19.674
G0 X-24.574 Y24.428
G0 X-25.021 Y24.654
G1 F1800 X-25.099 Y24.462 E49.02597
G1 X-25.099 Y-24.486 E51.46799
G1 X-25.084 Y-24.621 E51.47477
G1 X-25.033 Y-24.755 E51.48192
G1 X-24.992 Y-24.807 E51.48522
G1 X-24.654 Y-25.021 E51.50518
G1 X-24.462 Y-25.099 E51.51552
G1 X24.46 Y-25.099 E53.95625
G1 X24.658 Y-25.017 E53.96694
G1 X24.988 Y-24.81 E53.98638
G1 X25.038 Y-24.746 E53.99043
G1 X25.084 Y-24.62 E53.99712
G1 X25.1 Y-24.491 E54.00361
G1 X25.099 Y24.486 E56.44708
G1 X25.084 Y24.621 E56.45386
G1 X25.033 Y24.755 E56.46101
G1 X24.992 Y24.807 E56.46431
G1 X24.654 Y25.021 E56.48427
G1 X24.462 Y25.099 E56.49461
G1 X-24.486 Y25.099 E58.93664
G1 X-24.621 Y25.084 E58.94341
G1 X-24.747 Y25.038 E58.9501
G1 X-24.808 Y24.99 E58.95398
G1 X-25.021 Y24.654 E58.97382
G0 F3600 X-25.096 Y24.469
G0 X-24.601 Y24.363
G0 X-20.87 Y-18.232
G0 X-20.838 Y-18.73
G1 F1800 X-20.387 Y-18.702 E58.99637
G1 X-19.944 Y-18.786 E59.01886
G1 X-19.535 Y-18.979 E59.04143
G1 X-19.187 Y-19.267 E59.06396
G1 X-18.921 Y-19.632 E59.08649
G1 X-18.755 Y-20.052 E59.10903
G1 X-18.698 Y-20.5 E59.13156
G1 X-18.755 Y-20.948 E59.15409
G1 X-18.921 Y-21.368 E59.17662
G1 X-19.187 Y-21.733 E59.19915
G1 X-19.535 Y-22.021 E59.22169
G1 X-19.944 Y-22.214 E59.24425
G1 X-20.387 Y-22.298 E59.26675
G1 X-20.838 Y-22.27 E59.28929
G1 X-21.267 Y-22.13 E59.3118
G1 X-21.649 Y-21.888 E59.33436
G1 X-21.957 Y-21.558 E59.35688
G1 X-22.175 Y-21.163 E59.37939
G1 X-22.287 Y-20.726 E59.4019
G1 X-22.287 Y-20.274 E59.42445
G1 X-22.175 Y-19.837 E59.44696
G1 X-21.957 Y-19.442 E59.46947
G1 X-21.649 Y-19.112 E59.49199
G1 X-21.267 Y-18.87 E59.51455
G1 X-20.838 Y-18.73 E59.53706
G0 F3600 X-20.638 Y-18.718
G0 X-20.67 Y-18.22
G0 X18.213 Y-20.274
G0 X18.713 Y-20.274
G1 F1800 X18.825 Y-19.837 E59.55957
G1 X19.043 Y-19.442 E59.58208
G1 X19.351 Y-19.112 E59.6046
G1 X19.733 Y-18.87 E59.62716
G1 X20.162 Y-18.73 E59.64967
G1 X20.613 Y-18.702 E59.67221
G1 X21.056 Y-18.786 E59.69471
G1 X21.465 Y-18.979 E59.71727
G1 X21.813 Y-19.267 E59.73981
G1 X22.079 Y-19.632 E59.76234
G1 X22.245 Y-20.052 E59.78487
G1 X22.302 Y-20.5 E59.8074
G1 X22.245 Y-20.948 E59.82993
G1 X22.079 Y-21.368 E59.85247
G1 X21.813 Y-21.733 E59.875
G1 X21.465 Y-22.021 E59.89753
G1 X21.056 Y-22.214 E59.9201
G1 X20.613 Y-22.298 E59.94259
G1 X20.162 Y-22.27 E59.96514
G1 X19.733 Y-22.13 E59.98765
G1 X19.351 Y-21.888 E60.01021
G1 X19.043 Y-21.558 E60.03273
G1 X18.825 Y-21.163 E60.05524
G1 X18.713 Y-20.726 E60.07775
G1 X18.713 Y-20.274 E60.1003
G0 F3600 X18.762 Y-20.081
G0 X18.278 Y-19.959
G0 X20.705 Y18.212
G0 X20.613 Y18.702
G1 F1800 X20.162 Y18.73 E60.12284
G1 X19.733 Y18.87 E60.14535
